;FLAVOR:Marlin
;TIME:171
;Filament used: 0.0797812m
;Layer height: 0.28
;MINX:101.523
;MINY:101.523
;MINZ:0.28
;MAXX:133.478
;MAXY:133.478
;MAXZ:3.92
;Generated with Cura_SteamEngine 4.12.1
M140 S50
M105
M190 S50
M104 S200
M105
M109 S200
M82 ;absolute extrusion mode
; Ender 3 Custom Start G-code
G92 E0 ; Reset Extruder
G28 ; Home all axes
G1 Z2.0 F3000 ; Move Z Axis up little to prevent scratching of Heat Bed
G1 X0.1 Y20 Z0.3 F5000.0 ; Move to start position
G1 X0.1 Y200.0 Z0.3 F1500.0 E15 ; Draw the first line
G1 X0.4 Y200.0 Z0.3 F5000.0 ; Move to side a little
G1 X0.4 Y20 Z0.3 F1500.0 E30 ; Draw the second line
G92 E0 ; Reset Extruder
G1 Z2.0 F3000 ; Move Z Axis up little to prevent scratching of Heat Bed
G1 X5 Y20 Z0.3 F5000.0 ; Move over to prevent blob squish
G92 E0
G92 E0
G1 F2700 E-5
;LAYER_COUNT:14
;LAYER:0
M107
G0 F6000 X106.306 Y106.081 Z0.28
;TYPE:SKIRT
G1 F2700 E0
G1 F1200 X106.41 Y105.98 E0.00675
G1 X106.839 Y105.585 E0.0339
G1 X107.099 Y105.358 E0.04998
G1 X107.532 Y104.999 E0.07617
G1 X107.668 Y104.892 E0.08422
G1 X108.082 Y104.582 E0.10831
G1 X108.246 Y104.465 E0.11769
G1 X108.804 Y104.092 E0.14894
G1 X109.308 Y103.777 E0.17662
G1 X110.356 Y103.199 E0.23235
G1 X110.675 Y103.045 E0.24884
G1 X111.54 Y102.672 E0.2927
G1 X112.12 Y102.451 E0.3216
G1 X113.215 Y102.098 E0.37518
G1 X113.539 Y102.012 E0.39079
G1 X114.553 Y101.794 E0.43908
G1 X115.099 Y101.703 E0.46486
G1 X116.144 Y101.579 E0.51386
G1 X116.633 Y101.545 E0.53668
G1 X117.709 Y101.523 E0.58679
G1 X118.201 Y101.537 E0.60971
G1 X119.233 Y101.616 E0.65791
G1 X119.712 Y101.675 E0.68038
G1 X120.848 Y101.876 E0.7341
G1 X121.444 Y102.014 E0.76259
G1 X122.598 Y102.348 E0.81853
G1 X122.915 Y102.459 E0.83417
G1 X123.788 Y102.807 E0.87793
G1 X124.36 Y103.064 E0.90713
G1 X125.252 Y103.515 E0.95367
G1 X125.378 Y103.586 E0.9604
G1 X125.785 Y103.827 E0.98243
G1 X125.97 Y103.942 E0.99257
G1 X126.548 Y104.327 E1.02491
G1 X126.959 Y104.62 E1.04841
G1 X127.795 Y105.279 E1.09798
G1 X128.257 Y105.681 E1.1265
G1 X128.898 Y106.286 E1.16754
G1 X128.989 Y106.379 E1.1736
G1 X129.421 Y106.846 E1.20322
G1 X129.651 Y107.11 E1.21953
G1 X129.966 Y107.488 E1.24244
G1 X130.071 Y107.62 E1.25029
G1 X130.417 Y108.08 E1.27709
G1 X130.534 Y108.244 E1.28647
G1 X130.905 Y108.799 E1.31756
G1 X131.219 Y109.301 E1.34513
G1 X131.692 Y110.137 E1.38986
G1 X131.769 Y110.288 E1.39775
G1 X132.013 Y110.797 E1.42403
G1 X132.114 Y111.023 E1.43556
G1 X132.348 Y111.589 E1.46408
G1 X132.535 Y112.079 E1.4885
G1 X132.797 Y112.85 E1.52642
G1 X132.855 Y113.044 E1.53585
G1 X133.026 Y113.686 E1.56678
G1 X133.108 Y114.036 E1.58352
G1 X133.28 Y114.938 E1.62628
G1 X133.328 Y115.263 E1.64158
G1 X133.42 Y116.113 E1.68139
G1 X133.464 Y116.751 E1.71117
G1 X133.478 Y118.017 E1.77012
G1 X133.463 Y118.341 E1.78522
G1 X133.389 Y119.208 E1.82574
G1 X133.319 Y119.763 E1.85179
G1 X133.12 Y120.876 E1.90444
G1 X132.989 Y121.44 E1.9314
G1 X132.733 Y122.358 E1.97578
G1 X132.69 Y122.49 E1.98224
G1 X132.516 Y122.984 E2.00663
G1 X132.417 Y123.245 E2.01963
G1 X132.175 Y123.831 E2.04915
G1 X131.986 Y124.254 E2.07072
G1 X131.644 Y124.953 E2.10696
G1 X131.528 Y125.17 E2.11841
G1 X131.175 Y125.781 E2.15127
G1 X131.064 Y125.96 E2.16108
G1 X130.673 Y126.548 E2.19396
G1 X130.38 Y126.959 E2.21746
G1 X129.74 Y127.773 E2.26568
G1 X129.347 Y128.227 E2.29364
G1 X128.731 Y128.883 E2.33554
G1 X128.629 Y128.983 E2.34219
G1 X128.149 Y129.426 E2.37261
G1 X127.887 Y129.654 E2.38878
G1 X127.261 Y130.16 E2.42626
G1 X126.966 Y130.381 E2.44342
G1 X126.208 Y130.901 E2.48623
G1 X125.7 Y131.219 E2.51413
G1 X124.835 Y131.707 E2.56038
G1 X124.687 Y131.782 E2.56811
G1 X124.203 Y132.013 E2.59308
G1 X123.977 Y132.114 E2.6046
G1 X123.411 Y132.348 E2.63312
G1 X122.921 Y132.535 E2.65755
G1 X122.135 Y132.802 E2.6962
G1 X121.94 Y132.86 E2.70567
G1 X121.288 Y133.032 E2.73707
G1 X120.93 Y133.115 E2.75418
G1 X120.342 Y133.234 E2.78212
G1 X120.222 Y133.255 E2.78779
G1 X119.751 Y133.327 E2.80998
G1 X119.552 Y133.353 E2.81932
G1 X118.885 Y133.42 E2.85054
G1 X118.248 Y133.464 E2.88027
G1 X116.978 Y133.478 E2.93941
G1 X116.656 Y133.463 E2.95442
G1 X115.792 Y133.389 E2.9948
G1 X115.237 Y133.319 E3.02084
G1 X114.141 Y133.124 E3.07268
G1 X113.573 Y132.993 E3.09982
G1 X112.566 Y132.71 E3.14853
G1 X112.434 Y132.666 E3.15501
G1 X112.029 Y132.521 E3.17504
G1 X111.772 Y132.424 E3.18783
G1 X111.149 Y132.167 E3.21921
G1 X110.726 Y131.977 E3.2408
G1 X110.05 Y131.645 E3.27587
G1 X109.831 Y131.528 E3.28743
G1 X109.208 Y131.169 E3.32092
G1 X109.068 Y131.082 E3.32859
G1 X108.503 Y130.706 E3.36019
G1 X108.047 Y130.382 E3.38624
G1 X107.214 Y129.728 E3.43555
G1 X106.764 Y129.338 E3.46328
G1 X106.109 Y128.722 E3.50515
G1 X106.014 Y128.625 E3.51147
G1 X105.579 Y128.154 E3.54133
G1 X105.349 Y127.89 E3.55763
G1 X105.016 Y127.488 E3.58194
G1 X104.91 Y127.354 E3.58989
G1 X104.601 Y126.944 E3.6138
G1 X104.484 Y126.781 E3.62314
G1 X104.088 Y126.19 E3.65627
G1 X103.771 Y125.682 E3.68415
G1 X103.305 Y124.859 E3.72819
G1 X103.231 Y124.714 E3.73577
G1 X102.977 Y124.182 E3.76322
G1 X102.877 Y123.957 E3.77469
G1 X102.652 Y123.411 E3.80218
G1 X102.465 Y122.921 E3.82661
G1 X102.198 Y122.135 E3.86526
G1 X102.14 Y121.94 E3.87473
G1 X101.976 Y121.32 E3.9046
G1 X101.894 Y120.971 E3.92129
G1 X101.756 Y120.29 E3.95364
G1 X101.734 Y120.16 E3.95978
G1 X101.673 Y119.75 E3.97908
G1 X101.647 Y119.551 E3.98843
G1 X101.58 Y118.881 E4.01978
G1 X101.544 Y118.358 E4.04419
G1 X101.523 Y117.285 E4.09417
G1 X101.537 Y116.801 E4.11671
G1 X101.615 Y115.771 E4.16481
G1 X101.675 Y115.285 E4.18761
G1 X101.876 Y114.152 E4.24119
G1 X102.014 Y113.556 E4.26968
G1 X102.27 Y112.632 E4.31433
G1 X102.312 Y112.503 E4.32064
G1 X102.481 Y112.024 E4.3443
G1 X102.578 Y111.767 E4.35709
G1 X102.846 Y111.12 E4.3897
G1 X103.044 Y110.682 E4.41208
G1 X103.38 Y110.001 E4.44744
G1 X103.486 Y109.804 E4.45786
G1 X103.825 Y109.219 E4.48934
G1 X103.936 Y109.04 E4.49915
G1 X104.327 Y108.452 E4.53203
G1 X104.62 Y108.041 E4.55553
G1 X105.26 Y107.227 E4.60375
G1 X105.653 Y106.773 E4.63171
G1 X106.306 Y106.081 E4.67601
G0 F6000 X106.585 Y106.368
G1 F1200 X106.689 Y106.267 E4.68276
G1 X107.103 Y105.886 E4.70896
G1 X107.363 Y105.659 E4.72503
G1 X107.78 Y105.313 E4.75026
G1 X107.916 Y105.206 E4.75832
G1 X108.314 Y104.908 E4.78147
G1 X108.478 Y104.791 E4.79085
G1 X109.016 Y104.431 E4.82099
G1 X109.52 Y104.116 E4.84867
G1 X110.53 Y103.559 E4.90238
G1 X110.849 Y103.405 E4.91887
G1 X111.683 Y103.046 E4.96115
G1 X112.263 Y102.825 E4.99005
G1 X113.318 Y102.485 E5.04167
G1 X113.642 Y102.399 E5.05727
G1 X114.618 Y102.188 E5.10377
G1 X115.164 Y102.097 E5.12955
G1 X116.172 Y101.979 E5.1768
G1 X116.661 Y101.945 E5.19963
G1 X117.698 Y101.923 E5.24793
G1 X118.19 Y101.937 E5.27084
G1 X119.184 Y102.013 E5.31726
G1 X119.663 Y102.072 E5.33974
G1 X120.758 Y102.265 E5.39151
G1 X121.354 Y102.403 E5.42
G1 X122.466 Y102.726 E5.47392
G1 X122.783 Y102.837 E5.48956
G1 X123.624 Y103.172 E5.53171
G1 X124.196 Y103.429 E5.56091
G1 X125.056 Y103.863 E5.60576
G1 X125.182 Y103.934 E5.6125
G1 X125.574 Y104.167 E5.63373
G1 X125.759 Y104.282 E5.64388
G1 X126.316 Y104.653 E5.67504
G1 X126.727 Y104.946 E5.69854
G1 X127.532 Y105.58 E5.74626
G1 X127.994 Y105.982 E5.77477
G1 X128.612 Y106.566 E5.81437
G1 X128.703 Y106.659 E5.82042
G1 X129.119 Y107.109 E5.84896
G1 X129.349 Y107.373 E5.86526
G1 X129.653 Y107.737 E5.88735
G1 X129.758 Y107.869 E5.8952
G1 X130.091 Y108.312 E5.92101
G1 X130.208 Y108.476 E5.93039
G1 X130.566 Y109.011 E5.96036
G1 X130.88 Y109.513 E5.98793
G1 X131.336 Y110.319 E6.03105
G1 X131.413 Y110.47 E6.03895
G1 X131.648 Y110.96 E6.06425
G1 X131.749 Y111.186 E6.07578
G1 X131.974 Y111.732 E6.10328
G1 X132.161 Y112.222 E6.1277
G1 X132.414 Y112.965 E6.16425
G1 X132.472 Y113.159 E6.17367
G1 X132.637 Y113.777 E6.20346
G1 X132.719 Y114.127 E6.2202
G1 X132.884 Y114.996 E6.26138
G1 X132.932 Y115.321 E6.27668
G1 X133.021 Y116.141 E6.31509
G1 X133.065 Y116.779 E6.34487
G1 X133.079 Y117.998 E6.40163
G1 X133.064 Y118.322 E6.41674
G1 X132.992 Y119.158 E6.45581
G1 X132.922 Y119.713 E6.48186
G1 X132.73 Y120.785 E6.53257
G1 X132.599 Y121.349 E6.55953
G1 X132.353 Y122.234 E6.6023
G1 X132.31 Y122.366 E6.60876
G1 X132.142 Y122.842 E6.63227
G1 X132.043 Y123.103 E6.64527
G1 X131.81 Y123.668 E6.67373
G1 X131.621 Y124.091 E6.6953
G1 X131.291 Y124.764 E6.7302
G1 X131.175 Y124.981 E6.74166
G1 X130.836 Y125.57 E6.7733
G1 X130.725 Y125.749 E6.78311
G1 X130.347 Y126.316 E6.81484
G1 X130.054 Y126.727 E6.83834
G1 X129.437 Y127.512 E6.88484
G1 X129.044 Y127.966 E6.9128
G1 X128.451 Y128.597 E6.95312
G1 X128.349 Y128.697 E6.95977
G1 X127.887 Y129.124 E6.98906
G1 X127.625 Y129.352 E7.00524
G1 X127.021 Y129.839 E7.04136
G1 X126.726 Y130.06 E7.05853
G1 X125.995 Y130.562 E7.09982
G1 X125.487 Y130.88 E7.12773
G1 X124.655 Y131.35 E7.17222
G1 X124.507 Y131.425 E7.17995
G1 X124.04 Y131.648 E7.20405
G1 X123.814 Y131.749 E7.21557
G1 X123.268 Y131.974 E7.24307
G1 X122.778 Y132.161 E7.26749
G1 X122.021 Y132.418 E7.30472
G1 X121.826 Y132.476 E7.31419
G1 X121.198 Y132.642 E7.34444
G1 X120.84 Y132.725 E7.36155
G1 X120.273 Y132.84 E7.38849
G1 X120.153 Y132.861 E7.39416
G1 X119.699 Y132.931 E7.41555
G1 X119.5 Y132.957 E7.4249
G1 X118.857 Y133.021 E7.45498
G1 X118.22 Y133.065 E7.48472
G1 X116.997 Y133.079 E7.54167
G1 X116.675 Y133.064 E7.55668
G1 X115.842 Y132.992 E7.59561
G1 X115.287 Y132.922 E7.62166
G1 X114.231 Y132.734 E7.6716
G1 X113.663 Y132.603 E7.69875
G1 X112.693 Y132.33 E7.74567
G1 X112.561 Y132.286 E7.75215
G1 X112.17 Y132.147 E7.77147
G1 X111.913 Y132.05 E7.78426
G1 X111.313 Y131.802 E7.81449
G1 X110.89 Y131.612 E7.83608
G1 X110.238 Y131.292 E7.8699
G1 X110.019 Y131.175 E7.88147
G1 X109.419 Y130.829 E7.91372
G1 X109.279 Y130.742 E7.92139
G1 X108.734 Y130.38 E7.95186
G1 X108.278 Y130.056 E7.9779
G1 X107.476 Y129.425 E8.02542
G1 X107.026 Y129.035 E8.05315
G1 X106.395 Y128.442 E8.09347
G1 X106.3 Y128.345 E8.09979
G1 X105.881 Y127.891 E8.12856
G1 X105.651 Y127.627 E8.14486
G1 X105.33 Y127.24 E8.16828
G1 X105.224 Y127.106 E8.17623
G1 X104.926 Y126.711 E8.19927
G1 X104.809 Y126.548 E8.20862
G1 X104.427 Y125.979 E8.24053
G1 X104.11 Y125.471 E8.26841
G1 X103.661 Y124.677 E8.31088
G1 X103.587 Y124.532 E8.31846
G1 X103.343 Y124.019 E8.34492
G1 X103.243 Y123.794 E8.35638
G1 X103.026 Y123.268 E8.38288
G1 X102.839 Y122.778 E8.4073
G1 X102.582 Y122.021 E8.44452
G1 X102.524 Y121.826 E8.454
G1 X102.365 Y121.229 E8.48276
G1 X102.283 Y120.88 E8.49946
G1 X102.151 Y120.224 E8.53062
G1 X102.129 Y120.094 E8.53675
G1 X102.069 Y119.698 E8.5554
G1 X102.043 Y119.499 E8.56475
G1 X101.979 Y118.854 E8.59493
G1 X101.943 Y118.331 E8.61934
G1 X101.922 Y117.297 E8.6675
G1 X101.936 Y116.813 E8.69005
G1 X102.012 Y115.82 E8.73642
G1 X102.072 Y115.334 E8.75922
G1 X102.265 Y114.242 E8.81086
G1 X102.403 Y113.646 E8.83934
G1 X102.651 Y112.755 E8.88241
G1 X102.693 Y112.626 E8.88873
G1 X102.855 Y112.165 E8.91148
G1 X102.952 Y111.908 E8.92427
G1 X103.21 Y111.285 E8.95567
G1 X103.408 Y110.847 E8.97805
G1 X103.732 Y110.19 E9.01216
G1 X103.838 Y109.993 E9.02258
G1 X104.164 Y109.43 E9.05287
G1 X104.275 Y109.251 E9.06268
G1 X104.653 Y108.684 E9.09441
G1 X104.946 Y108.273 E9.11791
G1 X105.563 Y107.488 E9.16441
G1 X105.956 Y107.034 E9.19237
G1 X106.585 Y106.368 E9.23502
G0 F6000 X106.864 Y106.655
G1 F1200 X106.968 Y106.554 E9.24177
G1 X107.366 Y106.187 E9.26698
G1 X107.626 Y105.96 E9.28305
G1 X108.027 Y105.628 E9.3073
G1 X108.163 Y105.521 E9.31535
G1 X108.546 Y105.233 E9.33767
G1 X108.71 Y105.116 E9.34705
G1 X109.228 Y104.77 E9.37605
G1 X109.732 Y104.455 E9.40373
G1 X110.704 Y103.919 E9.45541
G1 X111.023 Y103.765 E9.47191
G1 X111.825 Y103.419 E9.51258
G1 X112.405 Y103.198 E9.54148
G1 X113.42 Y102.871 E9.59114
G1 X113.744 Y102.785 E9.60675
G1 X114.684 Y102.583 E9.65152
G1 X115.23 Y102.492 E9.67729
G1 X116.2 Y102.378 E9.72277
G1 X116.689 Y102.344 E9.74559
G1 X117.686 Y102.323 E9.79203
G1 X118.178 Y102.337 E9.81495
G1 X119.135 Y102.41 E9.85964
G1 X119.614 Y102.469 E9.88211
G1 X120.668 Y102.655 E9.93195
G1 X121.264 Y102.793 E9.96043
G1 X122.334 Y103.103 E10.01231
G1 X122.651 Y103.214 E10.02795
G1 X123.46 Y103.537 E10.06851
G1 X124.032 Y103.794 E10.09771
G1 X124.859 Y104.212 E10.14086
G1 X124.985 Y104.283 E10.14759
G1 X125.363 Y104.506 E10.16803
G1 X125.548 Y104.621 E10.17817
G1 X126.084 Y104.978 E10.20816
G1 X126.495 Y105.271 E10.23166
G1 X127.269 Y105.882 E10.27758
G1 X127.731 Y106.284 E10.30609
G1 X128.326 Y106.845 E10.34417
G1 X128.417 Y106.938 E10.35023
G1 X128.818 Y107.372 E10.37775
G1 X129.048 Y107.636 E10.39405
G1 X129.34 Y107.986 E10.41527
G1 X129.445 Y108.118 E10.42313
G1 X129.766 Y108.544 E10.44797
G1 X129.883 Y108.708 E10.45735
G1 X130.227 Y109.223 E10.48618
G1 X130.541 Y109.725 E10.51376
G1 X130.98 Y110.5 E10.55523
G1 X131.057 Y110.651 E10.56312
G1 X131.282 Y111.123 E10.58747
G1 X131.383 Y111.349 E10.599
G1 X131.601 Y111.874 E10.62547
G1 X131.788 Y112.364 E10.64989
G1 X132.031 Y113.079 E10.68505
G1 X132.089 Y113.273 E10.69448
G1 X132.247 Y113.868 E10.72315
G1 X132.329 Y114.218 E10.73989
G1 X132.489 Y115.055 E10.77957
G1 X132.537 Y115.38 E10.79486
G1 X132.622 Y116.168 E10.83177
G1 X132.666 Y116.806 E10.86155
G1 X132.679 Y117.98 E10.91622
G1 X132.664 Y118.304 E10.93132
G1 X132.595 Y119.108 E10.9689
G1 X132.525 Y119.663 E10.99494
G1 X132.341 Y120.695 E11.04376
G1 X132.21 Y121.259 E11.07072
G1 X131.972 Y122.11 E11.11186
G1 X131.929 Y122.242 E11.11833
G1 X131.768 Y122.7 E11.14093
G1 X131.669 Y122.961 E11.15393
G1 X131.445 Y123.505 E11.18133
G1 X131.256 Y123.928 E11.2029
G1 X130.938 Y124.576 E11.23651
G1 X130.822 Y124.793 E11.24797
G1 X130.496 Y125.359 E11.27838
G1 X130.385 Y125.538 E11.28819
G1 X130.022 Y126.084 E11.31872
G1 X129.729 Y126.495 E11.34222
G1 X129.135 Y127.25 E11.38695
G1 X128.742 Y127.704 E11.41492
G1 X128.171 Y128.312 E11.45375
G1 X128.069 Y128.412 E11.46041
G1 X127.624 Y128.822 E11.48858
G1 X127.362 Y129.05 E11.50475
G1 X126.782 Y129.519 E11.53949
G1 X126.487 Y129.74 E11.55665
G1 X125.783 Y130.223 E11.5964
G1 X125.275 Y130.541 E11.62431
G1 X124.474 Y130.993 E11.66714
G1 X124.326 Y131.068 E11.67486
G1 X123.877 Y131.282 E11.69802
G1 X123.651 Y131.383 E11.70955
G1 X123.126 Y131.601 E11.73602
G1 X122.636 Y131.788 E11.76044
G1 X121.907 Y132.035 E11.79628
G1 X121.712 Y132.093 E11.80576
G1 X121.108 Y132.252 E11.83484
G1 X120.75 Y132.335 E11.85195
G1 X120.204 Y132.446 E11.87789
G1 X120.084 Y132.467 E11.88357
G1 X119.647 Y132.534 E11.90415
G1 X119.448 Y132.56 E11.9135
G1 X118.83 Y132.622 E11.94242
G1 X118.193 Y132.666 E11.97215
G1 X117.015 Y132.679 E12.02701
G1 X116.693 Y132.664 E12.04202
G1 X115.892 Y132.595 E12.07945
G1 X115.337 Y132.525 E12.1055
G1 X114.321 Y132.344 E12.15356
G1 X113.753 Y132.213 E12.1807
G1 X112.819 Y131.951 E12.22587
G1 X112.687 Y131.907 E12.23235
G1 X112.311 Y131.773 E12.25093
G1 X112.054 Y131.676 E12.26372
G1 X111.477 Y131.437 E12.29281
G1 X111.054 Y131.247 E12.3144
G1 X110.427 Y130.94 E12.34691
G1 X110.208 Y130.823 E12.35847
G1 X109.63 Y130.489 E12.38955
G1 X109.49 Y130.402 E12.39723
G1 X108.966 Y130.054 E12.42652
G1 X108.51 Y129.73 E12.45256
G1 X107.738 Y129.123 E12.49829
G1 X107.288 Y128.733 E12.52602
G1 X106.681 Y128.162 E12.56483
G1 X106.586 Y128.065 E12.57115
G1 X106.182 Y127.628 E12.59886
G1 X105.952 Y127.364 E12.61516
G1 X105.643 Y126.992 E12.63768
G1 X105.537 Y126.858 E12.64564
G1 X105.251 Y126.478 E12.66778
G1 X105.134 Y126.315 E12.67713
G1 X104.767 Y125.767 E12.70784
G1 X104.45 Y125.259 E12.73572
G1 X104.018 Y124.496 E12.77655
G1 X103.944 Y124.351 E12.78413
G1 X103.708 Y123.857 E12.80962
G1 X103.608 Y123.632 E12.82109
G1 X103.399 Y123.126 E12.84658
G1 X103.212 Y122.636 E12.871
