;FLAVOR:Marlin
;TIME:2120
;Filament used: 3.40356m
;Layer height: 0.28
;MINX:71.5
;MINY:91.5
;MINZ:0.28
;MAXX:163.5
;MAXY:143.5
;MAXZ:10.08
;Generated with Cura_SteamEngine 4.12.1
M140 S50
M105
M190 S50
M104 S200
M105
M109 S200
M82 ;absolute extrusion mode
; Ender 3 Custom Start G-code
G92 E0 ; Reset Extruder
G28 ; Home all axes
G1 Z2.0 F3000 ; Move Z Axis up little to prevent scratching of Heat Bed
G1 X0.1 Y20 Z0.3 F5000.0 ; Move to start position
G1 X0.1 Y200.0 Z0.3 F1500.0 E15 ; Draw the first line
G1 X0.4 Y200.0 Z0.3 F5000.0 ; Move to side a little
G1 X0.4 Y20 Z0.3 F1500.0 E30 ; Draw the second line
G92 E0 ; Reset Extruder
G1 Z2.0 F3000 ; Move Z Axis up little to prevent scratching of Heat Bed
G1 X5 Y20 Z0.3 F5000.0 ; Move over to prevent blob squish
G92 E0
G92 E0
G1 F2700 E-5
;LAYER_COUNT:36
;LAYER:0
M107
G0 F6000 X75.386 Y94.127 Z0.28
;TYPE:SKIRT
G1 F2700 E0
G1 F1200 X76.126 Y93.551 E0.04367
G1 X76.912 Y93.039 E0.08735
G1 X77.739 Y92.597 E0.13101
G1 X78.601 Y92.227 E0.17469
G1 X79.491 Y91.931 E0.21836
G1 X80.403 Y91.713 E0.26203
G1 X81.33 Y91.572 E0.30569
G1 X82.201 Y91.513 E0.34634
G1 X82.522 Y91.504 E0.36129
G1 X82.83 Y91.5 E0.37563
G1 X151.793 Y91.5 E3.58684
G1 X152.649 Y91.511 E3.6267
G1 X153.585 Y91.565 E3.67036
G1 X154.513 Y91.697 E3.714
G1 X155.427 Y91.909 E3.75769
G1 X156.319 Y92.198 E3.80135
G1 X157.184 Y92.561 E3.84504
G1 X158.014 Y92.997 E3.88869
G1 X158.805 Y93.502 E3.93239
G1 X159.549 Y94.073 E3.97606
G1 X160.242 Y94.705 E4.01973
G1 X160.879 Y95.393 E4.06339
G1 X161.454 Y96.134 E4.10707
G1 X161.965 Y96.92 E4.15072
G1 X162.407 Y97.748 E4.19443
G1 X162.776 Y98.61 E4.23809
G1 X163.071 Y99.5 E4.28175
G1 X163.289 Y100.412 E4.32541
G1 X163.429 Y101.34 E4.36911
G1 X163.487 Y102.201 E4.40929
G1 X163.496 Y102.521 E4.4242
G1 X163.5 Y102.83 E4.43859
G1 X163.499 Y131.9 E5.79221
G1 X163.49 Y132.627 E5.82606
G1 X163.439 Y133.564 E5.86976
G1 X163.307 Y134.492 E5.91341
G1 X163.098 Y135.406 E5.95706
G1 X162.811 Y136.299 E6.00074
G1 X162.449 Y137.165 E6.04445
G1 X162.015 Y137.996 E6.0881
G1 X161.511 Y138.787 E6.13177
G1 X160.942 Y139.532 E6.17543
G1 X160.311 Y140.227 E6.21914
G1 X159.624 Y140.865 E6.26279
G1 X158.885 Y141.442 E6.30645
G1 X158.099 Y141.954 E6.35013
G1 X157.273 Y142.397 E6.39377
G1 X156.411 Y142.769 E6.43749
G1 X155.522 Y143.065 E6.48112
G1 X154.61 Y143.285 E6.52481
G1 X153.683 Y143.426 E6.56847
G1 X152.799 Y143.487 E6.60973
G1 X152.478 Y143.496 E6.62468
G1 X152.17 Y143.5 E6.63902
G1 X83.065 Y143.499 E9.85684
G1 X82.367 Y143.49 E9.88935
G1 X81.431 Y143.438 E9.933
G1 X80.502 Y143.306 E9.97669
G1 X79.588 Y143.096 E10.02036
G1 X78.695 Y142.809 E10.06403
G1 X77.83 Y142.446 E10.10772
G1 X76.999 Y142.012 E10.15137
G1 X76.208 Y141.508 E10.19504
G1 X75.463 Y140.938 E10.23872
G1 X74.769 Y140.307 E10.2824
G1 X74.132 Y139.62 E10.32602
G1 X73.555 Y138.88 E10.36972
G1 X73.043 Y138.094 E10.4134
G1 X72.6 Y137.267 E10.45708
G1 X72.229 Y136.406 E10.50074
G1 X71.933 Y135.516 E10.54441
G1 X71.714 Y134.604 E10.58809
G1 X71.573 Y133.677 E10.63175
G1 X71.513 Y132.788 E10.67324
G1 X71.504 Y132.455 E10.68875
G1 X71.5 Y132.158 E10.70258
G1 X71.501 Y103.025 E12.05913
G1 X71.51 Y102.36 E12.0901
G1 X71.563 Y101.424 E12.13376
G1 X71.695 Y100.495 E12.17745
G1 X71.906 Y99.581 E12.22113
G1 X72.194 Y98.689 E12.26477
G1 X72.557 Y97.824 E12.30846
G1 X72.992 Y96.993 E12.35213
G1 X73.496 Y96.203 E12.39577
G1 X74.066 Y95.458 E12.43944
G1 X74.698 Y94.764 E12.48315
G1 X75.386 Y94.127 E12.52681
G0 F6000 X75.774 Y94.323
G1 F1200 X76.51 Y93.77 E12.56968
G1 X77.291 Y93.282 E12.61256
G1 X78.111 Y92.864 E12.65542
G1 X78.965 Y92.519 E12.69831
G1 X79.845 Y92.249 E12.74117
G1 X80.745 Y92.057 E12.78402
G1 X81.659 Y91.943 E12.82691
G1 X82.212 Y91.913 E12.8527
G1 X82.533 Y91.904 E12.86765
G1 X82.83 Y91.9 E12.88148
G1 X151.793 Y91.9 E16.09269
G1 X152.643 Y91.911 E16.13227
G1 X153.562 Y91.964 E16.17513
G1 X154.473 Y92.097 E16.218
G1 X155.369 Y92.308 E16.26086
G1 X156.243 Y92.596 E16.30371
G1 X157.09 Y92.959 E16.34662
G1 X157.901 Y93.394 E16.38948
G1 X158.671 Y93.898 E16.43233
G1 X159.395 Y94.467 E16.47521
G1 X160.067 Y95.097 E16.5181
G1 X160.682 Y95.782 E16.56096
G1 X161.235 Y96.518 E16.60383
G1 X161.722 Y97.299 E16.64669
G1 X162.139 Y98.12 E16.68957
G1 X162.484 Y98.974 E16.73245
G1 X162.753 Y99.854 E16.7753
G1 X162.945 Y100.755 E16.8182
G1 X163.058 Y101.668 E16.86104
G1 X163.087 Y102.212 E16.8864
G1 X163.096 Y102.532 E16.90131
G1 X163.1 Y102.83 E16.91519
G1 X163.099 Y131.895 E18.26858
G1 X163.09 Y132.622 E18.30243
G1 X163.039 Y133.541 E18.34529
G1 X162.908 Y134.453 E18.38819
G1 X162.698 Y135.349 E18.43104
G1 X162.412 Y136.224 E18.47391
G1 X162.051 Y137.071 E18.51678
G1 X161.617 Y137.883 E18.55965
G1 X161.115 Y138.655 E18.60253
G1 X160.547 Y139.38 E18.64542
G1 X159.919 Y140.053 E18.68828
G1 X159.235 Y140.669 E18.73114
G1 X158.5 Y141.223 E18.774
G1 X157.72 Y141.712 E18.81687
G1 X156.9 Y142.131 E18.85975
G1 X156.047 Y142.477 E18.90261
G1 X155.167 Y142.748 E18.94548
G1 X154.267 Y142.941 E18.98834
G1 X153.353 Y143.056 E19.03124
G1 X152.788 Y143.087 E19.05759
G1 X152.467 Y143.096 E19.07254
G1 X152.17 Y143.1 E19.08637
G1 X83.07 Y143.099 E22.30396
G1 X82.372 Y143.09 E22.33646
G1 X81.453 Y143.038 E22.37932
G1 X80.542 Y142.907 E22.42218
G1 X79.646 Y142.697 E22.46503
G1 X78.771 Y142.41 E22.50791
G1 X77.924 Y142.048 E22.5508
G1 X77.112 Y141.614 E22.59367
G1 X76.341 Y141.112 E22.63651
G1 X75.616 Y140.544 E22.6794
G1 X74.943 Y139.915 E22.72229
G1 X74.328 Y139.231 E22.76512
G1 X73.774 Y138.496 E22.80798
G1 X73.286 Y137.715 E22.85086
G1 X72.867 Y136.895 E22.89374
G1 X72.521 Y136.042 E22.9366
G1 X72.251 Y135.162 E22.97947
G1 X72.058 Y134.261 E23.02237
G1 X71.944 Y133.348 E23.06522
G1 X71.913 Y132.777 E23.09184
G1 X71.904 Y132.444 E23.10735
G1 X71.9 Y132.158 E23.12067
G1 X71.901 Y103.031 E24.47695
G1 X71.91 Y102.366 E24.50792
G1 X71.962 Y101.446 E24.55082
G1 X72.094 Y100.535 E24.59369
G1 X72.305 Y99.639 E24.63655
G1 X72.592 Y98.764 E24.67943
G1 X72.955 Y97.918 E24.7223
G1 X73.389 Y97.106 E24.76517
G1 X73.892 Y96.335 E24.80803
G1 X74.461 Y95.611 E24.85091
G1 X75.089 Y94.939 E24.89374
G1 X75.774 Y94.323 E24.93664
G0 F6000 X76.162 Y94.524
G1 F1200 X76.894 Y93.994 E24.97872
G1 X77.669 Y93.531 E25.02075
G1 X78.482 Y93.138 E25.0628
G1 X79.327 Y92.818 E25.10488
G1 X80.196 Y92.575 E25.14689
G1 X81.084 Y92.409 E25.18896
G1 X82.223 Y92.313 E25.24218
G1 X82.544 Y92.304 E25.25713
G1 X82.83 Y92.3 E25.27045
G1 X151.793 Y92.3 E28.48166
G1 X152.637 Y92.311 E28.52096
G1 X153.539 Y92.364 E28.56304
G1 X154.432 Y92.496 E28.60507
G1 X155.31 Y92.707 E28.64712
G1 X156.166 Y92.995 E28.68917
G1 X156.993 Y93.357 E28.73121
G1 X157.785 Y93.792 E28.77328
G1 X158.536 Y94.294 E28.81535
G1 X159.239 Y94.861 E28.8574
G1 X159.889 Y95.488 E28.89945
G1 X160.481 Y96.17 E28.94151
G1 X161.011 Y96.901 E28.98355
G1 X161.473 Y97.677 E29.0256
G1 X161.866 Y98.49 E29.06765
G1 X162.184 Y99.335 E29.10969
G1 X162.427 Y100.205 E29.15175
G1 X162.592 Y101.093 E29.19381
G1 X162.687 Y102.223 E29.24661
G1 X162.696 Y102.543 E29.26152
G1 X162.7 Y102.83 E29.27488
G1 X162.699 Y131.89 E30.62804
G1 X162.69 Y132.617 E30.66189
G1 X162.639 Y133.519 E30.70396
G1 X162.508 Y134.413 E30.74604
G1 X162.299 Y135.291 E30.78806
G1 X162.013 Y136.148 E30.83013
G1 X161.652 Y136.976 E30.87219
G1 X161.22 Y137.768 E30.9142
G1 X160.719 Y138.52 E30.95627
G1 X160.153 Y139.224 E30.99834
G1 X159.528 Y139.875 E31.04036
G1 X158.847 Y140.469 E31.08244
G1 X158.116 Y141 E31.12451
G1 X157.342 Y141.464 E31.16653
G1 X156.529 Y141.858 E31.2086
G1 X155.685 Y142.178 E31.25063
G1 X154.815 Y142.423 E31.29271
G1 X153.928 Y142.589 E31.33473
G1 X152.777 Y142.687 E31.38852
G1 X152.456 Y142.696 E31.40347
G1 X152.17 Y142.7 E31.41679
G1 X83.075 Y142.699 E34.63415
G1 X82.377 Y142.69 E34.66665
G1 X81.476 Y142.639 E34.70867
G1 X80.582 Y142.507 E34.75075
G1 X79.704 Y142.298 E34.79278
G1 X78.847 Y142.011 E34.83486
G1 X78.02 Y141.65 E34.87688
G1 X77.227 Y141.217 E34.91895
G1 X76.476 Y140.716 E34.96099
G1 X75.772 Y140.15 E35.00305
G1 X75.121 Y139.524 E35.0451
G1 X74.528 Y138.843 E35.08715
G1 X73.998 Y138.112 E35.12919
G1 X73.534 Y137.337 E35.17126
G1 X73.14 Y136.524 E35.21332
G1 X72.82 Y135.68 E35.25535
G1 X72.576 Y134.81 E35.29743
G1 X72.41 Y133.922 E35.33949
G1 X72.313 Y132.767 E35.39346
G1 X72.304 Y132.434 E35.40897
G1 X72.3 Y132.158 E35.42183
G1 X72.301 Y103.036 E36.77787
G1 X72.31 Y102.371 E36.80884
G1 X72.362 Y101.469 E36.85091
G1 X72.494 Y100.576 E36.89294
G1 X72.704 Y99.698 E36.93498
G1 X72.991 Y98.841 E36.97706
G1 X73.353 Y98.014 E37.0191
G1 X73.786 Y97.222 E37.06113
G1 X74.288 Y96.471 E37.10319
G1 X74.855 Y95.767 E37.14528
G1 X75.481 Y95.117 E37.1873
G1 X76.162 Y94.524 E37.22935
G1 F2700 E32.22935
;MESH:lasersupport.stl
G0 F6000 X107.9 Y115.591
G0 X106.472 Y115.306
G0 X106.661 Y118.568
G0 X106.817 Y119.624
G0 X107.076 Y120.661
G0 X107.437 Y121.669
G0 X107.893 Y122.633
G0 X108.442 Y123.551
G0 X109.08 Y124.41
G0 X109.797 Y125.203
G0 X110.59 Y125.92
G0 X111.449 Y126.558
G0 X112.367 Y127.107
G0 X113.331 Y127.563
G0 X114.339 Y127.924
G0 X115.376 Y128.183
G0 X116.432 Y128.339
G0 X117.5 Y128.392
G0 X118.568 Y128.339
G0 X119.166 Y128.251
G0 X121.73 Y127.712
;TYPE:WALL-INNER
G1 F2700 E37.22935
G1 F1200 X122.71 Y127.248 E37.27984
G1 X123.64 Y126.691 E37.33032
G1 X124.512 Y126.045 E37.38085
G1 X125.304 Y125.326 E37.43066
G1 X126.044 Y124.512 E37.48188
G1 X126.691 Y123.64 E37.53244
G1 X127.248 Y122.71 E37.58292
G1 X127.712 Y121.73 E37.63341
G1 X128.077 Y120.708 E37.68394
G1 X128.343 Y119.642 E37.7351
G1 X128.5 Y118.584 E37.78491
G1 X128.553 Y117.5 E37.83544
G1 X128.5 Y116.416 E37.88598
G1 X128.341 Y115.344 E37.93644
G1 X128.077 Y114.292 E37.98695
G1 X127.712 Y113.27 E38.03748
G1 X127.248 Y112.29 E38.08797
G1 X126.691 Y111.36 E38.13845
G1 X126.044 Y110.488 E38.18901
G1 X125.305 Y109.675 E38.24017
G1 X124.512 Y108.955 E38.29004
G1 X123.64 Y108.309 E38.34057
G1 X122.71 Y107.752 E38.39105
G1 X121.73 Y107.288 E38.44154
G1 X120.708 Y106.923 E38.49207
G1 X119.656 Y106.659 E38.54258
G1 X118.584 Y106.5 E38.59304
G1 X117.5 Y106.447 E38.64358
G1 X116.416 Y106.5 E38.69411
G1 X115.344 Y106.659 E38.74457
G1 X114.292 Y106.923 E38.79508
G1 X113.27 Y107.288 E38.84561
G1 X112.289 Y107.752 E38.89614
G1 X111.348 Y108.318 E38.94728
G1 X110.488 Y108.955 E38.99711
G1 X109.684 Y109.684 E39.04764
G1 X108.955 Y110.488 E39.09818
G1 X108.309 Y111.36 E39.14871
G1 X107.752 Y112.29 E39.19919
G1 X107.288 Y113.27 E39.24968
G1 X106.923 Y114.292 E39.30021
G1 X106.659 Y115.344 E39.35072
G1 X106.5 Y116.416 E39.40118
G1 X106.447 Y117.5 E39.45172
G1 X106.5 Y118.584 E39.50225
G1 X106.659 Y119.656 E39.55271
G1 X106.923 Y120.708 E39.60322
G1 X107.288 Y121.73 E39.65375
G1 X107.752 Y122.71 E39.70424
G1 X108.309 Y123.64 E39.75472
G1 X108.955 Y124.512 E39.80525
G1 X109.684 Y125.316 E39.85579
G1 X110.488 Y126.045 E39.90632
G1 X111.36 Y126.691 E39.95685
G1 X112.29 Y127.248 E40.00733
G1 X113.27 Y127.712 E40.05782
G1 X114.292 Y128.077 E40.10835
G1 X115.344 Y128.341 E40.15886
G1 X116.416 Y128.5 E40.20932
G1 X117.5 Y128.552 E40.25985
G1 X118.584 Y128.5 E40.31039
G1 X119.656 Y128.341 E40.36085
G1 X120.708 Y128.077 E40.41136
G1 X121.73 Y127.712 E40.46189
G0 F6000 X121.577 Y127.342
;TYPE:WALL-OUTER
G1 F1200 X122.521 Y126.895 E40.51052
G1 X123.418 Y126.358 E40.5592
G1 X124.258 Y125.735 E40.6079
G1 X125.021 Y125.043 E40.65587
G1 X125.735 Y124.258 E40.70528
G1 X126.358 Y123.418 E40.75397
G1 X126.895 Y122.521 E40.80266
G1 X127.342 Y121.577 E40.85129
G1 X127.694 Y120.592 E40.9
G1 X127.95 Y119.564 E40.94933
G1 X128.101 Y118.545 E40.99729
G1 X128.153 Y117.5 E41.04601
G1 X128.101 Y116.455 E41.09473
G1 X127.948 Y115.422 E41.14336
G1 X127.694 Y114.408 E41.19203
G1 X127.342 Y113.423 E41.24074
G1 X126.895 Y112.479 E41.28938
G1 X126.358 Y111.582 E41.33806
G1 X125.735 Y110.742 E41.38675
G1 X125.022 Y109.958 E41.4361
G1 X124.258 Y109.265 E41.48413
G1 X123.418 Y108.642 E41.53283
G1 X122.521 Y108.105 E41.58151
G1 X121.577 Y107.658 E41.63014
G1 X120.592 Y107.306 E41.67885
G1 X119.578 Y107.052 E41.72752
G1 X118.545 Y106.899 E41.77615
G1 X117.5 Y106.847 E41.82487
G1 X116.455 Y106.899 E41.87359
G1 X115.422 Y107.052 E41.92222
G1 X114.408 Y107.306 E41.97089
G1 X113.423 Y107.658 E42.0196
G1 X112.478 Y108.105 E42.06827
G1 X111.571 Y108.651 E42.11757
G1 X110.742 Y109.265 E42.16561
G1 X109.967 Y109.967 E42.2143
G1 X109.265 Y110.742 E42.26299
G1 X108.642 Y111.582 E42.31169
G1 X108.105 Y112.479 E42.36037
G1 X107.658 Y113.423 E42.409
G1 X107.306 Y114.408 E42.45771
G1 X107.052 Y115.422 E42.50638
G1 X106.899 Y116.455 E42.55501
G1 X106.847 Y117.5 E42.60373
G1 X106.899 Y118.545 E42.65245
G1 X107.052 Y119.578 E42.70107
G1 X107.306 Y120.592 E42.74975
G1 X107.658 Y121.577 E42.79846
G1 X108.105 Y122.521 E42.84709
G1 X108.642 Y123.418 E42.89577
G1 X109.265 Y124.258 E42.94447
G1 X109.967 Y125.033 E42.99316
G1 X110.742 Y125.735 E43.04185
G1 X111.582 Y126.358 E43.09055
G1 X112.479 Y126.895 E43.13923
G1 X113.423 Y127.342 E43.18786
G1 X114.408 Y127.694 E43.23657
G1 X115.422 Y127.948 E43.28525
G1 X116.455 Y128.101 E43.33387
G1 X117.5 Y128.152 E43.38259
G1 X118.545 Y128.101 E43.43131
G1 X119.578 Y127.948 E43.47993
G1 X120.592 Y127.694 E43.52861
G1 X121.577 Y127.342 E43.57731
G0 F6000 X121.745 Y127.748
G1 F2700 E38.57731
G0 F6000 X119.624 Y128.183
G0 X118.568 Y128.339
G0 X117.5 Y128.392
G0 X116.432 Y128.339
G0 X115.376 Y128.183
G0 X114.339 Y127.924
G0 X113.331 Y127.563
G0 X112.367 Y127.107
G0 X111.449 Y126.558
G0 X110.59 Y125.92
G0 X109.797 Y125.203
G0 X109.08 Y124.41
G0 X108.442 Y123.551
G0 X107.893 Y122.633
G0 X107.437 Y121.669
G0 X107.076 Y120.661
G0 X106.93 Y120.074
G0 X106.31 Y116.396
G0 X107.76 Y116.538
G0 X106.31 Y101.835
G0 X106.31 Y103.31
G0 X83.1 Y103.1
;TYPE:WALL-INNER
G1 F2700 E43.57731
G1 F1200 X151.9 Y103.1 E46.78093
G1 X151.9 Y131.9 E48.12198
G1 X83.1 Y131.9 E51.32559
G1 X83.1 Y103.1 E52.66664
G0 F6000 X82.7 Y102.7
;TYPE:WALL-OUTER
G1 F1200 X152.3 Y102.7 E55.90751
G1 X152.3 Y132.3 E57.28581
G1 X82.7 Y132.3 E60.52668
G1 X82.7 Y102.7 E61.90498
G0 F6000 X82.97 Y102.97
G0 X83.49 Y103.21
G0 X83.49 Y103.49
;TYPE:SKIN
G1 F1200 X151.51 Y103.49 E65.07227
G1 X151.51 Y131.51 E66.377
G1 X83.49 Y131.51 E69.5443
G1 X83.49 Y103.49 E70.84903
G1 F2700 E65.84903
G0 F6000 X83.49 Y103.21
G0 X107.186 Y103.31
G0 X107.186 Y101.835
G0 X108.872 Y112.881
G0 X107.584 Y112.2
G0 X107.186 Y113.228
G1 F2700 E70.84903
G0 F6000 X106.927 Y113.12
G1 F1200 X106.549 Y114.179 E70.90139
G1 X106.276 Y115.268 E70.95366
G1 X106.112 Y116.377 E71.00587
G1 X106.057 Y117.5 E71.05822
G1 X106.112 Y118.623 E71.11057
G1 X106.276 Y119.732 E71.16278
G1 X106.549 Y120.821 E71.21505
G1 X106.927 Y121.88 E71.26741
G1 X107.407 Y122.894 E71.31965
G1 X107.984 Y123.857 E71.37192
G1 X108.653 Y124.76 E71.42425
G1 X109.407 Y125.593 E71.47657
G1 X110.24 Y126.347 E71.52889
G1 X111.143 Y127.016 E71.58122
G1 X112.106 Y127.593 E71.63349
G1 X113.12 Y128.073 E71.68573
G1 X114.179 Y128.451 E71.73809
G1 X115.268 Y128.724 E71.79037
G1 X116.377 Y128.888 E71.84257
G1 X117.5 Y128.942 E71.89492
G1 X118.623 Y128.888 E71.94728
G1 X119.732 Y128.724 E71.99948
G1 X120.821 Y128.451 E72.05175
G1 X121.88 Y128.073 E72.10411
G1 X122.894 Y127.593 E72.15635
G1 X123.857 Y127.016 E72.20863
G1 X124.76 Y126.347 E72.26096
G1 X125.58 Y125.603 E72.31251
G1 X126.346 Y124.76 E72.36555
G1 X127.016 Y123.857 E72.41791
G1 X127.593 Y122.894 E72.47018
G1 X128.073 Y121.88 E72.52242
G1 X128.451 Y120.821 E72.57478
G1 X128.726 Y119.718 E72.62771
G1 X128.888 Y118.623 E72.67926
G1 X128.943 Y117.5 E72.73161
G1 X128.888 Y116.377 E72.78396
G1 X128.724 Y115.268 E72.83617
G1 X128.451 Y114.179 E72.88844
