;FLAVOR:Marlin
;TIME:10230
;Filament used: 10.088m
;Layer height: 0.28
;MINX:69.15
;MINY:60
;MINZ:0.28
;MAXX:165.85
;MAXY:175
;MAXZ:26.88
;Generated with Cura_SteamEngine 4.12.1
M140 S50
M105
M190 S50
M104 S200
M105
M109 S200
M82 ;absolute extrusion mode
; Ender 3 Custom Start G-code
G92 E0 ; Reset Extruder
G28 ; Home all axes
G1 Z2.0 F3000 ; Move Z Axis up little to prevent scratching of Heat Bed
G1 X0.1 Y20 Z0.3 F5000.0 ; Move to start position
G1 X0.1 Y200.0 Z0.3 F1500.0 E15 ; Draw the first line
G1 X0.4 Y200.0 Z0.3 F5000.0 ; Move to side a little
G1 X0.4 Y20 Z0.3 F1500.0 E30 ; Draw the second line
G92 E0 ; Reset Extruder
G1 Z2.0 F3000 ; Move Z Axis up little to prevent scratching of Heat Bed
G1 X5 Y20 Z0.3 F5000.0 ; Move over to prevent blob squish
G92 E0
G92 E0
G1 F2700 E-5
;LAYER_COUNT:96
;LAYER:0
M107
G0 F6000 X71.729 Y63.946 Z0.28
;TYPE:SKIRT
G1 F2700 E0
G1 F1200 X72.361 Y63.253 E0.04367
G1 X73.05 Y62.617 E0.08733
G1 X73.791 Y62.042 E0.13101
G1 X74.578 Y61.532 E0.17468
G1 X75.406 Y61.091 E0.21836
G1 X76.268 Y60.722 E0.26202
G1 X77.159 Y60.428 E0.30571
G1 X78.071 Y60.21 E0.34937
G1 X78.999 Y60.072 E0.39306
G1 X79.82 Y60.015 E0.43138
G1 X80.142 Y60.005 E0.44638
G1 X80.483 Y60 E0.46226
G1 X154.143 Y60 E3.89218
G1 X154.999 Y60.011 E3.93204
G1 X155.935 Y60.065 E3.9757
G1 X156.863 Y60.197 E4.01934
G1 X157.777 Y60.409 E4.06303
G1 X158.669 Y60.698 E4.10669
G1 X159.534 Y61.061 E4.15038
G1 X160.364 Y61.497 E4.19403
G1 X161.155 Y62.002 E4.23773
G1 X161.899 Y62.573 E4.2814
G1 X162.592 Y63.205 E4.32507
G1 X163.229 Y63.893 E4.36873
G1 X163.804 Y64.634 E4.41241
G1 X164.315 Y65.42 E4.45606
G1 X164.757 Y66.248 E4.49977
G1 X165.126 Y67.11 E4.54343
G1 X165.421 Y68 E4.58709
G1 X165.639 Y68.912 E4.63075
G1 X165.779 Y69.84 E4.67445
G1 X165.836 Y70.695 E4.71435
G1 X165.845 Y71.009 E4.72898
G1 X165.85 Y71.324 E4.74365
G1 X165.849 Y121.762 E7.09225
G1 X165.838 Y122.48 E7.12569
G1 X165.749 Y123.716 E7.18339
G1 X165.695 Y124.127 E7.20269
G1 X165.397 Y126.218 E7.30104
G1 X165.115 Y128.698 E7.41727
G1 X164.898 Y131.229 E7.53555
G1 X164.757 Y133.731 E7.65224
G1 X164.684 Y136.247 E7.76945
G1 X164.675 Y137.599 E7.8324
G1 X164.674 Y158.415 E8.80168
G1 X164.664 Y159.142 E8.83554
G1 X164.611 Y160.079 E8.87924
G1 X164.479 Y161.007 E8.92288
G1 X164.268 Y161.921 E8.96656
G1 X163.979 Y162.813 E9.01022
G1 X163.616 Y163.678 E9.05391
G1 X163.181 Y164.509 E9.09758
G1 X162.676 Y165.299 E9.14124
G1 X162.106 Y166.044 E9.18492
G1 X161.475 Y166.738 E9.2286
G1 X160.786 Y167.375 E9.27229
G1 X160.046 Y167.951 E9.31595
G1 X159.26 Y168.462 E9.35961
G1 X158.433 Y168.904 E9.40327
G1 X157.571 Y169.274 E9.44695
G1 X156.681 Y169.569 E9.49061
G1 X155.769 Y169.788 E9.53429
G1 X154.842 Y169.928 E9.57794
G1 X153.983 Y169.986 E9.61803
G1 X152.544 Y170.028 E9.68506
G1 X151.628 Y170.047 E9.72773
G1 X149.108 Y170.17 E9.84521
G1 X146.627 Y170.362 E9.96108
G1 X144.109 Y170.629 E10.07898
G1 X141.609 Y170.965 E10.19644
G1 X139.116 Y171.372 E10.31406
G1 X136.679 Y171.841 E10.42962
G1 X134.204 Y172.391 E10.54768
G1 X131.752 Y173.008 E10.66541
G1 X129.32 Y173.694 E10.78308
G1 X127.351 Y174.305 E10.87908
G1 X126.887 Y174.455 E10.90178
G1 X125.983 Y174.706 E10.94547
G1 X125.061 Y174.878 E10.98914
G1 X123.833 Y174.985 E11.04654
G1 X123.505 Y174.995 E11.06182
G1 X123.17 Y175 E11.07742
G1 X120.496 Y174.999 E11.20193
G1 X118.343 Y174.967 E11.3022
G1 X115.152 Y174.979 E11.45078
G1 X114.217 Y174.998 E11.49433
G1 X113.989 Y175 E11.50495
G1 X112.051 Y174.999 E11.59519
G1 X111.348 Y174.989 E11.62793
G1 X110.411 Y174.936 E11.67163
G1 X109.483 Y174.803 E11.71528
G1 X108.292 Y174.511 E11.77238
G1 X107.389 Y174.234 E11.81636
G1 X106.274 Y173.876 E11.87089
G1 X103.871 Y173.178 E11.98741
G1 X101.453 Y172.549 E12.10375
G1 X98.966 Y171.977 E12.22258
G1 X96.509 Y171.483 E12.33928
G1 X94.051 Y171.064 E12.45538
G1 X91.531 Y170.706 E12.5739
G1 X89.051 Y170.425 E12.69012
G1 X86.505 Y170.209 E12.8091
G1 X84.046 Y170.069 E12.92378
G1 X81.45 Y169.996 E13.04471
G1 X80.955 Y169.988 E13.06777
G1 X80.019 Y169.932 E13.11143
G1 X79.091 Y169.798 E13.15509
G1 X78.177 Y169.584 E13.1988
G1 X77.286 Y169.294 E13.24243
G1 X76.422 Y168.929 E13.2861
G1 X75.592 Y168.491 E13.3298
G1 X74.803 Y167.984 E13.37347
G1 X74.06 Y167.412 E13.41713
G1 X73.368 Y166.779 E13.4608
G1 X72.732 Y166.089 E13.5045
G1 X72.158 Y165.348 E13.54815
G1 X71.649 Y164.56 E13.59183
G1 X71.209 Y163.732 E13.63549
G1 X70.841 Y162.869 E13.67917
G1 X70.548 Y161.978 E13.72285
G1 X70.332 Y161.066 E13.76649
G1 X70.194 Y160.138 E13.81018
G1 X70.138 Y159.288 E13.84984
G1 X70.129 Y158.957 E13.86526
G1 X70.125 Y158.658 E13.87918
G1 X70.125 Y137.946 E14.84362
G1 X70.088 Y135.338 E14.96507
G1 X69.981 Y132.816 E15.08261
G1 X69.804 Y130.321 E15.19908
G1 X69.557 Y127.827 E15.31578
G1 X69.271 Y125.596 E15.42052
G1 X69.23 Y125.237 E15.43734
G1 X69.163 Y124.299 E15.48113
G1 X69.154 Y123.98 E15.49599
G1 X69.15 Y123.67 E15.51043
G1 X69.152 Y71.508 E17.93931
G1 X69.162 Y70.844 E17.97023
G1 X69.216 Y69.908 E18.01389
G1 X69.35 Y68.98 E18.05755
G1 X69.562 Y68.066 E18.10124
G1 X69.852 Y67.174 E18.14491
G1 X70.216 Y66.31 E18.18857
G1 X70.652 Y65.48 E18.23222
G1 X71.158 Y64.69 E18.27591
G1 X71.729 Y63.946 E18.31958
G0 F6000 X72.123 Y64.1
G1 F1200 X72.753 Y63.428 E18.36247
G1 X73.439 Y62.814 E18.40534
G1 X74.175 Y62.262 E18.44818
G1 X74.957 Y61.775 E18.49108
G1 X75.778 Y61.359 E18.53393
G1 X76.632 Y61.015 E18.5768
G1 X77.513 Y60.746 E18.6197
G1 X78.413 Y60.555 E18.66254
G1 X79.327 Y60.443 E18.70542
G1 X79.832 Y60.415 E18.72897
G1 X80.154 Y60.405 E18.74397
G1 X80.483 Y60.4 E18.75929
G1 X154.143 Y60.4 E22.18921
G1 X154.993 Y60.411 E22.22879
G1 X155.912 Y60.464 E22.27165
G1 X156.823 Y60.597 E22.31452
G1 X157.719 Y60.808 E22.35739
G1 X158.593 Y61.096 E22.40024
G1 X159.44 Y61.459 E22.44314
G1 X160.251 Y61.894 E22.486
G1 X161.021 Y62.398 E22.52885
G1 X161.745 Y62.967 E22.57173
G1 X162.417 Y63.597 E22.61462
G1 X163.032 Y64.282 E22.65748
G1 X163.585 Y65.018 E22.70035
G1 X164.072 Y65.799 E22.74321
G1 X164.489 Y66.62 E22.78609
G1 X164.834 Y67.474 E22.82898
G1 X165.103 Y68.354 E22.87182
G1 X165.295 Y69.255 E22.91472
G1 X165.408 Y70.168 E22.95756
G1 X165.437 Y70.706 E22.98265
G1 X165.446 Y71.02 E22.99727
G1 X165.45 Y71.324 E23.01143
G1 X165.449 Y121.755 E25.35971
G1 X165.438 Y122.473 E25.39314
G1 X165.352 Y123.665 E25.44879
G1 X165.299 Y124.07 E25.46781
G1 X165.002 Y126.152 E25.56574
G1 X164.714 Y128.686 E25.68449
G1 X164.501 Y131.171 E25.80063
G1 X164.358 Y133.698 E25.91849
G1 X164.284 Y136.279 E26.03872
G1 X164.275 Y137.596 E26.10004
G1 X164.274 Y158.41 E27.06923
G1 X164.264 Y159.137 E27.10309
G1 X164.211 Y160.056 E27.14595
G1 X164.079 Y160.967 E27.18881
G1 X163.868 Y161.863 E27.23168
G1 X163.581 Y162.738 E27.27456
G1 X163.218 Y163.584 E27.31742
G1 X162.784 Y164.396 E27.36029
G1 X162.28 Y165.167 E27.40319
G1 X161.712 Y165.891 E27.44603
G1 X161.083 Y166.563 E27.48889
G1 X160.398 Y167.178 E27.53176
G1 X159.662 Y167.731 E27.57463
G1 X158.881 Y168.219 E27.61751
G1 X158.061 Y168.637 E27.66037
G1 X157.207 Y168.982 E27.70325
G1 X156.327 Y169.251 E27.7461
G1 X155.426 Y169.444 E27.78901
G1 X154.513 Y169.557 E27.83185
G1 X153.971 Y169.587 E27.85712
G1 X152.536 Y169.628 E27.92397
G1 X151.599 Y169.647 E27.96761
G1 X149.093 Y169.77 E28.08444
G1 X146.59 Y169.963 E28.20134
G1 X144.05 Y170.232 E28.32027
G1 X141.557 Y170.568 E28.4374
G1 X139.054 Y170.977 E28.5555
G1 X136.581 Y171.452 E28.67276
G1 X134.125 Y171.998 E28.78991
G1 X131.65 Y172.621 E28.90875
G1 X129.218 Y173.307 E29.02642
G1 X127.187 Y173.937 E29.12543
G1 X126.764 Y174.074 E29.14614
G1 X125.876 Y174.32 E29.18904
G1 X124.971 Y174.487 E29.2319
G1 X123.821 Y174.585 E29.28564
G1 X123.493 Y174.595 E29.30092
G1 X123.17 Y174.6 E29.31596
G1 X120.502 Y174.599 E29.44019
G1 X118.347 Y174.567 E29.54055
G1 X115.143 Y174.579 E29.68974
G1 X114.209 Y174.598 E29.73324
G1 X113.989 Y174.6 E29.74349
G1 X112.056 Y174.599 E29.8335
G1 X111.353 Y174.589 E29.86623
G1 X110.434 Y174.536 E29.9091
G1 X109.523 Y174.403 E29.95197
G1 X108.409 Y174.128 E30.0054
G1 X107.512 Y173.853 E30.04908
G1 X106.404 Y173.497 E30.10328
G1 X103.987 Y172.795 E30.22047
G1 X101.53 Y172.156 E30.33869
G1 X99.063 Y171.588 E30.45657
G1 X96.556 Y171.085 E30.57563
G1 X94.138 Y170.673 E30.68984
G1 X91.561 Y170.306 E30.81105
G1 X89.094 Y170.026 E30.92666
G1 X86.563 Y169.812 E31.04494
G1 X84.043 Y169.669 E31.16247
G1 X81.466 Y169.596 E31.28251
G1 X80.962 Y169.588 E31.30598
G1 X80.042 Y169.533 E31.3489
G1 X79.132 Y169.398 E31.39173
G1 X78.236 Y169.185 E31.43462
G1 X77.362 Y168.895 E31.4775
G1 X76.517 Y168.531 E31.52034
G1 X75.706 Y168.094 E31.56324
G1 X74.937 Y167.589 E31.60608
G1 X74.214 Y167.018 E31.64897
G1 X73.543 Y166.388 E31.69183
G1 X72.93 Y165.701 E31.7347
G1 X72.378 Y164.964 E31.77758
G1 X71.893 Y164.182 E31.82043
G1 X71.477 Y163.36 E31.86333
G1 X71.134 Y162.506 E31.90618
G1 X70.867 Y161.625 E31.94905
G1 X70.677 Y160.724 E31.99192
G1 X70.566 Y159.81 E32.0348
G1 X70.538 Y159.277 E32.05965
G1 X70.529 Y158.946 E32.07507
G1 X70.525 Y158.658 E32.08848
G1 X70.525 Y137.94 E33.0532
G1 X70.488 Y135.315 E33.17544
G1 X70.381 Y132.807 E33.29233
G1 X70.203 Y130.286 E33.41001
G1 X69.954 Y127.773 E33.5276
G1 X69.668 Y125.551 E33.63192
G1 X69.627 Y125.192 E33.64874
G1 X69.563 Y124.288 E33.69094
G1 X69.554 Y123.969 E33.7058
G1 X69.55 Y123.67 E33.71973
G1 X69.552 Y71.514 E36.14833
G1 X69.562 Y70.85 E36.17925
G1 X69.616 Y69.931 E36.22212
G1 X69.749 Y69.02 E36.26498
G1 X69.961 Y68.124 E36.30786
G1 X70.25 Y67.25 E36.35072
G1 X70.614 Y66.404 E36.39361
G1 X71.049 Y65.593 E36.43646
G1 X71.554 Y64.823 E36.47934
G1 X72.123 Y64.1 E36.52218
G0 F6000 X72.517 Y64.257
G1 F1200 X73.144 Y63.607 E36.56423
G1 X73.827 Y63.015 E36.60632
G1 X74.559 Y62.486 E36.64837
G1 X75.334 Y62.024 E36.69039
G1 X76.148 Y61.633 E36.73244
G1 X76.993 Y61.314 E36.77449
G1 X77.863 Y61.072 E36.81654
G1 X78.751 Y60.908 E36.85859
G1 X79.844 Y60.815 E36.90967
G1 X80.166 Y60.805 E36.92467
G1 X80.483 Y60.8 E36.93943
G1 X154.143 Y60.8 E40.36935
G1 X154.987 Y60.811 E40.40865
G1 X155.889 Y60.864 E40.45073
G1 X156.782 Y60.996 E40.49276
G1 X157.66 Y61.207 E40.53481
G1 X158.516 Y61.495 E40.57686
G1 X159.343 Y61.857 E40.6189
G1 X160.135 Y62.292 E40.66097
G1 X160.886 Y62.794 E40.70304
G1 X161.589 Y63.361 E40.74509
G1 X162.239 Y63.988 E40.78715
G1 X162.831 Y64.67 E40.8292
G1 X163.361 Y65.401 E40.87124
G1 X163.823 Y66.177 E40.91329
G1 X164.216 Y66.99 E40.95534
G1 X164.534 Y67.835 E40.99738
G1 X164.777 Y68.705 E41.03944
G1 X164.942 Y69.593 E41.0815
G1 X165.037 Y70.718 E41.13407
G1 X165.046 Y71.032 E41.1487
G1 X165.05 Y71.324 E41.1623
G1 X165.049 Y121.749 E43.5103
G1 X165.038 Y122.467 E43.54373
G1 X164.955 Y123.614 E43.59728
G1 X164.903 Y124.014 E43.61606
G1 X164.603 Y126.122 E43.71521
G1 X164.32 Y128.608 E43.83172
G1 X164.102 Y131.151 E43.95056
G1 X163.958 Y133.699 E44.0694
G1 X163.884 Y136.265 E44.18893
G1 X163.875 Y137.593 E44.25077
G1 X163.874 Y158.404 E45.21982
G1 X163.864 Y159.131 E45.25367
G1 X163.812 Y160.033 E45.29574
G1 X163.68 Y160.926 E45.33778
G1 X163.469 Y161.805 E45.37987
G1 X163.182 Y162.661 E45.42191
G1 X162.82 Y163.488 E45.46395
G1 X162.386 Y164.28 E45.506
G1 X161.884 Y165.031 E45.54806
G1 X161.318 Y165.734 E45.59009
G1 X160.691 Y166.385 E45.63217
G1 X160.01 Y166.977 E45.67419
G1 X159.279 Y167.507 E45.71623
G1 X158.503 Y167.97 E45.75831
G1 X157.69 Y168.363 E45.80036
G1 X156.845 Y168.683 E45.84243
G1 X155.976 Y168.926 E45.88445
G1 X155.088 Y169.091 E45.92651
G1 X153.96 Y169.187 E45.97922
G1 X152.527 Y169.228 E46.04597
G1 X151.608 Y169.247 E46.08878
G1 X149.077 Y169.371 E46.20677
G1 X146.518 Y169.569 E46.32629
G1 X144.026 Y169.832 E46.44297
G1 X141.511 Y170.171 E46.56114
G1 X138.98 Y170.584 E46.68055
G1 X136.491 Y171.063 E46.79857
G1 X134.012 Y171.614 E46.91682
G1 X131.591 Y172.223 E47.03307
G1 X129.06 Y172.937 E47.15552
G1 X127.096 Y173.546 E47.25127
G1 X126.64 Y173.694 E47.27359
G1 X125.77 Y173.934 E47.31562
G1 X124.881 Y174.096 E47.35769
G1 X123.809 Y174.185 E47.40778
G1 X123.481 Y174.195 E47.42306
G1 X123.17 Y174.2 E47.43755
G1 X120.508 Y174.199 E47.5615
G1 X118.352 Y174.167 E47.6619
G1 X115.133 Y174.179 E47.81179
G1 X114.2 Y174.198 E47.85525
G1 X113.989 Y174.2 E47.86507
G1 X112.062 Y174.199 E47.9548
G1 X111.359 Y174.189 E47.98754
G1 X110.457 Y174.136 E48.02961
G1 X109.564 Y174.004 E48.07165
G1 X108.525 Y173.745 E48.12151
G1 X107.634 Y173.472 E48.1649
G1 X106.523 Y173.115 E48.21924
G1 X104.094 Y172.41 E48.33701
G1 X101.623 Y171.767 E48.4559
G1 X99.153 Y171.199 E48.57392
G1 X96.637 Y170.693 E48.69342
G1 X94.149 Y170.269 E48.81094
G1 X91.666 Y169.916 E48.92772
G1 X89.137 Y169.629 E49.04624
G1 X86.584 Y169.413 E49.16554
G1 X84.043 Y169.269 E49.28405
G1 X81.484 Y169.196 E49.40326
G1 X80.968 Y169.188 E49.42729
G1 X80.067 Y169.133 E49.46932
G1 X79.173 Y168.999 E49.51141
G1 X78.296 Y168.786 E49.55344
G1 X77.44 Y168.497 E49.59551
G1 X76.614 Y168.133 E49.63754
G1 X75.823 Y167.697 E49.67959
G1 X75.073 Y167.193 E49.72167
G1 X74.371 Y166.625 E49.76372
G1 X73.722 Y165.997 E49.80577
G1 X73.132 Y165.314 E49.8478
G1 X72.604 Y164.581 E49.88986
G1 X72.142 Y163.805 E49.93191
G1 X71.752 Y162.99 E49.97399
G1 X71.434 Y162.145 E50.01603
G1 X71.193 Y161.275 E50.05806
G1 X71.03 Y160.386 E50.10015
G1 X70.938 Y159.266 E50.15248
G1 X70.929 Y158.935 E50.16789
G1 X70.925 Y158.658 E50.18079
G1 X70.925 Y137.934 E51.14579
G1 X70.888 Y135.328 E51.26715
G1 X70.779 Y132.76 E51.38683
G1 X70.602 Y130.258 E51.50363
G1 X70.353 Y127.749 E51.62103
G1 X70.083 Y125.65 E51.71957
G1 X70.025 Y125.146 E51.7432
G1 X69.963 Y124.277 E51.78377
G1 X69.954 Y123.958 E51.79863
G1 X69.95 Y123.67 E51.81204
G1 X69.952 Y71.52 E54.24036
G1 X69.962 Y70.856 E54.27128
G1 X70.016 Y69.955 E54.31331
G1 X70.149 Y69.062 E54.35535
G1 X70.36 Y68.184 E54.3974
G1 X70.649 Y67.328 E54.43947
G1 X71.012 Y66.501 E54.48152
G1 X71.446 Y65.709 E54.52358
G1 X71.95 Y64.959 E54.56565
G1 X72.517 Y64.257 E54.60767
G1 F2700 E49.60767
;MESH:Copy of motor (1).stl
G0 F6000 X103.602 Y112.665
G0 X103.602 Y111.23
G0 X101.675 Y111.4
;TYPE:WALL-INNER
G1 F2700 E54.60767
G1 F1200 X101.675 Y114.6 E54.75668
G1 X133.225 Y114.6 E56.22578
G1 X133.225 Y111.4 E56.37478
G1 X101.675 Y111.4 E57.84388
G0 F6000 X102.075 Y111.8
;TYPE:WALL-OUTER
G1 F1200 X102.075 Y114.2 E57.95564
G1 X132.825 Y114.2 E59.38748
G1 X132.825 Y111.8 E59.49924
G1 X102.075 Y111.8 E60.93109
G1 F2700 E55.93109
G0 F6000 X102.075 Y111.5
G0 X101.847 Y114.428
G0 X103.687 Y114.79
G0 X103.687 Y113.335
G0 X101.832 Y137.293
G0 X102.864 Y136.261
G0 X103.41 Y137.807
G0 X103.536 Y138.592
G0 X103.687 Y153.721
;TYPE:WALL-INNER
G1 F2700 E60.93109
G1 F1200 X103.728 Y153.21 E60.95496
G1 X103.727 Y138.77 E61.62735
G1 X103.687 Y138.278 E61.65033
G1 X103.563 Y137.757 E61.67527
G1 X103.357 Y137.262 E61.70023
G1 X103.077 Y136.804 E61.72523
G1 X102.729 Y136.396 E61.7502
G1 X102.321 Y136.048 E61.77517
G1 X101.863 Y135.768 E61.80017
G1 X101.368 Y135.562 E61.82513
G1 X100.845 Y135.438 E61.85016
G1 X100.334 Y135.398 E61.87403
G1 X85.895 Y135.399 E62.54637
G1 X85.404 Y135.438 E62.5693
G1 X84.882 Y135.562 E62.59429
G1 X84.387 Y135.768 E62.61925
G1 X83.929 Y136.048 E62.64425
G1 X83.521 Y136.396 E62.66922
G1 X83.173 Y136.804 E62.69419
G1 X82.893 Y137.262 E62.71918
G1 X82.687 Y137.757 E62.74415
G1 X82.563 Y138.28 E62.76918
G1 X82.523 Y138.791 E62.79304
G1 X82.523 Y153.209 E63.46441
G1 X82.563 Y153.72 E63.48827
G1 X82.687 Y154.243 E63.5133
G1 X82.893 Y154.738 E63.53827
G1 X83.173 Y155.196 E63.56326
G1 X83.521 Y155.604 E63.58823
G1 X83.929 Y155.952 E63.6132
G1 X84.387 Y156.232 E63.6382
G1 X84.882 Y156.438 E63.66317
G1 X85.404 Y156.562 E63.68815
