;FLAVOR:Marlin
;TIME:10305
;Filament used: 10.3239m
;Layer height: 0.28
;MINX:69.15
;MINY:59
;MINZ:0.28
;MAXX:165.85
;MAXY:176
;MAXZ:26.88
;Generated with Cura_SteamEngine 4.12.1
M140 S50
M105
M190 S50
M104 S200
M105
M109 S200
M82 ;absolute extrusion mode
; Ender 3 Custom Start G-code
G92 E0 ; Reset Extruder
G28 ; Home all axes
G1 Z2.0 F3000 ; Move Z Axis up little to prevent scratching of Heat Bed
G1 X0.1 Y20 Z0.3 F5000.0 ; Move to start position
G1 X0.1 Y200.0 Z0.3 F1500.0 E15 ; Draw the first line
G1 X0.4 Y200.0 Z0.3 F5000.0 ; Move to side a little
G1 X0.4 Y20 Z0.3 F1500.0 E30 ; Draw the second line
G92 E0 ; Reset Extruder
G1 Z2.0 F3000 ; Move Z Axis up little to prevent scratching of Heat Bed
G1 X5 Y20 Z0.3 F5000.0 ; Move over to prevent blob squish
G92 E0
G92 E0
G1 F2700 E-5
;LAYER_COUNT:96
;LAYER:0
M107
G0 F6000 X71.729 Y62.946 Z0.28
;TYPE:SKIRT
G1 F2700 E0
G1 F1200 X72.361 Y62.253 E0.04367
G1 X73.05 Y61.617 E0.08733
G1 X73.791 Y61.042 E0.13101
G1 X74.578 Y60.532 E0.17468
G1 X75.406 Y60.091 E0.21836
G1 X76.268 Y59.722 E0.26202
G1 X77.159 Y59.428 E0.30571
G1 X78.071 Y59.21 E0.34937
G1 X78.999 Y59.072 E0.39306
G1 X79.82 Y59.015 E0.43138
G1 X80.142 Y59.005 E0.44638
G1 X80.483 Y59 E0.46226
G1 X154.143 Y59 E3.89218
G1 X154.999 Y59.011 E3.93204
G1 X155.935 Y59.065 E3.9757
G1 X156.863 Y59.197 E4.01934
G1 X157.777 Y59.409 E4.06303
G1 X158.669 Y59.698 E4.10669
G1 X159.534 Y60.061 E4.15038
G1 X160.364 Y60.497 E4.19403
G1 X161.155 Y61.002 E4.23773
G1 X161.899 Y61.573 E4.2814
G1 X162.592 Y62.205 E4.32507
G1 X163.229 Y62.893 E4.36873
G1 X163.804 Y63.634 E4.41241
G1 X164.315 Y64.42 E4.45606
G1 X164.757 Y65.248 E4.49977
G1 X165.126 Y66.11 E4.54343
G1 X165.421 Y67 E4.58709
G1 X165.639 Y67.912 E4.63075
G1 X165.779 Y68.84 E4.67445
G1 X165.836 Y69.695 E4.71435
G1 X165.845 Y70.009 E4.72898
G1 X165.85 Y70.324 E4.74365
G1 X165.849 Y120.762 E7.09225
G1 X165.838 Y121.48 E7.12569
G1 X165.749 Y122.716 E7.18339
G1 X165.695 Y123.127 E7.20269
G1 X165.397 Y125.218 E7.30104
G1 X165.115 Y127.698 E7.41727
G1 X164.898 Y130.229 E7.53555
G1 X164.757 Y132.731 E7.65224
G1 X164.684 Y135.247 E7.76945
G1 X164.675 Y136.599 E7.8324
G1 X164.674 Y157.415 E8.80168
G1 X164.664 Y158.142 E8.83554
G1 X164.611 Y159.079 E8.87924
G1 X164.479 Y160.007 E8.92288
G1 X164.268 Y160.921 E8.96656
G1 X163.979 Y161.813 E9.01022
G1 X163.616 Y162.678 E9.05391
G1 X163.181 Y163.509 E9.09758
G1 X162.676 Y164.299 E9.14124
G1 X162.106 Y165.044 E9.18492
G1 X161.475 Y165.738 E9.2286
G1 X160.786 Y166.375 E9.27229
G1 X160.046 Y166.951 E9.31595
G1 X159.26 Y167.462 E9.35961
G1 X158.433 Y167.904 E9.40327
G1 X157.571 Y168.274 E9.44695
G1 X156.681 Y168.569 E9.49061
G1 X155.769 Y168.788 E9.53429
G1 X154.609 Y168.95 E9.58882
G1 X153.386 Y169.055 E9.64598
G1 X150.732 Y169.322 E9.77019
G1 X148.287 Y169.638 E9.88498
G1 X145.787 Y170.033 E10.00284
G1 X143.273 Y170.503 E10.12193
G1 X140.846 Y171.029 E10.23756
G1 X138.442 Y171.62 E10.35284
G1 X135.963 Y172.306 E10.47261
G1 X133.551 Y173.048 E10.59011
G1 X131.18 Y173.85 E10.70666
G1 X128.769 Y174.744 E10.8264
G1 X127.466 Y175.248 E10.89145
G1 X126.578 Y175.549 E10.93511
G1 X125.874 Y175.729 E10.96895
G1 X124.951 Y175.893 E11.0126
G1 X123.803 Y175.986 E11.06623
G1 X123.489 Y175.995 E11.08086
G1 X123.168 Y176 E11.09581
G1 X121.176 Y175.998 E11.18856
G1 X119.269 Y175.97 E11.27737
G1 X118.646 Y175.952 E11.30639
G1 X115.704 Y175.96 E11.44338
G1 X113.627 Y175.998 E11.54011
G1 X113.425 Y176 E11.54952
G1 X112.036 Y175.999 E11.6142
G1 X111.328 Y175.988 E11.64717
G1 X110.392 Y175.933 E11.69083
G1 X109.464 Y175.799 E11.73449
G1 X108.55 Y175.586 E11.77819
G1 X107.54 Y175.252 E11.82772
G1 X104.932 Y174.246 E11.95788
G1 X102.6 Y173.423 E12.07304
G1 X100.143 Y172.633 E12.19321
G1 X97.775 Y171.944 E12.30805
G1 X95.318 Y171.305 E12.42626
G1 X92.834 Y170.732 E12.54497
G1 X90.398 Y170.245 E12.66064
G1 X87.937 Y169.824 E12.7769
G1 X85.431 Y169.467 E12.89477
G1 X82.917 Y169.181 E13.01259
G1 X80.198 Y168.949 E13.13965
G1 X79.267 Y168.829 E13.18336
G1 X78.351 Y168.631 E13.227
G1 X77.454 Y168.355 E13.2707
G1 X76.585 Y168.004 E13.31434
G1 X75.748 Y167.58 E13.35803
G1 X74.951 Y167.087 E13.40167
G1 X74.198 Y166.527 E13.44537
G1 X73.496 Y165.905 E13.48904
G1 X72.849 Y165.225 E13.53275
G1 X72.263 Y164.493 E13.57641
G1 X71.741 Y163.714 E13.62007
G1 X71.288 Y162.893 E13.66373
G1 X70.906 Y162.037 E13.70738
G1 X70.598 Y161.151 E13.75106
G1 X70.367 Y160.242 E13.79473
G1 X70.214 Y159.316 E13.83843
G1 X70.138 Y158.288 E13.88643
G1 X70.129 Y157.957 E13.90185
G1 X70.125 Y157.658 E13.91578
G1 X70.125 Y136.946 E14.88021
G1 X70.088 Y134.338 E15.00166
G1 X69.981 Y131.816 E15.11921
G1 X69.804 Y129.321 E15.23568
G1 X69.557 Y126.827 E15.35237
G1 X69.271 Y124.596 E15.45711
G1 X69.23 Y124.237 E15.47393
G1 X69.163 Y123.299 E15.51772
G1 X69.154 Y122.98 E15.53258
G1 X69.15 Y122.67 E15.54702
G1 X69.152 Y70.508 E17.9759
G1 X69.162 Y69.844 E18.00682
G1 X69.216 Y68.908 E18.05048
G1 X69.35 Y67.98 E18.09414
G1 X69.562 Y67.066 E18.13783
G1 X69.852 Y66.174 E18.1815
G1 X70.216 Y65.31 E18.22516
G1 X70.652 Y64.48 E18.26882
G1 X71.158 Y63.69 E18.3125
G1 X71.729 Y62.946 E18.35617
G0 F6000 X72.123 Y63.1
G1 F1200 X72.753 Y62.428 E18.39906
G1 X73.439 Y61.814 E18.44193
G1 X74.175 Y61.262 E18.48477
G1 X74.957 Y60.775 E18.52767
G1 X75.778 Y60.359 E18.57052
G1 X76.632 Y60.015 E18.6134
G1 X77.513 Y59.746 E18.65629
G1 X78.413 Y59.555 E18.69913
G1 X79.327 Y59.443 E18.74201
G1 X79.832 Y59.415 E18.76556
G1 X80.154 Y59.405 E18.78056
G1 X80.483 Y59.4 E18.79588
G1 X154.143 Y59.4 E22.2258
G1 X154.993 Y59.411 E22.26538
G1 X155.912 Y59.464 E22.30824
G1 X156.823 Y59.597 E22.35111
G1 X157.719 Y59.808 E22.39398
G1 X158.593 Y60.096 E22.43683
G1 X159.44 Y60.459 E22.47974
G1 X160.251 Y60.894 E22.52259
G1 X161.021 Y61.398 E22.56544
G1 X161.745 Y61.967 E22.60832
G1 X162.417 Y62.597 E22.65121
G1 X163.032 Y63.282 E22.69408
G1 X163.585 Y64.018 E22.73694
G1 X164.072 Y64.799 E22.7798
G1 X164.489 Y65.62 E22.82268
G1 X164.834 Y66.474 E22.86557
G1 X165.103 Y67.354 E22.90842
G1 X165.295 Y68.255 E22.95131
G1 X165.408 Y69.168 E22.99415
G1 X165.437 Y69.706 E23.01924
G1 X165.446 Y70.02 E23.03386
G1 X165.45 Y70.324 E23.04802
G1 X165.449 Y120.755 E25.3963
G1 X165.438 Y121.473 E25.42974
G1 X165.352 Y122.665 E25.48539
G1 X165.299 Y123.07 E25.5044
G1 X165.002 Y125.152 E25.60233
G1 X164.714 Y127.686 E25.72109
G1 X164.501 Y130.171 E25.83722
G1 X164.358 Y132.698 E25.95508
G1 X164.284 Y135.279 E26.07531
G1 X164.275 Y136.596 E26.13664
G1 X164.274 Y157.41 E27.10582
G1 X164.264 Y158.137 E27.13968
G1 X164.211 Y159.056 E27.18254
G1 X164.079 Y159.967 E27.22541
G1 X163.868 Y160.863 E27.26827
G1 X163.581 Y161.738 E27.31115
G1 X163.218 Y162.584 E27.35401
G1 X162.784 Y163.396 E27.39689
G1 X162.28 Y164.167 E27.43978
G1 X161.712 Y164.891 E27.48263
G1 X161.083 Y165.563 E27.52549
G1 X160.398 Y166.178 E27.56835
G1 X159.662 Y166.731 E27.61122
G1 X158.881 Y167.219 E27.6541
G1 X158.061 Y167.637 E27.69696
G1 X157.207 Y167.982 E27.73985
G1 X156.327 Y168.251 E27.78269
G1 X155.426 Y168.444 E27.8256
G1 X154.574 Y168.552 E27.86559
G1 X153.316 Y168.66 E27.92438
G1 X150.713 Y168.922 E28.0462
G1 X148.205 Y169.246 E28.16396
G1 X145.687 Y169.644 E28.28266
G1 X143.253 Y170.099 E28.39796
G1 X140.745 Y170.643 E28.51746
G1 X138.304 Y171.243 E28.63451
G1 X135.853 Y171.921 E28.75292
G1 X133.443 Y172.662 E28.87033
G1 X131.05 Y173.472 E28.98796
G1 X128.634 Y174.368 E29.10795
G1 X127.322 Y174.875 E29.17345
G1 X126.449 Y175.17 E29.21635
G1 X125.787 Y175.339 E29.24817
G1 X124.881 Y175.499 E29.29101
G1 X123.792 Y175.587 E29.34188
G1 X123.478 Y175.596 E29.35651
G1 X123.168 Y175.6 E29.37094
G1 X121.182 Y175.598 E29.46342
G1 X119.281 Y175.57 E29.55195
G1 X118.657 Y175.552 E29.58102
G1 X115.696 Y175.56 E29.71889
G1 X113.62 Y175.598 E29.81558
G1 X113.425 Y175.6 E29.82466
G1 X112.042 Y175.599 E29.88906
G1 X111.334 Y175.588 E29.92203
G1 X110.415 Y175.533 E29.9649
G1 X109.504 Y175.4 E30.00777
G1 X108.609 Y175.187 E30.05061
G1 X107.684 Y174.879 E30.096
G1 X105.072 Y173.871 E30.22637
G1 X102.708 Y173.037 E30.3431
G1 X100.282 Y172.257 E30.46176
G1 X97.882 Y171.559 E30.57814
G1 X95.395 Y170.912 E30.6978
G1 X92.937 Y170.345 E30.81526
G1 X90.471 Y169.852 E30.93236
G1 X87.989 Y169.427 E31.04962
G1 X85.461 Y169.067 E31.16852
G1 X82.995 Y168.787 E31.28408
G1 X80.232 Y168.551 E31.41321
G1 X79.319 Y168.432 E31.45608
G1 X78.419 Y168.235 E31.49898
G1 X77.54 Y167.961 E31.54185
G1 X76.689 Y167.612 E31.58468
G1 X75.87 Y167.19 E31.62758
G1 X75.092 Y166.698 E31.67045
G1 X74.359 Y166.141 E31.71331
G1 X73.677 Y165.523 E31.75617
G1 X73.051 Y164.847 E31.79907
G1 X72.487 Y164.12 E31.84192
G1 X71.988 Y163.346 E31.8848
G1 X71.557 Y162.533 E31.92764
G1 X71.199 Y161.684 E31.97055
G1 X70.916 Y160.808 E32.01341
G1 X70.71 Y159.911 E32.05627
G1 X70.582 Y158.999 E32.09915
G1 X70.538 Y158.277 E32.13283
G1 X70.529 Y157.946 E32.14825
G1 X70.525 Y157.658 E32.16166
G1 X70.525 Y136.94 E33.12638
G1 X70.488 Y134.315 E33.24862
G1 X70.381 Y131.807 E33.36551
G1 X70.203 Y129.286 E33.48319
G1 X69.954 Y126.773 E33.60078
G1 X69.668 Y124.551 E33.7051
G1 X69.627 Y124.192 E33.72193
G1 X69.563 Y123.288 E33.76413
G1 X69.554 Y122.969 E33.77899
G1 X69.55 Y122.67 E33.79291
G1 X69.552 Y70.514 E36.22151
G1 X69.562 Y69.85 E36.25244
G1 X69.616 Y68.931 E36.2953
G1 X69.749 Y68.02 E36.33817
G1 X69.961 Y67.124 E36.38104
G1 X70.25 Y66.25 E36.42391
G1 X70.614 Y65.404 E36.46679
G1 X71.049 Y64.593 E36.50965
G1 X71.554 Y63.823 E36.55252
G1 X72.123 Y63.1 E36.59537
G0 F6000 X72.517 Y63.257
G1 F1200 X73.144 Y62.607 E36.63742
G1 X73.827 Y62.015 E36.67951
G1 X74.559 Y61.486 E36.72156
G1 X75.334 Y61.024 E36.76357
G1 X76.148 Y60.633 E36.80562
G1 X76.993 Y60.314 E36.84768
G1 X77.863 Y60.072 E36.88973
G1 X78.751 Y59.908 E36.93178
G1 X79.844 Y59.815 E36.98285
G1 X80.166 Y59.805 E36.99786
G1 X80.483 Y59.8 E37.01262
G1 X154.143 Y59.8 E40.44254
G1 X154.987 Y59.811 E40.48184
G1 X155.889 Y59.864 E40.52391
G1 X156.782 Y59.996 E40.56595
G1 X157.66 Y60.207 E40.60799
G1 X158.516 Y60.495 E40.65005
G1 X159.343 Y60.857 E40.69209
G1 X160.135 Y61.292 E40.73416
G1 X160.886 Y61.794 E40.77622
G1 X161.589 Y62.361 E40.81828
G1 X162.239 Y62.988 E40.86033
G1 X162.831 Y63.67 E40.90238
G1 X163.361 Y64.401 E40.94443
G1 X163.823 Y65.177 E40.98648
G1 X164.216 Y65.99 E41.02853
G1 X164.534 Y66.835 E41.07057
G1 X164.777 Y67.705 E41.11263
G1 X164.942 Y68.593 E41.15469
G1 X165.037 Y69.718 E41.20726
G1 X165.046 Y70.032 E41.22188
G1 X165.05 Y70.324 E41.23548
G1 X165.049 Y120.749 E43.58348
G1 X165.038 Y121.467 E43.61692
G1 X164.955 Y122.614 E43.67047
G1 X164.903 Y123.014 E43.68925
G1 X164.603 Y125.122 E43.7884
G1 X164.32 Y127.608 E43.9049
G1 X164.102 Y130.151 E44.02375
G1 X163.958 Y132.699 E44.14258
G1 X163.884 Y135.265 E44.26212
G1 X163.875 Y136.593 E44.32396
G1 X163.874 Y157.404 E45.293
G1 X163.864 Y158.131 E45.32686
G1 X163.812 Y159.033 E45.36893
G1 X163.68 Y159.926 E45.41096
G1 X163.469 Y160.805 E45.45306
G1 X163.182 Y161.661 E45.4951
G1 X162.82 Y162.488 E45.53713
G1 X162.386 Y163.28 E45.57919
G1 X161.884 Y164.031 E45.62125
G1 X161.318 Y164.734 E45.66327
G1 X160.691 Y165.385 E45.70536
G1 X160.01 Y165.977 E45.74738
G1 X159.279 Y166.507 E45.78942
G1 X158.503 Y166.97 E45.8315
G1 X157.69 Y167.363 E45.87355
G1 X156.845 Y167.683 E45.91562
G1 X155.976 Y167.926 E45.95764
G1 X155.088 Y168.091 E45.99969
G1 X154.54 Y168.153 E46.02537
G1 X153.309 Y168.259 E46.0829
G1 X150.658 Y168.526 E46.20697
G1 X148.163 Y168.848 E46.32411
G1 X145.623 Y169.25 E46.44386
G1 X143.16 Y169.71 E46.56053
G1 X140.636 Y170.257 E46.68078
G1 X138.239 Y170.846 E46.79572
G1 X135.734 Y171.539 E46.91674
G1 X133.312 Y172.284 E47.03474
G1 X130.919 Y173.094 E47.15238
G1 X128.475 Y174 E47.27375
G1 X127.177 Y174.502 E47.33855
G1 X126.322 Y174.79 E47.38056
G1 X125.701 Y174.948 E47.4104
G1 X124.811 Y175.105 E47.45248
G1 X123.78 Y175.187 E47.50064
G1 X123.466 Y175.196 E47.51527
G1 X123.168 Y175.2 E47.52914
G1 X121.188 Y175.198 E47.62134
G1 X119.292 Y175.17 E47.70964
G1 X118.667 Y175.152 E47.73875
G1 X115.688 Y175.16 E47.87747
G1 X113.425 Y175.2 E47.98286
G1 X112.049 Y175.199 E48.04693
G1 X111.341 Y175.188 E48.0799
G1 X110.439 Y175.134 E48.12198
G1 X109.546 Y175 E48.16402
G1 X108.668 Y174.788 E48.20608
G1 X107.828 Y174.505 E48.24736
G1 X105.243 Y173.508 E48.37637
G1 X102.826 Y172.655 E48.49572
G1 X100.401 Y171.875 E48.61433
G1 X97.957 Y171.164 E48.73285
G1 X95.514 Y170.528 E48.8504
G1 X93.034 Y169.957 E48.9689
G1 X90.546 Y169.459 E49.08705
G1 X88.042 Y169.031 E49.20534
G1 X85.531 Y168.673 E49.32344
G1 X83.002 Y168.386 E49.44196
G1 X80.266 Y168.152 E49.56982
G1 X79.37 Y168.035 E49.6119
G1 X78.488 Y167.84 E49.65396
G1 X77.627 Y167.567 E49.69602
G1 X76.794 Y167.22 E49.73804
G1 X75.994 Y166.8 E49.78011
G1 X75.235 Y166.31 E49.82218
G1 X74.522 Y165.756 E49.86422
G1 X73.861 Y165.141 E49.90626
G1 X73.257 Y164.469 E49.94834
G1 X72.715 Y163.747 E49.99038
G1 X72.238 Y162.98 E50.03243
G1 X71.832 Y162.174 E50.07446
G1 X71.498 Y161.334 E50.11655
G1 X71.24 Y160.469 E50.15858
G1 X71.059 Y159.584 E50.20064
G1 X70.938 Y158.266 E50.26227
G1 X70.929 Y157.935 E50.27769
G1 X70.925 Y157.658 E50.29059
G1 X70.925 Y136.934 E51.25559
G1 X70.888 Y134.328 E51.37695
G1 X70.779 Y131.76 E51.49663
G1 X70.602 Y129.258 E51.61342
G1 X70.353 Y126.749 E51.73083
G1 X70.083 Y124.65 E51.82937
G1 X70.025 Y124.146 E51.853
G1 X69.963 Y123.277 E51.89356
G1 X69.954 Y122.958 E51.90842
G1 X69.95 Y122.67 E51.92183
G1 X69.952 Y70.52 E54.35016
G1 X69.962 Y69.856 E54.38108
G1 X70.016 Y68.955 E54.42311
G1 X70.149 Y68.062 E54.46515
G1 X70.36 Y67.184 E54.5072
G1 X70.649 Y66.328 E54.54927
G1 X71.012 Y65.501 E54.59132
G1 X71.446 Y64.709 E54.63337
G1 X71.95 Y63.959 E54.67545
G1 X72.517 Y63.257 E54.71747
G1 F2700 E49.71747
;MESH:Copy of motor (2).stl
G0 F6000 X103.602 Y111.665
G0 X103.602 Y110.23
G0 X101.675 Y110.4
;TYPE:WALL-INNER
G1 F2700 E54.71747
G1 F1200 X101.675 Y113.6 E54.86647
G1 X133.225 Y113.6 E56.33557
G1 X133.225 Y110.4 E56.48458
G1 X101.675 Y110.4 E57.95368
G0 F6000 X102.075 Y110.8
;TYPE:WALL-OUTER
G1 F1200 X102.075 Y113.2 E58.06543
G1 X132.825 Y113.2 E59.49728
G1 X132.825 Y110.8 E59.60904
G1 X102.075 Y110.8 E61.04088
G1 F2700 E56.04088
G0 F6000 X102.075 Y110.5
G0 X101.847 Y113.428
G0 X103.687 Y113.79
G0 X103.687 Y112.335
G0 X101.832 Y136.293
G0 X102.864 Y135.261
G0 X103.41 Y136.807
G0 X103.536 Y137.592
G0 X103.687 Y152.721
;TYPE:WALL-INNER
G1 F2700 E61.04088
G1 F1200 X103.728 Y152.21 E61.06476
G1 X103.727 Y137.77 E61.73714
G1 X103.687 Y137.278 E61.76013
G1 X103.563 Y136.757 E61.78507
G1 X103.357 Y136.262 E61.81003
G1 X103.077 Y135.804 E61.83503
G1 X102.729 Y135.396 E61.86
G1 X102.321 Y135.048 E61.88497
G1 X101.863 Y134.768 E61.90996
G1 X101.368 Y134.562 E61.93493
G1 X100.845 Y134.438 E61.95996
G1 X100.334 Y134.398 E61.98382
G1 X85.895 Y134.399 E62.65616
G1 X85.404 Y134.438 E62.6791
G1 X84.882 Y134.562 E62.70408
G1 X84.387 Y134.768 E62.72905
G1 X83.929 Y135.048 E62.75404
G1 X83.521 Y135.396 E62.77901
G1 X83.173 Y135.804 E62.80398
G1 X82.893 Y136.262 E62.82898
G1 X82.687 Y136.757 E62.85395
G1 X82.563 Y137.28 E62.87897
G1 X82.523 Y137.791 E62.90284
G1 X82.523 Y152.209 E63.5742
G1 X82.563 Y152.72 E63.59807
G1 X82.687 Y153.243 E63.6231
G1 X82.893 Y153.738 E63.64806
G1 X83.173 Y154.196 E63.67306
G1 X83.521 Y154.604 E63.69803
G1 X83.929 Y154.952 E63.723
G1 X84.387 Y155.232 E63.748
G1 X84.882 Y155.438 E63.77296
G1 X85.404 Y155.562 E63.79795
G1 X85.915 Y155.603 E63.82182
G1 X100.335 Y155.603 E64.49327
G1 X100.846 Y155.562 E64.51714
G1 X101.368 Y155.438 E64.54213
G1 X101.866 Y155.231 E64.56724
G1 X102.321 Y154.951 E64.59212
G1 X102.729 Y154.604 E64.61706
