;FLAVOR:Marlin
;TIME:15331
;Filament used: 15.6747m
;Layer height: 0.28
;MINX:69.15
;MINY:43.5
;MINZ:0.28
;MAXX:165.85
;MAXY:191.5
;MAXZ:31.92
;Generated with Cura_SteamEngine 4.12.1
M140 S50
M105
M190 S50
M104 S200
M105
M109 S200
M82 ;absolute extrusion mode
; Ender 3 Custom Start G-code
G92 E0 ; Reset Extruder
G28 ; Home all axes
G1 Z2.0 F3000 ; Move Z Axis up little to prevent scratching of Heat Bed
G1 X0.1 Y20 Z0.3 F5000.0 ; Move to start position
G1 X0.1 Y200.0 Z0.3 F1500.0 E15 ; Draw the first line
G1 X0.4 Y200.0 Z0.3 F5000.0 ; Move to side a little
G1 X0.4 Y20 Z0.3 F1500.0 E30 ; Draw the second line
G92 E0 ; Reset Extruder
G1 Z2.0 F3000 ; Move Z Axis up little to prevent scratching of Heat Bed
G1 X5 Y20 Z0.3 F5000.0 ; Move over to prevent blob squish
G92 E0
G92 E0
G1 F2700 E-5
;LAYER_COUNT:114
;LAYER:0
M107
G0 F6000 X71.146 Y48.203 Z0.28
;TYPE:SKIRT
G1 F2700 E0
G1 F1200 X71.716 Y47.458 E0.04368
G1 X72.348 Y46.764 E0.08739
G1 X73.036 Y46.127 E0.13105
G1 X73.776 Y45.551 E0.17471
G1 X74.562 Y45.039 E0.21839
G1 X75.389 Y44.597 E0.26205
G1 X76.251 Y44.227 E0.30573
G1 X77.141 Y43.931 E0.34941
G1 X78.053 Y43.713 E0.39307
G1 X78.98 Y43.572 E0.43673
G1 X79.851 Y43.513 E0.47738
G1 X80.172 Y43.504 E0.49234
G1 X80.48 Y43.5 E0.50668
G1 X154.143 Y43.5 E3.93674
G1 X154.999 Y43.511 E3.9766
G1 X155.935 Y43.565 E4.02026
G1 X156.863 Y43.697 E4.0639
G1 X157.777 Y43.909 E4.10759
G1 X158.669 Y44.198 E4.15125
G1 X159.534 Y44.561 E4.19493
G1 X160.364 Y44.997 E4.23859
G1 X161.155 Y45.502 E4.28229
G1 X161.899 Y46.073 E4.32596
G1 X162.592 Y46.705 E4.36963
G1 X163.229 Y47.393 E4.41329
G1 X163.804 Y48.134 E4.45696
G1 X164.315 Y48.92 E4.50062
G1 X164.757 Y49.748 E4.54432
G1 X165.126 Y50.61 E4.58798
G1 X165.421 Y51.5 E4.63164
G1 X165.639 Y52.412 E4.67531
G1 X165.779 Y53.34 E4.71901
G1 X165.837 Y54.201 E4.75919
G1 X165.846 Y54.521 E4.7741
G1 X165.85 Y54.83 E4.78849
G1 X165.849 Y138.262 E8.67343
G1 X165.838 Y138.98 E8.70687
G1 X165.749 Y140.216 E8.76457
G1 X165.695 Y140.627 E8.78387
G1 X165.397 Y142.718 E8.88222
G1 X165.115 Y145.198 E8.99844
G1 X164.898 Y147.729 E9.11673
G1 X164.757 Y150.231 E9.23342
G1 X164.684 Y152.747 E9.35062
G1 X164.675 Y154.099 E9.41358
G1 X164.674 Y174.915 E10.38286
G1 X164.664 Y175.642 E10.41672
G1 X164.611 Y176.579 E10.46042
G1 X164.479 Y177.507 E10.50406
G1 X164.268 Y178.421 E10.54774
G1 X163.979 Y179.313 E10.5914
G1 X163.616 Y180.178 E10.63508
G1 X163.181 Y181.009 E10.67876
G1 X162.676 Y181.799 E10.72242
G1 X162.106 Y182.544 E10.7661
G1 X161.475 Y183.238 E10.80977
G1 X160.786 Y183.875 E10.85347
G1 X160.046 Y184.451 E10.89713
G1 X159.26 Y184.962 E10.94079
G1 X158.433 Y185.404 E10.98445
G1 X157.571 Y185.774 E11.02813
G1 X156.681 Y186.069 E11.07179
G1 X155.769 Y186.288 E11.11546
G1 X154.842 Y186.428 E11.15912
G1 X153.983 Y186.486 E11.19921
G1 X152.544 Y186.528 E11.26624
G1 X151.628 Y186.547 E11.3089
G1 X149.108 Y186.67 E11.42638
G1 X146.627 Y186.862 E11.54226
G1 X144.109 Y187.129 E11.66016
G1 X141.609 Y187.465 E11.77762
G1 X139.116 Y187.872 E11.89524
G1 X136.679 Y188.341 E12.0108
G1 X134.204 Y188.891 E12.12886
G1 X131.752 Y189.508 E12.24659
G1 X129.32 Y190.194 E12.36425
G1 X127.351 Y190.805 E12.46025
G1 X126.887 Y190.955 E12.48296
G1 X125.983 Y191.206 E12.52665
G1 X125.061 Y191.378 E12.57032
G1 X123.833 Y191.485 E12.62772
G1 X123.505 Y191.495 E12.643
G1 X123.17 Y191.5 E12.6586
G1 X121.211 Y191.499 E12.74982
G1 X119.304 Y191.471 E12.83862
G1 X118.669 Y191.453 E12.8682
G1 X115.688 Y191.46 E13.00701
G1 X113.619 Y191.498 E13.10337
G1 X113.416 Y191.5 E13.11282
G1 X112.051 Y191.499 E13.17638
G1 X111.348 Y191.489 E13.20912
G1 X110.411 Y191.436 E13.25282
G1 X109.483 Y191.303 E13.29647
G1 X108.292 Y191.011 E13.35357
G1 X107.389 Y190.734 E13.39756
G1 X106.274 Y190.376 E13.45209
G1 X103.871 Y189.678 E13.5686
G1 X101.453 Y189.049 E13.68494
G1 X98.966 Y188.477 E13.80377
G1 X96.509 Y187.983 E13.92047
G1 X94.051 Y187.564 E14.03658
G1 X91.531 Y187.206 E14.1551
G1 X89.051 Y186.925 E14.27131
G1 X86.505 Y186.709 E14.39029
G1 X84.046 Y186.569 E14.50498
G1 X81.45 Y186.496 E14.62591
G1 X80.955 Y186.488 E14.64896
G1 X80.019 Y186.432 E14.69262
G1 X79.091 Y186.298 E14.73628
G1 X78.177 Y186.084 E14.77999
G1 X77.286 Y185.794 E14.82362
G1 X76.422 Y185.429 E14.8673
G1 X75.592 Y184.991 E14.911
G1 X74.803 Y184.484 E14.95467
G1 X74.06 Y183.912 E14.99833
G1 X73.368 Y183.279 E15.042
G1 X72.732 Y182.589 E15.08569
G1 X72.158 Y181.848 E15.12934
G1 X71.649 Y181.06 E15.17302
G1 X71.209 Y180.232 E15.21668
G1 X70.841 Y179.369 E15.26037
G1 X70.548 Y178.478 E15.30404
G1 X70.332 Y177.566 E15.34768
G1 X70.194 Y176.638 E15.39137
G1 X70.138 Y175.788 E15.43104
G1 X70.129 Y175.457 E15.44645
G1 X70.125 Y175.158 E15.46038
G1 X70.125 Y154.446 E16.42482
G1 X70.088 Y151.838 E16.54627
G1 X69.981 Y149.316 E16.66381
G1 X69.804 Y146.821 E16.78028
G1 X69.557 Y144.327 E16.89698
G1 X69.271 Y142.096 E17.00171
G1 X69.23 Y141.737 E17.01854
G1 X69.163 Y140.799 E17.06233
G1 X69.154 Y140.48 E17.07719
G1 X69.15 Y140.17 E17.09162
G1 X69.151 Y55.025 E21.05633
G1 X69.16 Y54.36 E21.0873
G1 X69.213 Y53.424 E21.13095
G1 X69.345 Y52.495 E21.17464
G1 X69.556 Y51.581 E21.21832
G1 X69.844 Y50.689 E21.26197
G1 X70.207 Y49.824 E21.30565
G1 X70.642 Y48.993 E21.34933
G1 X71.146 Y48.203 E21.39296
G0 F6000 X71.542 Y48.335
G1 F1200 X72.111 Y47.611 E21.43584
G1 X72.739 Y46.939 E21.47867
G1 X73.424 Y46.323 E21.52156
G1 X74.16 Y45.77 E21.56443
G1 X74.941 Y45.282 E21.60731
G1 X75.761 Y44.864 E21.65017
G1 X76.615 Y44.519 E21.69306
G1 X77.495 Y44.249 E21.73592
G1 X78.395 Y44.057 E21.77877
G1 X79.309 Y43.943 E21.82166
G1 X79.862 Y43.913 E21.84745
G1 X80.183 Y43.904 E21.8624
G1 X80.48 Y43.9 E21.87623
G1 X154.143 Y43.9 E25.30629
G1 X154.993 Y43.911 E25.34587
G1 X155.912 Y43.964 E25.38874
G1 X156.823 Y44.097 E25.43161
G1 X157.719 Y44.308 E25.47447
G1 X158.593 Y44.596 E25.51732
G1 X159.44 Y44.959 E25.56023
G1 X160.251 Y45.394 E25.60308
G1 X161.021 Y45.898 E25.64593
G1 X161.745 Y46.467 E25.68881
G1 X162.417 Y47.097 E25.7317
G1 X163.032 Y47.782 E25.77457
G1 X163.585 Y48.518 E25.81743
G1 X164.072 Y49.299 E25.86029
G1 X164.489 Y50.12 E25.90317
G1 X164.834 Y50.974 E25.94606
G1 X165.103 Y51.854 E25.98891
G1 X165.295 Y52.755 E26.0318
G1 X165.408 Y53.668 E26.07464
G1 X165.437 Y54.212 E26.10001
G1 X165.446 Y54.532 E26.11491
G1 X165.45 Y54.83 E26.12879
G1 X165.449 Y138.255 E30.01341
G1 X165.438 Y138.973 E30.04685
G1 X165.352 Y140.165 E30.10249
G1 X165.299 Y140.57 E30.12151
G1 X165.002 Y142.652 E30.21944
G1 X164.714 Y145.186 E30.33819
G1 X164.501 Y147.671 E30.45433
G1 X164.358 Y150.198 E30.57219
G1 X164.284 Y152.779 E30.69242
G1 X164.275 Y154.096 E30.75375
G1 X164.274 Y174.91 E31.72293
G1 X164.264 Y175.637 E31.75679
G1 X164.211 Y176.556 E31.79965
G1 X164.079 Y177.467 E31.84251
G1 X163.868 Y178.363 E31.88538
G1 X163.581 Y179.238 E31.92826
G1 X163.218 Y180.084 E31.97112
G1 X162.784 Y180.896 E32.01399
G1 X162.28 Y181.667 E32.05689
G1 X161.712 Y182.391 E32.09973
G1 X161.083 Y183.063 E32.14259
G1 X160.398 Y183.678 E32.18546
G1 X159.662 Y184.231 E32.22833
G1 X158.881 Y184.719 E32.27121
G1 X158.061 Y185.137 E32.31407
G1 X157.207 Y185.482 E32.35696
G1 X156.327 Y185.751 E32.3998
G1 X155.426 Y185.944 E32.44271
G1 X154.513 Y186.057 E32.48555
G1 X153.971 Y186.087 E32.51082
G1 X152.536 Y186.128 E32.57767
G1 X151.599 Y186.147 E32.62131
G1 X149.093 Y186.27 E32.73814
G1 X146.59 Y186.463 E32.85504
G1 X144.05 Y186.732 E32.97397
G1 X141.557 Y187.068 E33.0911
G1 X139.054 Y187.477 E33.2092
G1 X136.581 Y187.952 E33.32646
G1 X134.125 Y188.498 E33.44361
G1 X131.65 Y189.121 E33.56245
G1 X129.218 Y189.807 E33.68012
G1 X127.187 Y190.437 E33.77913
G1 X126.764 Y190.574 E33.79984
G1 X125.876 Y190.82 E33.84274
G1 X124.971 Y190.987 E33.8856
G1 X123.821 Y191.085 E33.93934
G1 X123.493 Y191.095 E33.95462
G1 X123.17 Y191.1 E33.96966
G1 X121.216 Y191.099 E34.06065
G1 X119.315 Y191.071 E34.14918
G1 X118.679 Y191.053 E34.1788
G1 X115.68 Y191.06 E34.31845
G1 X113.612 Y191.098 E34.41476
G1 X113.416 Y191.1 E34.42389
G1 X112.056 Y191.099 E34.48721
G1 X111.353 Y191.089 E34.51995
G1 X110.434 Y191.036 E34.56282
G1 X109.523 Y190.903 E34.60569
G1 X108.409 Y190.628 E34.65912
G1 X107.512 Y190.353 E34.7028
G1 X106.404 Y189.997 E34.75699
G1 X103.987 Y189.295 E34.87419
G1 X101.53 Y188.656 E34.9924
G1 X99.063 Y188.088 E35.11028
G1 X96.556 Y187.585 E35.22935
G1 X94.138 Y187.173 E35.34356
G1 X91.561 Y186.806 E35.46477
G1 X89.094 Y186.526 E35.58038
G1 X86.563 Y186.312 E35.69865
G1 X84.043 Y186.169 E35.81618
G1 X81.466 Y186.096 E35.93623
G1 X80.962 Y186.088 E35.9597
G1 X80.042 Y186.033 E36.00261
G1 X79.132 Y185.898 E36.04545
G1 X78.236 Y185.685 E36.08834
G1 X77.362 Y185.395 E36.13122
G1 X76.517 Y185.031 E36.17406
G1 X75.706 Y184.594 E36.21695
G1 X74.937 Y184.089 E36.25979
G1 X74.214 Y183.518 E36.30269
G1 X73.543 Y182.888 E36.34555
G1 X72.93 Y182.201 E36.38842
G1 X72.378 Y181.464 E36.4313
G1 X71.893 Y180.682 E36.47415
G1 X71.477 Y179.86 E36.51705
G1 X71.134 Y179.006 E36.5599
G1 X70.867 Y178.125 E36.60276
G1 X70.677 Y177.224 E36.64564
G1 X70.566 Y176.31 E36.68851
G1 X70.538 Y175.777 E36.71337
G1 X70.529 Y175.446 E36.72878
G1 X70.525 Y175.158 E36.7422
G1 X70.525 Y154.44 E37.70691
G1 X70.488 Y151.815 E37.82916
G1 X70.381 Y149.307 E37.94605
G1 X70.203 Y146.786 E38.06373
G1 X69.954 Y144.273 E38.18132
G1 X69.668 Y142.051 E38.28563
G1 X69.627 Y141.692 E38.30246
G1 X69.563 Y140.788 E38.34466
G1 X69.554 Y140.469 E38.35952
G1 X69.55 Y140.17 E38.37344
G1 X69.551 Y55.031 E42.33787
G1 X69.56 Y54.366 E42.36884
G1 X69.612 Y53.446 E42.41175
G1 X69.744 Y52.535 E42.45461
G1 X69.955 Y51.639 E42.49747
G1 X70.242 Y50.764 E42.54035
G1 X70.605 Y49.918 E42.58322
G1 X71.039 Y49.106 E42.62609
G1 X71.542 Y48.335 E42.66896
G0 F6000 X71.938 Y48.471
G1 F1200 X72.505 Y47.767 E42.71105
G1 X73.131 Y47.117 E42.75307
G1 X73.812 Y46.524 E42.79512
G1 X74.544 Y45.994 E42.8372
G1 X75.319 Y45.531 E42.87923
G1 X76.132 Y45.138 E42.92128
G1 X76.977 Y44.818 E42.96335
G1 X77.846 Y44.575 E43.00537
G1 X78.734 Y44.409 E43.04744
G1 X79.873 Y44.313 E43.10066
G1 X80.194 Y44.304 E43.11561
G1 X80.48 Y44.3 E43.12893
G1 X154.143 Y44.3 E46.55899
G1 X154.987 Y44.311 E46.59829
G1 X155.889 Y44.364 E46.64037
G1 X156.782 Y44.496 E46.6824
G1 X157.66 Y44.707 E46.72445
G1 X158.516 Y44.995 E46.7665
G1 X159.343 Y45.357 E46.80854
G1 X160.135 Y45.792 E46.85061
G1 X160.886 Y46.294 E46.89268
G1 X161.589 Y46.861 E46.93473
G1 X162.239 Y47.488 E46.97679
G1 X162.831 Y48.17 E47.01884
G1 X163.361 Y48.901 E47.06088
G1 X163.823 Y49.677 E47.10293
G1 X164.216 Y50.49 E47.14498
G1 X164.534 Y51.335 E47.18702
G1 X164.777 Y52.205 E47.22908
G1 X164.942 Y53.093 E47.27114
G1 X165.037 Y54.223 E47.32394
G1 X165.046 Y54.543 E47.33885
G1 X165.05 Y54.83 E47.35222
G1 X165.049 Y138.249 E51.23655
G1 X165.038 Y138.967 E51.26999
G1 X164.955 Y140.114 E51.32354
G1 X164.903 Y140.514 E51.34232
G1 X164.603 Y142.622 E51.44147
G1 X164.32 Y145.108 E51.55797
G1 X164.102 Y147.651 E51.67682
G1 X163.958 Y150.199 E51.79566
G1 X163.884 Y152.765 E51.91519
G1 X163.875 Y154.093 E51.97703
G1 X163.874 Y174.904 E52.94608
G1 X163.864 Y175.631 E52.97993
G1 X163.812 Y176.533 E53.022
G1 X163.68 Y177.426 E53.06404
G1 X163.469 Y178.305 E53.10613
G1 X163.182 Y179.161 E53.14817
G1 X162.82 Y179.988 E53.1902
G1 X162.386 Y180.78 E53.23226
G1 X161.884 Y181.531 E53.27432
G1 X161.318 Y182.234 E53.31635
G1 X160.691 Y182.885 E53.35843
G1 X160.01 Y183.477 E53.40045
G1 X159.279 Y184.007 E53.44249
G1 X158.503 Y184.47 E53.48457
G1 X157.69 Y184.863 E53.52662
G1 X156.845 Y185.183 E53.56869
G1 X155.976 Y185.426 E53.61071
G1 X155.088 Y185.591 E53.65276
G1 X153.96 Y185.687 E53.70548
G1 X152.527 Y185.728 E53.77223
G1 X151.608 Y185.747 E53.81503
G1 X149.077 Y185.871 E53.93303
G1 X146.518 Y186.069 E54.05254
G1 X144.026 Y186.332 E54.16923
G1 X141.511 Y186.671 E54.28739
G1 X138.98 Y187.084 E54.40681
G1 X136.491 Y187.563 E54.52483
G1 X134.012 Y188.114 E54.64308
G1 X131.591 Y188.723 E54.75932
G1 X129.06 Y189.437 E54.88178
G1 X127.096 Y190.046 E54.97753
G1 X126.64 Y190.194 E54.99985
G1 X125.77 Y190.434 E55.04187
G1 X124.881 Y190.596 E55.08395
G1 X123.809 Y190.685 E55.13404
G1 X123.481 Y190.695 E55.14932
G1 X123.17 Y190.7 E55.1638
G1 X121.222 Y190.699 E55.25451
G1 X119.326 Y190.671 E55.3428
G1 X118.689 Y190.653 E55.37248
G1 X115.671 Y190.66 E55.51301
G1 X113.416 Y190.7 E55.61803
G1 X112.062 Y190.699 E55.68108
G1 X111.359 Y190.689 E55.71381
G1 X110.457 Y190.636 E55.75589
G1 X109.564 Y190.504 E55.79792
G1 X108.525 Y190.245 E55.84778
G1 X107.634 Y189.972 E55.89117
G1 X106.523 Y189.615 E55.94551
G1 X104.094 Y188.91 E56.06328
G1 X101.623 Y188.267 E56.18218
G1 X99.153 Y187.699 E56.30019
G1 X96.637 Y187.193 E56.41969
G1 X94.149 Y186.769 E56.53721
G1 X91.666 Y186.416 E56.654
G1 X89.137 Y186.129 E56.77251
G1 X86.584 Y185.913 E56.89182
G1 X84.043 Y185.769 E57.01033
G1 X81.484 Y185.696 E57.12953
G1 X80.968 Y185.688 E57.15356
G1 X80.067 Y185.633 E57.19559
G1 X79.173 Y185.499 E57.23769
G1 X78.296 Y185.286 E57.27971
G1 X77.44 Y184.997 E57.32178
G1 X76.614 Y184.633 E57.36381
G1 X75.823 Y184.197 E57.40587
G1 X75.073 Y183.693 E57.44794
G1 X74.371 Y183.125 E57.48999
G1 X73.722 Y182.497 E57.53204
G1 X73.132 Y181.814 E57.57407
G1 X72.604 Y181.081 E57.61614
G1 X72.142 Y180.305 E57.65819
G1 X71.752 Y179.49 E57.70026
G1 X71.434 Y178.645 E57.7423
G1 X71.193 Y177.775 E57.78434
G1 X71.03 Y176.886 E57.82642
G1 X70.938 Y175.766 E57.87875
G1 X70.929 Y175.435 E57.89417
G1 X70.925 Y175.158 E57.90707
G1 X70.925 Y154.434 E58.87206
G1 X70.888 Y151.828 E58.99342
G1 X70.779 Y149.26 E59.11311
G1 X70.602 Y146.758 E59.2299
G1 X70.353 Y144.249 E59.34731
G1 X70.083 Y142.15 E59.44585
G1 X70.025 Y141.646 E59.46947
G1 X69.963 Y140.777 E59.51004
G1 X69.954 Y140.458 E59.5249
G1 X69.95 Y140.17 E59.53831
G1 X69.951 Y55.036 E63.50251
G1 X69.96 Y54.371 E63.53347
G1 X70.012 Y53.469 E63.57555
G1 X70.144 Y52.576 E63.61758
G1 X70.354 Y51.698 E63.65962
G1 X70.641 Y50.841 E63.7017
G1 X71.003 Y50.014 E63.74374
G1 X71.436 Y49.222 E63.78577
G1 X71.938 Y48.471 E63.82783
G1 F2700 E58.82783
;MESH:motor.stl
G0 F6000 X79.485 Y55.704
G0 X81.409 Y55.704
G0 X81.605 Y85.1
;TYPE:WALL-INNER
G1 F2700 E63.82783
G1 F1200 X153.395 Y85.1 E67.17067
G1 X153.395 Y55.9 E68.53035
G1 X81.605 Y55.9 E71.87319
G1 X81.605 Y85.1 E73.23286
G0 F6000 X82.005 Y84.7
;TYPE:WALL-OUTER
G1 F1200 X152.995 Y84.7 E76.53846
G1 X152.995 Y56.3 E77.86088
G1 X82.005 Y56.3 E81.16647
G1 X82.005 Y84.7 E82.48889
G1 F2700 E77.48889
G0 F6000 X81.705 Y84.7
G0 X101.675 Y85.29
G0 X101.675 Y83.835
G0 X102.928 Y129.153
G0 X101.675 Y127.71
G0 X101.675 Y127.9
;TYPE:WALL-INNER
G1 F2700 E82.48889
G1 F1200 X101.675 Y131.1 E82.6379
G1 X133.225 Y131.1 E84.107
G1 X133.225 Y127.9 E84.256
G1 X101.675 Y127.9 E85.7251
G0 F6000 X102.075 Y128.3
;TYPE:WALL-OUTER
G1 F1200 X102.075 Y130.7 E85.83686
G1 X132.825 Y130.7 E87.26871
G1 X132.825 Y128.3 E87.38046
G1 X102.075 Y128.3 E88.81231
G1 F2700 E83.81231
G0 F6000 X102.075 Y128
G0 X103.602 Y127.73
G0 X103.602 Y129.165
G0 X100.288 Y153.162
G0 X100.342 Y151.707
G0 X100.845 Y151.938
;TYPE:WALL-INNER
G1 F2700 E88.81231
G1 F1200 X100.334 Y151.898 E88.83618
G1 X85.895 Y151.899 E89.50852
G1 X85.404 Y151.938 E89.53145
G1 X84.882 Y152.062 E89.55644
G1 X84.387 Y152.268 E89.5814
G1 X83.929 Y152.548 E89.6064
G1 X83.521 Y152.896 E89.63137
G1 X83.173 Y153.304 E89.65634
G1 X82.893 Y153.762 E89.68133
G1 X82.687 Y154.257 E89.7063
G1 X82.563 Y154.78 E89.73133
G1 X82.523 Y155.291 E89.75519
G1 X82.523 Y169.709 E90.42656
G1 X82.563 Y170.22 E90.45042
G1 X82.687 Y170.743 E90.47545
G1 X82.893 Y171.238 E90.50042
G1 X83.173 Y171.696 E90.52541
G1 X83.521 Y172.104 E90.55038
G1 X83.929 Y172.452 E90.57535
G1 X84.387 Y172.732 E90.60035
G1 X84.882 Y172.938 E90.62532
G1 X85.404 Y173.062 E90.6503
G1 X85.915 Y173.103 E90.67417
G1 X100.335 Y173.103 E91.34563
G1 X100.846 Y173.062 E91.3695
G1 X101.368 Y172.938 E91.39448
G1 X101.863 Y172.732 E91.41944
G1 X102.321 Y172.452 E91.44444
G1 X102.729 Y172.104 E91.46941
G1 X103.077 Y171.696 E91.49438
G1 X103.357 Y171.238 E91.51938
G1 X103.563 Y170.743 E91.54434
G1 X103.687 Y170.221 E91.56933
G1 X103.728 Y169.71 E91.5932
G1 X103.728 Y155.29 E92.26465
G1 X103.687 Y154.779 E92.28852
