;FLAVOR:Marlin
;TIME:4285
;Filament used: 5.49493m
;Layer height: 0.28
;MINX:77.5
;MINY:64.667
;MINZ:0.28
;MAXX:157.5
;MAXY:106.667
;MAXZ:57.12
;Generated with Cura_SteamEngine 4.12.1
M140 S50
M105
M190 S50
M104 S200
M105
M109 S200
M82 ;absolute extrusion mode
; Ender 3 Custom Start G-code
G92 E0 ; Reset Extruder
G28 ; Home all axes
G1 Z2.0 F3000 ; Move Z Axis up little to prevent scratching of Heat Bed
G1 X0.1 Y20 Z0.3 F5000.0 ; Move to start position
G1 X0.1 Y200.0 Z0.3 F1500.0 E15 ; Draw the first line
G1 X0.4 Y200.0 Z0.3 F5000.0 ; Move to side a little
G1 X0.4 Y20 Z0.3 F1500.0 E30 ; Draw the second line
G92 E0 ; Reset Extruder
G1 Z2.0 F3000 ; Move Z Axis up little to prevent scratching of Heat Bed
G1 X5 Y20 Z0.3 F5000.0 ; Move over to prevent blob squish
G92 E0
G92 E0
G1 F2700 E-5
;LAYER_COUNT:204
;LAYER:0
M107
G0 F6000 X80.066 Y68.625 Z0.28
;TYPE:SKIRT
G1 F2700 E0
G1 F1200 X80.698 Y67.931 E0.04371
G1 X81.386 Y67.294 E0.08737
G1 X82.126 Y66.718 E0.13103
G1 X82.912 Y66.206 E0.17471
G1 X83.739 Y65.764 E0.21838
G1 X84.601 Y65.394 E0.26205
G1 X85.491 Y65.098 E0.30573
G1 X86.403 Y64.88 E0.34939
G1 X87.33 Y64.739 E0.39305
G1 X88.201 Y64.68 E0.4337
G1 X88.522 Y64.671 E0.44866
G1 X88.83 Y64.667 E0.463
G1 X145.793 Y64.667 E3.11544
G1 X146.649 Y64.678 E3.1553
G1 X147.585 Y64.732 E3.19895
G1 X148.513 Y64.864 E3.2426
G1 X149.427 Y65.076 E3.28629
G1 X150.319 Y65.365 E3.32995
G1 X151.184 Y65.728 E3.37363
G1 X152.014 Y66.164 E3.41729
G1 X152.805 Y66.669 E3.46099
G1 X153.549 Y67.24 E3.50466
G1 X154.242 Y67.872 E3.54833
G1 X154.879 Y68.56 E3.59199
G1 X155.454 Y69.301 E3.63566
G1 X155.965 Y70.087 E3.67932
G1 X156.407 Y70.915 E3.72302
G1 X156.776 Y71.777 E3.76668
G1 X157.071 Y72.667 E3.81034
G1 X157.289 Y73.579 E3.85401
G1 X157.429 Y74.507 E3.89771
G1 X157.487 Y75.368 E3.93789
G1 X157.496 Y75.688 E3.9528
G1 X157.5 Y75.997 E3.96718
G1 X157.499 Y95.067 E4.85516
G1 X157.49 Y95.794 E4.88902
G1 X157.439 Y96.731 E4.93271
G1 X157.307 Y97.659 E4.97636
G1 X157.098 Y98.573 E5.02002
G1 X156.811 Y99.466 E5.0637
G1 X156.449 Y100.332 E5.1074
G1 X156.015 Y101.163 E5.15106
G1 X155.511 Y101.954 E5.19473
G1 X154.942 Y102.699 E5.23838
G1 X154.311 Y103.394 E5.28209
G1 X153.624 Y104.032 E5.32575
G1 X152.885 Y104.609 E5.3694
G1 X152.099 Y105.121 E5.41308
G1 X151.273 Y105.564 E5.45673
G1 X150.411 Y105.936 E5.50044
G1 X149.522 Y106.232 E5.54407
G1 X148.61 Y106.452 E5.58776
G1 X147.683 Y106.593 E5.63142
G1 X146.799 Y106.654 E5.67268
G1 X146.478 Y106.663 E5.68763
G1 X146.17 Y106.667 E5.70198
G1 X89.065 Y106.666 E8.36103
G1 X88.367 Y106.657 E8.39353
G1 X87.431 Y106.605 E8.43718
G1 X86.502 Y106.473 E8.48087
G1 X85.588 Y106.263 E8.52454
G1 X84.695 Y105.976 E8.56822
G1 X83.83 Y105.613 E8.6119
G1 X82.999 Y105.179 E8.65555
G1 X82.208 Y104.675 E8.69923
G1 X81.463 Y104.105 E8.74291
G1 X80.769 Y103.474 E8.78658
G1 X80.132 Y102.787 E8.83021
G1 X79.555 Y102.047 E8.8739
G1 X79.043 Y101.261 E8.91758
G1 X78.6 Y100.434 E8.96127
G1 X78.229 Y99.573 E9.00492
G1 X77.933 Y98.683 E9.0486
G1 X77.714 Y97.771 E9.09227
G1 X77.573 Y96.844 E9.13593
G1 X77.513 Y95.955 E9.17742
G1 X77.504 Y95.622 E9.19293
G1 X77.5 Y95.325 E9.20676
G1 X77.501 Y76.192 E10.09768
G1 X77.51 Y75.527 E10.12864
G1 X77.563 Y74.591 E10.1723
G1 X77.695 Y73.662 E10.21599
G1 X77.906 Y72.748 E10.25967
G1 X78.194 Y71.856 E10.30332
G1 X78.557 Y70.991 E10.347
G1 X78.992 Y70.16 E10.39067
G1 X79.496 Y69.37 E10.43431
G1 X80.066 Y68.625 E10.47799
G0 F6000 X80.461 Y68.778
G1 F1200 X81.089 Y68.106 E10.52081
G1 X81.774 Y67.49 E10.56371
G1 X82.51 Y66.937 E10.60658
G1 X83.291 Y66.449 E10.64946
G1 X84.111 Y66.031 E10.69232
G1 X84.965 Y65.686 E10.73521
G1 X85.845 Y65.416 E10.77807
G1 X86.745 Y65.224 E10.82092
G1 X87.659 Y65.11 E10.86381
G1 X88.212 Y65.08 E10.8896
G1 X88.533 Y65.071 E10.90455
G1 X88.83 Y65.067 E10.91838
G1 X145.793 Y65.067 E13.57082
G1 X146.643 Y65.078 E13.6104
G1 X147.562 Y65.131 E13.65326
G1 X148.473 Y65.264 E13.69613
G1 X149.369 Y65.475 E13.73899
G1 X150.243 Y65.763 E13.78184
G1 X151.09 Y66.126 E13.82475
G1 X151.901 Y66.561 E13.86761
G1 X152.671 Y67.065 E13.91046
G1 X153.395 Y67.634 E13.95334
G1 X154.067 Y68.264 E13.99623
G1 X154.682 Y68.949 E14.03909
G1 X155.235 Y69.685 E14.08196
G1 X155.722 Y70.466 E14.12482
G1 X156.139 Y71.287 E14.1677
G1 X156.484 Y72.141 E14.21058
G1 X156.753 Y73.021 E14.25343
G1 X156.945 Y73.922 E14.29633
G1 X157.058 Y74.835 E14.33917
G1 X157.087 Y75.379 E14.36453
G1 X157.096 Y75.699 E14.37944
G1 X157.1 Y75.997 E14.39332
G1 X157.099 Y95.062 E15.28106
G1 X157.09 Y95.789 E15.31492
G1 X157.039 Y96.708 E15.35778
G1 X156.908 Y97.62 E15.40068
G1 X156.698 Y98.516 E15.44353
G1 X156.412 Y99.391 E15.4864
G1 X156.051 Y100.238 E15.52927
G1 X155.617 Y101.05 E15.57214
G1 X155.115 Y101.822 E15.61502
G1 X154.547 Y102.547 E15.65791
G1 X153.919 Y103.22 E15.70077
G1 X153.235 Y103.836 E15.74363
G1 X152.5 Y104.39 E15.78649
G1 X151.72 Y104.879 E15.82936
G1 X150.9 Y105.298 E15.87223
G1 X150.047 Y105.644 E15.9151
G1 X149.167 Y105.915 E15.95797
G1 X148.267 Y106.108 E16.00083
G1 X147.353 Y106.223 E16.04373
G1 X146.788 Y106.254 E16.07008
G1 X146.467 Y106.263 E16.08503
G1 X146.17 Y106.267 E16.09886
G1 X89.07 Y106.266 E18.75767
G1 X88.372 Y106.257 E18.79018
G1 X87.453 Y106.205 E18.83304
G1 X86.542 Y106.074 E18.8759
G1 X85.646 Y105.864 E18.91875
G1 X84.771 Y105.577 E18.96163
G1 X83.924 Y105.215 E19.00452
G1 X83.112 Y104.781 E19.04739
G1 X82.341 Y104.279 E19.09023
G1 X81.616 Y103.711 E19.13312
G1 X80.943 Y103.082 E19.17601
G1 X80.328 Y102.398 E19.21884
G1 X79.774 Y101.663 E19.2617
G1 X79.286 Y100.882 E19.30458
G1 X78.867 Y100.062 E19.34746
G1 X78.521 Y99.209 E19.39032
G1 X78.251 Y98.329 E19.43318
G1 X78.058 Y97.428 E19.47609
G1 X77.944 Y96.515 E19.51893
G1 X77.913 Y95.944 E19.54556
G1 X77.904 Y95.611 E19.56107
G1 X77.9 Y95.325 E19.57439
G1 X77.901 Y76.198 E20.46502
G1 X77.91 Y75.533 E20.49599
G1 X77.962 Y74.613 E20.5389
G1 X78.094 Y73.702 E20.58176
G1 X78.305 Y72.806 E20.62463
G1 X78.592 Y71.931 E20.66751
G1 X78.955 Y71.085 E20.71037
G1 X79.389 Y70.273 E20.75324
G1 X79.892 Y69.502 E20.79611
G1 X80.461 Y68.778 E20.83899
G0 F6000 X80.855 Y68.934
G1 F1200 X81.481 Y68.284 E20.88101
G1 X82.162 Y67.691 E20.92306
G1 X82.894 Y67.161 E20.96514
G1 X83.669 Y66.698 E21.00717
G1 X84.482 Y66.305 E21.04922
G1 X85.327 Y65.985 E21.09129
G1 X86.196 Y65.742 E21.13331
G1 X87.084 Y65.576 E21.17538
G1 X88.223 Y65.48 E21.2286
G1 X88.544 Y65.471 E21.24355
G1 X88.83 Y65.467 E21.25687
G1 X145.793 Y65.467 E23.90931
G1 X146.637 Y65.478 E23.94861
G1 X147.539 Y65.531 E23.99069
G1 X148.432 Y65.663 E24.03272
G1 X149.31 Y65.874 E24.07477
G1 X150.166 Y66.162 E24.11682
G1 X150.993 Y66.524 E24.15886
G1 X151.785 Y66.959 E24.20093
G1 X152.536 Y67.461 E24.243
G1 X153.239 Y68.028 E24.28505
G1 X153.889 Y68.655 E24.3271
G1 X154.481 Y69.337 E24.36916
G1 X155.011 Y70.068 E24.4112
G1 X155.473 Y70.844 E24.45325
G1 X155.866 Y71.657 E24.4953
G1 X156.184 Y72.502 E24.53734
G1 X156.427 Y73.372 E24.5794
G1 X156.592 Y74.26 E24.62146
G1 X156.687 Y75.39 E24.67426
G1 X156.696 Y75.71 E24.68917
G1 X156.7 Y75.997 E24.70253
G1 X156.699 Y95.057 E25.59005
G1 X156.69 Y95.784 E25.6239
G1 X156.639 Y96.686 E25.66597
G1 X156.508 Y97.58 E25.70804
G1 X156.299 Y98.458 E25.75007
G1 X156.013 Y99.315 E25.79214
G1 X155.652 Y100.143 E25.8342
G1 X155.22 Y100.935 E25.87621
G1 X154.719 Y101.687 E25.91828
G1 X154.153 Y102.391 E25.96034
G1 X153.528 Y103.042 E26.00237
G1 X152.847 Y103.636 E26.04444
G1 X152.116 Y104.167 E26.08651
G1 X151.342 Y104.631 E26.12854
G1 X150.529 Y105.025 E26.1706
G1 X149.685 Y105.345 E26.21263
G1 X148.815 Y105.59 E26.25472
G1 X147.928 Y105.756 E26.29674
G1 X146.777 Y105.854 E26.35053
G1 X146.456 Y105.863 E26.36548
G1 X146.17 Y105.867 E26.3788
G1 X89.075 Y105.866 E29.03738
G1 X88.377 Y105.857 E29.06989
G1 X87.476 Y105.806 E29.11191
G1 X86.582 Y105.674 E29.15399
G1 X85.704 Y105.465 E29.19601
G1 X84.847 Y105.178 E29.2381
G1 X84.02 Y104.817 E29.28012
G1 X83.227 Y104.384 E29.32219
G1 X82.476 Y103.883 E29.36422
G1 X81.772 Y103.317 E29.40629
G1 X81.121 Y102.691 E29.44834
G1 X80.528 Y102.01 E29.49039
G1 X79.998 Y101.279 E29.53243
G1 X79.534 Y100.504 E29.57449
G1 X79.14 Y99.691 E29.61656
G1 X78.82 Y98.847 E29.65859
G1 X78.576 Y97.977 E29.70066
G1 X78.41 Y97.089 E29.74273
G1 X78.313 Y95.934 E29.7967
G1 X78.304 Y95.601 E29.81221
G1 X78.3 Y95.325 E29.82507
G1 X78.301 Y76.203 E30.71547
G1 X78.31 Y75.538 E30.74643
G1 X78.362 Y74.636 E30.7885
G1 X78.494 Y73.743 E30.83054
G1 X78.704 Y72.865 E30.87257
G1 X78.991 Y72.008 E30.91466
G1 X79.353 Y71.181 E30.95669
G1 X79.786 Y70.389 E30.99872
G1 X80.288 Y69.638 E31.04079
G1 X80.855 Y68.934 E31.08288
G1 F2700 E26.08288
;MESH:Copy of motor.stl
G0 F6000 X87.835 Y76.087
G0 X88.92 Y76.087
G0 X145.9 Y76.267
;TYPE:WALL-INNER
G1 F2700 E31.08288
G1 F1200 X145.9 Y95.067 E31.95829
G1 X89.1 Y95.067 E34.60313
G1 X89.1 Y76.267 E35.47854
G1 X145.9 Y76.267 E38.12338
G0 F6000 X146.3 Y75.867
;TYPE:WALL-OUTER
G1 F1200 X146.3 Y95.467 E39.03604
G1 X88.7 Y95.467 E41.71814
G1 X88.7 Y75.867 E42.6308
G1 X146.3 Y75.867 E45.3129
G0 F6000 X146.03 Y76.137
G0 X145.51 Y76.377
G0 X145.51 Y76.657
;TYPE:SKIN
G1 F1200 X145.51 Y94.677 E46.15198
G1 X89.49 Y94.677 E48.76051
G1 X89.49 Y76.657 E49.59959
G1 X145.51 Y76.657 E52.20812
G0 F6000 X145.349 Y76.901
G1 F1200 X145.264 Y76.816 E52.21372
G0 F6000 X144.698 Y76.816
G1 F1200 X145.349 Y77.467 E52.25659
G0 F6000 X145.349 Y78.032
G1 F1200 X144.133 Y76.816 E52.33666
G0 F6000 X143.567 Y76.816
G1 F1200 X145.349 Y78.598 E52.45401
G0 F6000 X145.349 Y79.164
G1 F1200 X143.001 Y76.816 E52.60863
G0 F6000 X142.436 Y76.816
G1 F1200 X145.349 Y79.729 E52.80046
G0 F6000 X145.349 Y80.295
G1 F1200 X141.87 Y76.816 E53.02955
G0 F6000 X141.304 Y76.816
G1 F1200 X145.349 Y80.861 E53.29592
G0 F6000 X145.349 Y81.426
G1 F1200 X140.738 Y76.816 E53.59953
G0 F6000 X140.173 Y76.816
G1 F1200 X145.349 Y81.992 E53.94038
G0 F6000 X145.349 Y82.558
G1 F1200 X139.607 Y76.816 E54.3185
G0 F6000 X139.041 Y76.816
G1 F1200 X145.349 Y83.123 E54.73386
G0 F6000 X145.349 Y83.689
G1 F1200 X138.476 Y76.816 E55.18646
G0 F6000 X137.91 Y76.816
G1 F1200 X145.349 Y84.255 E55.67633
G0 F6000 X145.349 Y84.82
G1 F1200 X137.344 Y76.816 E56.20344
G0 F6000 X136.779 Y76.816
G1 F1200 X145.349 Y85.386 E56.76779
G0 F6000 X145.349 Y85.952
G1 F1200 X136.213 Y76.816 E57.36941
G0 F6000 X135.647 Y76.816
G1 F1200 X145.349 Y86.518 E58.00831
G0 F6000 X145.349 Y87.083
G1 F1200 X135.082 Y76.816 E58.68441
G0 F6000 X134.516 Y76.816
G1 F1200 X145.349 Y87.649 E59.39778
G0 F6000 X145.349 Y88.215
G1 F1200 X133.95 Y76.816 E60.14842
G0 F6000 X133.385 Y76.816
G1 F1200 X145.349 Y88.78 E60.93627
G0 F6000 X145.349 Y89.346
G1 F1200 X132.819 Y76.816 E61.76139
G0 F6000 X132.253 Y76.816
G1 F1200 X145.349 Y89.912 E62.62379
G0 F6000 X145.349 Y90.477
G1 F1200 X131.688 Y76.816 E63.52339
G0 F6000 X131.122 Y76.816
G1 F1200 X145.349 Y91.043 E64.46026
G0 F6000 X145.349 Y91.609
G1 F1200 X130.556 Y76.816 E65.4344
G0 F6000 X129.99 Y76.816
G1 F1200 X145.349 Y92.174 E66.44579
G0 F6000 X145.349 Y92.74
G1 F1200 X129.425 Y76.816 E67.49441
G0 F6000 X128.859 Y76.816
G1 F1200 X145.349 Y93.306 E68.5803
G0 F6000 X145.349 Y93.871
G1 F1200 X128.293 Y76.816 E69.70344
G0 F6000 X127.728 Y76.816
G1 F1200 X145.349 Y94.437 E70.86381
G0 F6000 X144.862 Y94.516
G1 F1200 X127.162 Y76.816 E72.02939
G0 F6000 X126.596 Y76.816
G1 F1200 X144.296 Y94.516 E73.19496
G0 F6000 X143.73 Y94.516
G1 F1200 X126.031 Y76.816 E74.3605
G0 F6000 X125.465 Y76.816
G1 F1200 X143.165 Y94.516 E75.52608
G0 F6000 X142.599 Y94.516
G1 F1200 X124.899 Y76.816 E76.69165
G0 F6000 X124.334 Y76.816
G1 F1200 X142.033 Y94.516 E77.8572
G0 F6000 X141.468 Y94.516
G1 F1200 X123.768 Y76.816 E79.02277
G0 F6000 X123.202 Y76.816
G1 F1200 X140.902 Y94.516 E80.18835
G0 F6000 X140.336 Y94.516
G1 F1200 X122.637 Y76.816 E81.35389
G0 F6000 X122.071 Y76.816
G1 F1200 X139.77 Y94.516 E82.51943
G0 F6000 X139.205 Y94.516
G1 F1200 X121.505 Y76.816 E83.68501
G0 F6000 X120.94 Y76.816
G1 F1200 X138.639 Y94.516 E84.85055
G0 F6000 X138.073 Y94.516
G1 F1200 X120.374 Y76.816 E86.01609
G0 F6000 X119.808 Y76.816
G1 F1200 X137.508 Y94.516 E87.18167
G0 F6000 X136.942 Y94.516
G1 F1200 X119.242 Y76.816 E88.34724
G0 F6000 X118.677 Y76.816
G1 F1200 X136.376 Y94.516 E89.51278
G0 F6000 X135.811 Y94.516
G1 F1200 X118.111 Y76.816 E90.67836
G0 F6000 X117.545 Y76.816
G1 F1200 X135.245 Y94.516 E91.84393
G0 F6000 X134.679 Y94.516
G1 F1200 X116.98 Y76.816 E93.00948
G0 F6000 X116.414 Y76.816
G1 F1200 X134.114 Y94.516 E94.17505
G0 F6000 X133.548 Y94.516
G1 F1200 X115.848 Y76.816 E95.34063
G0 F6000 X115.283 Y76.816
G1 F1200 X132.982 Y94.516 E96.50617
G0 F6000 X132.417 Y94.516
G1 F1200 X114.717 Y76.816 E97.67174
G0 F6000 X114.151 Y76.816
G1 F1200 X131.851 Y94.516 E98.83732
G0 F6000 X131.285 Y94.516
G1 F1200 X113.586 Y76.816 E100.00286
G0 F6000 X113.02 Y76.816
G1 F1200 X130.72 Y94.516 E101.16844
G0 F6000 X130.154 Y94.516
G1 F1200 X112.454 Y76.816 E102.33401
G0 F6000 X111.889 Y76.816
G1 F1200 X129.588 Y94.516 E103.49955
G0 F6000 X129.022 Y94.516
G1 F1200 X111.323 Y76.816 E104.6651
G0 F6000 X110.757 Y76.816
G1 F1200 X128.457 Y94.516 E105.83067
G0 F6000 X127.891 Y94.516
G1 F1200 X110.191 Y76.816 E106.99625
G0 F6000 X109.626 Y76.816
G1 F1200 X127.325 Y94.516 E108.16179
G0 F6000 X126.76 Y94.516
G1 F1200 X109.06 Y76.816 E109.32736
G0 F6000 X108.494 Y76.816
G1 F1200 X126.194 Y94.516 E110.49294
G0 F6000 X125.628 Y94.516
G1 F1200 X107.929 Y76.816 E111.65848
G0 F6000 X107.363 Y76.816
G1 F1200 X125.063 Y94.516 E112.82406
G0 F6000 X124.497 Y94.516
G1 F1200 X106.797 Y76.816 E113.98963
G0 F6000 X106.232 Y76.816
G1 F1200 X123.931 Y94.516 E115.15517
G0 F6000 X123.366 Y94.516
G1 F1200 X105.666 Y76.816 E116.32075
G0 F6000 X105.1 Y76.816
G1 F1200 X122.8 Y94.516 E117.48633
G0 F6000 X122.234 Y94.516
G1 F1200 X104.535 Y76.816 E118.65187
G0 F6000 X103.969 Y76.816
G1 F1200 X121.669 Y94.516 E119.81744
G0 F6000 X121.103 Y94.516
G1 F1200 X103.403 Y76.816 E120.98302
G0 F6000 X102.838 Y76.816
G1 F1200 X120.537 Y94.516 E122.14856
G0 F6000 X119.971 Y94.516
G1 F1200 X102.272 Y76.816 E123.3141
G0 F6000 X101.706 Y76.816
G1 F1200 X119.406 Y94.516 E124.47968
G0 F6000 X118.84 Y94.516
G1 F1200 X101.141 Y76.816 E125.64522
G0 F6000 X100.575 Y76.816
G1 F1200 X118.274 Y94.516 E126.81076
G0 F6000 X117.709 Y94.516
G1 F1200 X100.009 Y76.816 E127.97634
G0 F6000 X99.443 Y76.816
G1 F1200 X117.143 Y94.516 E129.14191
G0 F6000 X116.577 Y94.516
G1 F1200 X98.878 Y76.816 E130.30746
G0 F6000 X98.312 Y76.816
G1 F1200 X116.012 Y94.516 E131.47303
G0 F6000 X115.446 Y94.516
G1 F1200 X97.746 Y76.816 E132.63861
G0 F6000 X97.181 Y76.816
G1 F1200 X114.88 Y94.516 E133.80415
G0 F6000 X114.315 Y94.516
G1 F1200 X96.615 Y76.816 E134.96972
G0 F6000 X96.049 Y76.816
G1 F1200 X113.749 Y94.516 E136.1353
G0 F6000 X113.183 Y94.516
G1 F1200 X95.484 Y76.816 E137.30084
G0 F6000 X94.918 Y76.816
G1 F1200 X112.618 Y94.516 E138.46642
G0 F6000 X112.052 Y94.516
G1 F1200 X94.352 Y76.816 E139.63199
G0 F6000 X93.787 Y76.816
G1 F1200 X111.486 Y94.516 E140.79753
G0 F6000 X110.921 Y94.516
G1 F1200 X93.221 Y76.816 E141.96311
G0 F6000 X92.655 Y76.816
G1 F1200 X110.355 Y94.516 E143.12868
G0 F6000 X109.789 Y94.516
G1 F1200 X92.09 Y76.816 E144.29423
G0 F6000 X91.524 Y76.816
G1 F1200 X109.223 Y94.516 E145.45977
G0 F6000 X108.658 Y94.516
G1 F1200 X90.958 Y76.816 E146.62534
G0 F6000 X90.392 Y76.816
G1 F1200 X108.092 Y94.516 E147.79092
G0 F6000 X107.526 Y94.516
G1 F1200 X89.827 Y76.816 E148.95646
G0 F6000 X89.649 Y77.204
G1 F1200 X106.961 Y94.516 E150.09649
G0 F6000 X106.395 Y94.516
G1 F1200 X89.649 Y77.769 E151.19927
G0 F6000 X89.649 Y78.335
G1 F1200 X105.829 Y94.516 E152.26479
G0 F6000 X105.264 Y94.516
G1 F1200 X89.649 Y78.901 E153.29306
G0 F6000 X89.649 Y79.466
G1 F1200 X104.698 Y94.516 E154.2841
G0 F6000 X104.132 Y94.516
G1 F1200 X89.649 Y80.032 E155.23786
G0 F6000 X89.649 Y80.598
G1 F1200 X103.567 Y94.516 E156.15438
G0 F6000 X103.001 Y94.516
G1 F1200 X89.649 Y81.163 E157.03367
G0 F6000 X89.649 Y81.729
G1 F1200 X102.435 Y94.516 E157.87568
G0 F6000 X101.87 Y94.516
G1 F1200 X89.649 Y82.295 E158.68045
G0 F6000 X89.649 Y82.86
G1 F1200 X101.304 Y94.516 E159.44799
G0 F6000 X100.738 Y94.516
