;FLAVOR:Marlin
;TIME:564
;Filament used: 0.260668m
;Layer height: 0.28
;MINX:101.522
;MINY:101.523
;MINZ:0.28
;MAXX:133.477
;MAXY:133.477
;MAXZ:12.88
;Generated with Cura_SteamEngine 4.12.1
M140 S50
M105
M190 S50
M104 S200
M105
M109 S200
M82 ;absolute extrusion mode
; Ender 3 Custom Start G-code
G92 E0 ; Reset Extruder
G28 ; Home all axes
G1 Z2.0 F3000 ; Move Z Axis up little to prevent scratching of Heat Bed
G1 X0.1 Y20 Z0.3 F5000.0 ; Move to start position
G1 X0.1 Y200.0 Z0.3 F1500.0 E15 ; Draw the first line
G1 X0.4 Y200.0 Z0.3 F5000.0 ; Move to side a little
G1 X0.4 Y20 Z0.3 F1500.0 E30 ; Draw the second line
G92 E0 ; Reset Extruder
G1 Z2.0 F3000 ; Move Z Axis up little to prevent scratching of Heat Bed
G1 X5 Y20 Z0.3 F5000.0 ; Move over to prevent blob squish
G92 E0
G92 E0
G1 F2700 E-5
;LAYER_COUNT:46
;LAYER:0
M107
G0 F6000 X106.302 Y106.101 Z0.28
;TYPE:SKIRT
G1 F2700 E0
G1 F1200 X106.798 Y105.633 E0.03175
G1 X107.773 Y104.815 E0.09102
G1 X108.048 Y104.61 E0.10699
G1 X108.789 Y104.103 E0.14879
G1 X109.307 Y103.779 E0.17724
G1 X110.341 Y103.207 E0.23227
G1 X110.638 Y103.063 E0.24764
G1 X111.519 Y102.683 E0.29231
G1 X112.041 Y102.484 E0.31833
G1 X113.057 Y102.152 E0.3681
G1 X113.525 Y102.024 E0.39069
G1 X114.604 Y101.786 E0.44214
G1 X115.086 Y101.705 E0.4649
G1 X116.143 Y101.58 E0.51446
G1 X116.63 Y101.546 E0.53719
G1 X117.709 Y101.523 E0.58745
G1 X118.201 Y101.537 E0.61037
G1 X119.264 Y101.619 E0.66001
G1 X119.859 Y101.694 E0.68794
G1 X121.115 Y101.928 E0.74743
G1 X121.399 Y101.998 E0.76105
G1 X122.24 Y102.241 E0.80181
G1 X122.82 Y102.434 E0.83027
G1 X123.859 Y102.839 E0.8822
G1 X124.366 Y103.067 E0.90808
G1 X125.236 Y103.505 E0.95344
G1 X125.359 Y103.574 E0.96001
G1 X125.773 Y103.819 E0.98241
G1 X125.944 Y103.925 E0.99177
G1 X126.517 Y104.305 E1.02379
G1 X127.031 Y104.67 E1.05314
G1 X128.003 Y105.447 E1.11109
G1 X128.234 Y105.654 E1.12553
G1 X128.89 Y106.293 E1.16817
G1 X129.282 Y106.708 E1.19476
G1 X129.993 Y107.54 E1.24572
G1 X130.294 Y107.93 E1.26866
G1 X130.898 Y108.795 E1.31778
G1 X131.22 Y109.307 E1.34595
G1 X131.819 Y110.391 E1.40361
G1 X131.949 Y110.661 E1.41757
G1 X132.32 Y111.524 E1.46131
G1 X132.52 Y112.05 E1.48751
G1 X132.849 Y113.06 E1.53697
G1 X133.008 Y113.642 E1.56507
G1 X133.269 Y114.866 E1.62334
G1 X133.316 Y115.171 E1.63771
G1 X133.418 Y116.086 E1.68058
G1 X133.456 Y116.635 E1.70621
G1 X133.477 Y117.715 E1.75651
G1 X133.463 Y118.196 E1.77891
G1 X133.383 Y119.238 E1.82758
G1 X133.32 Y119.743 E1.85127
G1 X133.122 Y120.86 E1.9041
G1 X132.989 Y121.435 E1.93158
G1 X132.652 Y122.595 E1.98783
G1 X132.537 Y122.923 E2.00401
G1 X132.204 Y123.763 E2.04609
G1 X131.957 Y124.317 E2.07433
G1 X131.369 Y125.453 E2.13389
G1 X131.185 Y125.763 E2.15068
G1 X130.684 Y126.532 E2.19342
G1 X130.384 Y126.953 E2.21749
G1 X129.733 Y127.779 E2.26646
G1 X129.319 Y128.256 E2.29587
G1 X128.421 Y129.177 E2.35577
G1 X128.207 Y129.372 E2.36925
G1 X127.5 Y129.963 E2.41216
G1 X127.025 Y130.328 E2.44005
G1 X126.19 Y130.911 E2.48747
G1 X125.765 Y131.179 E2.51087
G1 X125.019 Y131.609 E2.55096
G1 X124.827 Y131.71 E2.56106
G1 X124.211 Y132.01 E2.59297
G1 X124.035 Y132.089 E2.60195
G1 X123.452 Y132.331 E2.63134
G1 X122.886 Y132.547 E2.65955
G1 X121.747 Y132.912 E2.71525
G1 X121.422 Y132.997 E2.73089
G1 X120.464 Y133.203 E2.77652
G1 X119.923 Y133.294 E2.80206
G1 X118.868 Y133.419 E2.85153
G1 X118.241 Y133.463 E2.8808
G1 X116.932 Y133.477 E2.94175
G1 X116.626 Y133.462 E2.95602
G1 X115.763 Y133.385 E2.99636
G1 X115.117 Y133.302 E3.02669
G1 X113.958 Y133.09 E3.08155
G1 X113.674 Y133.022 E3.09515
G1 X112.74 Y132.754 E3.1404
G1 X112.161 Y132.56 E3.16883
G1 X111.144 Y132.162 E3.21969
G1 X110.646 Y131.938 E3.24511
G1 X109.588 Y131.391 E3.30057
G1 X109.29 Y131.216 E3.31666
G1 X108.484 Y130.695 E3.36135
G1 X107.961 Y130.323 E3.39124
G1 X107.027 Y129.578 E3.44687
G1 X106.81 Y129.385 E3.46039
G1 X106.123 Y128.719 E3.50495
G1 X105.698 Y128.269 E3.53377
G1 X104.99 Y127.441 E3.5845
G1 X104.708 Y127.076 E3.60597
G1 X104.097 Y126.201 E3.65567
G1 X103.778 Y125.693 E3.6836
G1 X103.17 Y124.588 E3.74233
G1 X103.039 Y124.314 E3.75647
G1 X102.682 Y123.479 E3.79875
G1 X102.477 Y122.94 E3.82561
G1 X102.147 Y121.929 E3.87513
G1 X101.991 Y121.358 E3.90269
G1 X101.723 Y120.084 E3.96331
G1 X101.677 Y119.776 E3.97781
G1 X101.582 Y118.914 E4.01819
G1 X101.536 Y118.252 E4.04909
G1 X101.522 Y116.982 E4.10823
G1 X101.537 Y116.657 E4.12338
G1 X101.614 Y115.771 E4.16479
G1 X101.68 Y115.254 E4.18906
G1 X101.866 Y114.203 E4.23876
G1 X102.005 Y113.593 E4.2679
G1 X102.35 Y112.396 E4.3259
G1 X102.457 Y112.091 E4.34095
G1 X102.801 Y111.229 E4.38417
G1 X103.063 Y110.645 E4.41397
G1 X103.483 Y109.806 E4.45766
G1 X103.553 Y109.68 E4.46437
G1 X103.821 Y109.225 E4.48896
G1 X103.932 Y109.046 E4.49877
G1 X104.313 Y108.471 E4.53089
G1 X104.669 Y107.97 E4.55951
G1 X105.443 Y107.002 E4.61722
G1 X105.658 Y106.762 E4.63222
G1 X106.302 Y106.101 E4.67519
G0 F6000 X106.576 Y106.392
G1 F1200 X107.072 Y105.924 E4.70695
G1 X108.012 Y105.135 E4.76409
G1 X108.287 Y104.93 E4.78007
G1 X109.001 Y104.442 E4.82034
G1 X109.519 Y104.118 E4.84879
G1 X110.516 Y103.567 E4.90183
G1 X110.813 Y103.423 E4.9172
G1 X111.661 Y103.056 E4.96022
G1 X112.183 Y102.857 E4.98624
G1 X113.163 Y102.538 E5.03423
G1 X113.631 Y102.41 E5.05682
G1 X114.67 Y102.181 E5.10636
G1 X115.152 Y102.1 E5.12912
G1 X116.171 Y101.979 E5.1769
G1 X116.658 Y101.945 E5.19963
G1 X117.698 Y101.923 E5.24807
G1 X118.19 Y101.937 E5.27099
G1 X119.214 Y102.016 E5.31881
G1 X119.809 Y102.091 E5.34674
G1 X121.02 Y102.316 E5.40409
G1 X121.304 Y102.386 E5.41771
G1 X122.114 Y102.62 E5.45697
G1 X122.694 Y102.813 E5.48543
G1 X123.694 Y103.204 E5.53543
G1 X124.201 Y103.432 E5.56132
G1 X125.04 Y103.854 E5.60505
G1 X125.163 Y103.923 E5.61161
G1 X125.562 Y104.159 E5.6332
G1 X125.733 Y104.265 E5.64257
G1 X126.285 Y104.631 E5.67341
G1 X126.799 Y104.996 E5.70276
G1 X127.736 Y105.745 E5.75862
G1 X127.967 Y105.952 E5.77306
G1 X128.599 Y106.567 E5.81413
G1 X128.991 Y106.982 E5.84071
G1 X129.676 Y107.785 E5.88986
G1 X129.977 Y108.175 E5.9128
G1 X130.559 Y109.008 E5.96011
G1 X130.881 Y109.52 E5.98828
G1 X131.459 Y110.565 E6.04388
G1 X131.589 Y110.835 E6.05784
G1 X131.946 Y111.666 E6.09995
G1 X132.146 Y112.192 E6.12615
G1 X132.463 Y113.165 E6.17381
G1 X132.622 Y113.747 E6.2019
G1 X132.873 Y114.927 E6.25807
G1 X132.92 Y115.232 E6.27244
G1 X133.019 Y116.114 E6.31377
G1 X133.057 Y116.663 E6.3394
G1 X133.078 Y117.703 E6.38783
G1 X133.064 Y118.184 E6.41024
G1 X132.986 Y119.188 E6.45713
G1 X132.923 Y119.693 E6.48083
G1 X132.732 Y120.77 E6.53176
G1 X132.599 Y121.345 E6.55924
G1 X132.275 Y122.463 E6.61344
G1 X132.16 Y122.791 E6.62963
G1 X131.838 Y123.6 E6.67017
G1 X131.591 Y124.154 E6.69842
G1 X131.025 Y125.248 E6.75577
G1 X130.841 Y125.558 E6.77256
G1 X130.358 Y126.299 E6.81374
G1 X130.058 Y126.72 E6.83782
G1 X129.431 Y127.517 E6.88504
G1 X129.017 Y127.994 E6.91445
G1 X128.151 Y128.881 E6.97217
G1 X127.937 Y129.076 E6.98565
G1 X127.257 Y129.646 E7.02697
G1 X126.782 Y130.011 E7.05486
G1 X125.977 Y130.572 E7.10055
G1 X125.552 Y130.84 E7.12394
G1 X124.833 Y131.255 E7.1626
G1 X124.641 Y131.356 E7.1727
G1 X124.047 Y131.645 E7.20346
G1 X123.871 Y131.724 E7.21244
G1 X123.309 Y131.957 E7.24077
G1 X122.743 Y132.173 E7.26898
G1 X121.646 Y132.525 E7.32263
G1 X121.321 Y132.61 E7.33827
G1 X120.397 Y132.808 E7.38227
G1 X119.856 Y132.899 E7.40782
G1 X118.84 Y133.02 E7.45546
G1 X118.213 Y133.064 E7.48473
G1 X116.952 Y133.077 E7.54345
G1 X116.646 Y133.062 E7.55772
G1 X115.814 Y132.989 E7.59661
G1 X115.168 Y132.906 E7.62693
G1 X114.051 Y132.701 E7.67981
G1 X113.767 Y132.633 E7.69341
G1 X112.867 Y132.375 E7.73701
G1 X112.288 Y132.181 E7.76544
G1 X111.308 Y131.797 E7.81445
G1 X110.81 Y131.573 E7.83988
G1 X109.79 Y131.046 E7.89334
G1 X109.492 Y130.871 E7.90943
G1 X108.716 Y130.369 E7.95247
G1 X108.193 Y129.997 E7.98235
G1 X107.292 Y129.28 E8.03597
G1 X107.075 Y129.087 E8.04949
G1 X106.414 Y128.444 E8.09243
G1 X105.989 Y127.994 E8.12125
G1 X105.307 Y127.197 E8.1701
G1 X105.025 Y126.832 E8.19158
G1 X104.436 Y125.988 E8.2395
G1 X104.117 Y125.48 E8.26743
G1 X103.531 Y124.415 E8.32403
G1 X103.4 Y124.141 E8.33818
G1 X103.055 Y123.337 E8.37891
G1 X102.85 Y122.798 E8.40577
G1 X102.533 Y121.824 E8.45346
G1 X102.377 Y121.253 E8.48102
G1 X102.118 Y120.025 E8.53946
G1 X102.072 Y119.717 E8.55396
G1 X101.981 Y118.886 E8.59289
G1 X101.935 Y118.224 E8.62379
G1 X101.921 Y117 E8.68079
G1 X101.936 Y116.675 E8.69594
G1 X102.01 Y115.822 E8.73581
G1 X102.076 Y115.305 E8.76008
G1 X102.256 Y114.292 E8.80798
G1 X102.395 Y113.682 E8.83712
G1 X102.728 Y112.528 E8.89304
G1 X102.835 Y112.223 E8.90809
G1 X103.166 Y111.393 E8.9497
G1 X103.428 Y110.809 E8.97951
G1 X103.833 Y110 E9.02163
G1 X103.903 Y109.874 E9.02835
G1 X104.16 Y109.436 E9.05199
G1 X104.271 Y109.257 E9.0618
G1 X104.639 Y108.703 E9.09277
G1 X104.995 Y108.202 E9.12139
G1 X105.741 Y107.269 E9.17701
G1 X105.956 Y107.029 E9.19202
G1 X106.576 Y106.392 E9.23341
G0 F6000 X106.851 Y106.683
G1 F1200 X107.347 Y106.215 E9.26516
G1 X108.251 Y105.456 E9.32013
G1 X108.526 Y105.251 E9.3361
G1 X109.213 Y104.781 E9.37486
G1 X109.731 Y104.457 E9.40331
G1 X110.69 Y103.927 E9.45433
G1 X110.987 Y103.783 E9.4697
G1 X111.804 Y103.43 E9.51114
G1 X112.326 Y103.231 E9.53715
G1 X113.268 Y102.923 E9.5833
G1 X113.736 Y102.795 E9.60589
G1 X114.737 Y102.575 E9.65362
G1 X115.219 Y102.494 E9.67637
G1 X116.199 Y102.378 E9.72233
G1 X116.686 Y102.344 E9.74506
G1 X117.686 Y102.323 E9.79163
G1 X118.178 Y102.337 E9.81455
G1 X119.164 Y102.413 E9.8606
G1 X119.759 Y102.488 E9.88852
G1 X120.924 Y102.704 E9.9437
G1 X121.208 Y102.774 E9.95732
G1 X121.988 Y103 E9.99513
G1 X122.568 Y103.193 E10.02359
G1 X123.53 Y103.568 E10.07167
G1 X124.037 Y103.796 E10.09756
G1 X124.844 Y104.203 E10.13964
G1 X124.967 Y104.272 E10.14621
G1 X125.351 Y104.499 E10.16698
G1 X125.522 Y104.605 E10.17635
G1 X126.054 Y104.958 E10.20608
G1 X126.568 Y105.323 E10.23543
G1 X127.469 Y106.043 E10.28914
G1 X127.7 Y106.25 E10.30358
G1 X128.308 Y106.842 E10.34309
G1 X128.7 Y107.257 E10.36968
G1 X129.36 Y108.029 E10.41697
G1 X129.661 Y108.419 E10.43991
G1 X130.22 Y109.221 E10.48543
G1 X130.542 Y109.733 E10.51359
G1 X131.098 Y110.738 E10.56708
G1 X131.228 Y111.008 E10.58103
G1 X131.572 Y111.808 E10.62158
G1 X131.772 Y112.334 E10.64778
G1 X132.077 Y113.271 E10.69367
G1 X132.236 Y113.853 E10.72176
G1 X132.478 Y114.988 E10.7758
G1 X132.525 Y115.293 E10.79017
G1 X132.62 Y116.142 E10.82995
G1 X132.658 Y116.691 E10.85557
G1 X132.678 Y117.692 E10.90219
G1 X132.664 Y118.173 E10.9246
G1 X132.59 Y119.139 E10.96971
G1 X132.527 Y119.644 E10.99341
G1 X132.343 Y120.68 E11.04241
G1 X132.21 Y121.255 E11.06989
G1 X131.898 Y122.331 E11.12205
G1 X131.783 Y122.659 E11.13824
G1 X131.473 Y123.438 E11.17728
G1 X131.226 Y123.992 E11.20552
G1 X130.681 Y125.044 E11.26069
G1 X130.497 Y125.354 E11.27748
G1 X130.033 Y126.067 E11.31709
G1 X129.733 Y126.488 E11.34116
G1 X129.129 Y127.255 E11.38662
G1 X128.715 Y127.732 E11.41603
G1 X127.882 Y128.585 E11.47155
G1 X127.668 Y128.78 E11.48503
G1 X127.013 Y129.329 E11.52482
G1 X126.538 Y129.694 E11.55272
G1 X125.764 Y130.234 E11.59666
G1 X125.339 Y130.502 E11.62006
G1 X124.647 Y130.901 E11.65725
G1 X124.455 Y131.002 E11.66736
G1 X123.883 Y131.281 E11.69699
G1 X123.707 Y131.36 E11.70597
G1 X123.167 Y131.584 E11.7332
G1 X122.601 Y131.8 E11.7614
G1 X121.545 Y132.138 E11.81303
G1 X121.22 Y132.223 E11.82868
G1 X120.331 Y132.414 E11.87102
G1 X119.79 Y132.505 E11.89656
G1 X118.812 Y132.621 E11.94242
G1 X118.185 Y132.665 E11.97169
G1 X116.972 Y132.678 E12.02817
G1 X116.666 Y132.663 E12.04244
G1 X115.865 Y132.592 E12.07988
G1 X115.219 Y132.509 E12.11021
G1 X114.144 Y132.312 E12.1611
G1 X113.86 Y132.244 E12.1747
G1 X112.994 Y131.996 E12.21664
G1 X112.415 Y131.802 E12.24508
G1 X111.472 Y131.432 E12.29225
G1 X110.974 Y131.208 E12.31767
G1 X109.993 Y130.702 E12.36907
G1 X109.695 Y130.527 E12.38516
G1 X108.948 Y130.043 E12.42661
G1 X108.425 Y129.671 E12.4565
G1 X107.558 Y128.981 E12.50809
G1 X107.341 Y128.788 E12.52161
G1 X106.704 Y128.17 E12.56294
G1 X106.279 Y127.72 E12.59176
G1 X105.623 Y126.952 E12.63879
G1 X105.341 Y126.587 E12.66027
G1 X104.775 Y125.775 E12.70636
G1 X104.456 Y125.267 E12.73429
G1 X103.892 Y124.243 E12.78873
G1 X103.761 Y123.969 E12.80287
G1 X103.429 Y123.195 E12.84209
G1 X103.224 Y122.656 E12.86894
G1 X102.919 Y121.718 E12.91487
G1 X102.763 Y121.147 E12.94243
G1 X102.514 Y119.966 E12.99863
G1 X102.468 Y119.658 E13.01313
G1 X102.381 Y118.858 E13.0506
G1 X102.335 Y118.196 E13.0815
G1 X102.321 Y117.019 E13.13631
G1 X102.336 Y116.694 E13.15146
G1 X102.407 Y115.872 E13.18988
G1 X102.473 Y115.355 E13.21415
G1 X102.646 Y114.381 E13.26021
G1 X102.785 Y113.771 E13.28934
G1 X103.105 Y112.66 E13.34318
G1 X103.212 Y112.355 E13.35823
G1 X103.531 Y111.557 E13.39825
G1 X103.793 Y110.973 E13.42805
G1 X104.183 Y110.194 E13.46862
G1 X104.253 Y110.068 E13.47533
G1 X104.5 Y109.647 E13.49806
G1 X104.611 Y109.468 E13.50787
G1 X104.965 Y108.935 E13.53766
G1 X105.321 Y108.434 E13.56628
G1 X106.039 Y107.536 E13.61982
G1 X106.254 Y107.296 E13.63482
G1 X106.851 Y106.683 E13.67466
G1 F2700 E8.67466
;MESH:joint.stl
G0 F6000 X113.819 Y113.201
G0 X115.111 Y114.629
G0 X115.264 Y114.746
;TYPE:WALL-INNER
G1 F2700 E13.67466
G1 F1200 X115.066 Y115.093 E13.69327
G1 X114.997 Y115.45 E13.7102
G1 X114.997 Y119.55 E13.90111
G1 X115.066 Y119.908 E13.91809
G1 X115.265 Y120.255 E13.93671
G1 X115.542 Y120.529 E13.95486
G1 X115.875 Y120.741 E13.97324
G1 X116.242 Y120.901 E13.99188
G1 X116.644 Y121.013 E14.01131
G1 X117.068 Y121.08 E14.0313
G1 X117.502 Y121.104 E14.05154
G1 X117.936 Y121.08 E14.07178
G1 X118.356 Y121.013 E14.09158
G1 X118.76 Y120.901 E14.11111
G1 X119.127 Y120.74 E14.12977
G1 X119.459 Y120.528 E14.14811
G1 X119.736 Y120.254 E14.16625
G1 X119.935 Y119.907 E14.18488
G1 X120.002 Y119.548 E14.20188
G1 X120.002 Y115.451 E14.39266
G1 X119.935 Y115.093 E14.40962
G1 X119.734 Y114.742 E14.42845
G1 X119.457 Y114.47 E14.44653
G1 X119.125 Y114.26 E14.46482
G1 X118.756 Y114.099 E14.48357
G1 X118.357 Y113.988 E14.50285
G1 X117.932 Y113.92 E14.52289
G1 X117.498 Y113.897 E14.54313
G1 X117.064 Y113.92 E14.56337
G1 X116.641 Y113.988 E14.58332
G1 X116.24 Y114.099 E14.60269
G1 X115.872 Y114.261 E14.62141
G1 X115.542 Y114.47 E14.6396
G1 X115.264 Y114.746 E14.65784
G0 F6000 X115.584 Y114.992
;TYPE:WALL-OUTER
G1 F1200 X115.446 Y115.234 E14.67081
G1 X115.397 Y115.488 E14.68286
G1 X115.397 Y119.512 E14.87023
G1 X115.446 Y119.767 E14.88232
G1 X115.585 Y120.009 E14.89532
G1 X115.793 Y120.215 E14.90895
G1 X116.063 Y120.387 E14.92386
G1 X116.376 Y120.523 E14.93975
G1 X116.729 Y120.622 E14.95682
G1 X117.11 Y120.682 E14.97478
G1 X117.502 Y120.703 E14.99306
G1 X117.894 Y120.682 E15.01134
G1 X118.27 Y120.622 E15.02907
G1 X118.625 Y120.523 E15.04623
G1 X118.938 Y120.386 E15.06214
G1 X119.208 Y120.214 E15.07705
G1 X119.416 Y120.008 E15.09068
G1 X119.554 Y119.767 E15.10361
G1 X119.602 Y119.511 E15.11574
G1 X119.602 Y115.488 E15.30306
G1 X119.554 Y115.233 E15.31515
G1 X119.414 Y114.989 E15.32825
G1 X119.207 Y114.785 E15.34178
G1 X118.937 Y114.614 E15.35666
G1 X118.622 Y114.477 E15.37266
G1 X118.271 Y114.379 E15.38962
G1 X117.89 Y114.318 E15.40759
G1 X117.498 Y114.298 E15.42587
G1 X117.106 Y114.318 E15.44415
G1 X116.727 Y114.379 E15.46202
G1 X116.375 Y114.477 E15.47903
G1 X116.061 Y114.615 E15.495
G1 X115.793 Y114.785 E15.50978
G1 X115.584 Y114.992 E15.52348
G0 F6000 X115.235 Y114.725
G1 F2700 E10.52348
G0 F6000 X117.044 Y113.73
G0 X116.987 Y113.347
G0 X117.077 Y113.122
;TYPE:WALL-INNER
G1 F2700 E15.52348
G1 F1200 X117.5 Y113.1 E15.5432
G1 X117.923 Y113.122 E15.56293
G1 X118.362 Y113.187 E15.58359
G1 X118.787 Y113.293 E15.60399
G1 X119.179 Y113.434 E15.62339
G1 X119.576 Y113.62 E15.6438
G1 X119.948 Y113.845 E15.66404
G1 X120.291 Y114.099 E15.68392
G1 X120.615 Y114.392 E15.70426
G1 X120.9 Y114.708 E15.72407
G1 X121.156 Y115.053 E15.74408
G1 X121.378 Y115.424 E15.76421
G1 X121.567 Y115.824 E15.78481
G1 X121.71 Y116.224 E15.80459
G1 X121.813 Y116.639 E15.8245
G1 X121.878 Y117.08 E15.84526
G1 X121.9 Y117.504 E15.86503
G1 X121.878 Y117.924 E15.88461
