;FLAVOR:Marlin
;TIME:5760
;Filament used: 4.92456m
;Layer height: 0.28
;MINX:77.521
;MINY:77.521
;MINZ:0.28
;MAXX:157.479
;MAXY:157.479
;MAXZ:22.96
;Generated with Cura_SteamEngine 4.12.1
M140 S50
M105
M190 S50
M104 S200
M105
M109 S200
M82 ;absolute extrusion mode
; Ender 3 Custom Start G-code
G92 E0 ; Reset Extruder
G28 ; Home all axes
G1 Z2.0 F3000 ; Move Z Axis up little to prevent scratching of Heat Bed
G1 X0.1 Y20 Z0.3 F5000.0 ; Move to start position
G1 X0.1 Y200.0 Z0.3 F1500.0 E15 ; Draw the first line
G1 X0.4 Y200.0 Z0.3 F5000.0 ; Move to side a little
G1 X0.4 Y20 Z0.3 F1500.0 E30 ; Draw the second line
G92 E0 ; Reset Extruder
G1 Z2.0 F3000 ; Move Z Axis up little to prevent scratching of Heat Bed
G1 X5 Y20 Z0.3 F5000.0 ; Move over to prevent blob squish
G92 E0
G92 E0
G1 F2700 E-5
;LAYER_COUNT:82
;LAYER:0
M107
G0 F6000 X89.317 Y89.144 Z0.28
;TYPE:SKIRT
G1 F2700 E0
G1 F1200 X90.188 Y88.32 E0.05583
G1 X90.361 Y88.16 E0.0668
G1 X91.215 Y87.386 E0.12047
G1 X91.714 Y86.947 E0.15142
G1 X92.224 Y86.525 E0.18224
G1 X93.19 Y85.775 E0.23919
G1 X93.383 Y85.629 E0.25046
G1 X94.372 Y84.897 E0.30775
G1 X94.845 Y84.558 E0.33485
G1 X95.395 Y84.188 E0.36571
G1 X96.425 Y83.54 E0.42238
G1 X97.549 Y82.864 E0.48345
G1 X97.704 Y82.772 E0.49185
G1 X98.166 Y82.505 E0.51669
G1 X98.754 Y82.189 E0.54778
G1 X99.871 Y81.631 E0.60592
G1 X100.083 Y81.527 E0.61691
G1 X101.156 Y81.021 E0.67215
G1 X101.694 Y80.776 E0.69968
G1 X102.329 Y80.511 E0.73172
G1 X103.434 Y80.089 E0.7868
G1 X103.659 Y80.006 E0.79796
G1 X104.9 Y79.563 E0.85932
G1 X105.363 Y79.405 E0.8821
G1 X106.019 Y79.204 E0.91405
G1 X107.158 Y78.893 E0.96903
G1 X107.38 Y78.835 E0.97971
G1 X108.666 Y78.514 E1.04143
G1 X109.138 Y78.403 E1.06401
G1 X109.811 Y78.267 E1.09598
G1 X111.022 Y78.061 E1.15318
G1 X111.256 Y78.024 E1.16421
G1 X112.54 Y77.835 E1.22464
G1 X113.037 Y77.769 E1.24799
G1 X113.713 Y77.7 E1.27963
G1 X114.892 Y77.617 E1.33466
G1 X115.128 Y77.603 E1.34567
G1 X116.391 Y77.543 E1.40455
G1 X116.94 Y77.524 E1.43013
G1 X117.628 Y77.521 E1.46217
G1 X118.841 Y77.555 E1.51867
G1 X119.071 Y77.564 E1.52939
G1 X120.324 Y77.627 E1.58781
G1 X120.881 Y77.663 E1.6138
G1 X121.557 Y77.728 E1.64542
G1 X122.731 Y77.877 E1.70052
G1 X122.957 Y77.908 E1.71115
G1 X124.153 Y78.086 E1.76745
G1 X124.721 Y78.177 E1.79424
G1 X125.44 Y78.316 E1.82834
G1 X126.626 Y78.588 E1.88499
G1 X127.944 Y78.917 E1.94825
G1 X128.565 Y79.08 E1.97815
G1 X129.236 Y79.281 E2.01076
G1 X130.354 Y79.655 E2.06566
G1 X130.569 Y79.73 E2.07626
G1 X131.812 Y80.176 E2.13775
G1 X132.244 Y80.337 E2.15922
G1 X132.898 Y80.604 E2.19211
G1 X134.064 Y81.126 E2.2516
G1 X134.274 Y81.223 E2.26237
G1 X135.371 Y81.743 E2.3189
G1 X135.833 Y81.969 E2.34285
G1 X136.458 Y82.3 E2.37578
G1 X137.513 Y82.903 E2.43236
G1 X137.706 Y83.016 E2.44278
G1 X138.805 Y83.676 E2.50247
G1 X139.24 Y83.946 E2.52631
G1 X139.806 Y84.322 E2.55795
G1 X140.84 Y85.056 E2.617
G1 X141.028 Y85.192 E2.6278
G1 X141.993 Y85.91 E2.68381
G1 X142.434 Y86.247 E2.70965
G1 X142.972 Y86.686 E2.74198
G1 X143.86 Y87.458 E2.79678
G1 X144.031 Y87.609 E2.8074
G1 X145.009 Y88.497 E2.86891
G1 X145.376 Y88.84 E2.8923
G1 X145.856 Y89.317 E2.92381
G1 X146.68 Y90.188 E2.97964
G1 X146.84 Y90.361 E2.99061
G1 X147.614 Y91.215 E3.04428
G1 X148.053 Y91.714 E3.07523
G1 X148.475 Y92.224 E3.10605
G1 X149.225 Y93.19 E3.163
G1 X149.371 Y93.383 E3.17427
G1 X150.069 Y94.326 E3.2289
G1 X150.434 Y94.834 E3.25802
G1 X150.812 Y95.395 E3.28952
G1 X151.46 Y96.425 E3.34619
G1 X152.11 Y97.505 E3.40488
G1 X152.489 Y98.156 E3.43996
G1 X152.811 Y98.754 E3.47158
G1 X153.369 Y99.871 E3.52972
G1 X153.473 Y100.085 E3.5408
G1 X153.972 Y101.143 E3.59527
G1 X154.221 Y101.689 E3.62322
G1 X154.489 Y102.329 E3.65552
G1 X154.911 Y103.434 E3.7106
G1 X154.994 Y103.659 E3.72177
G1 X155.437 Y104.9 E3.78313
G1 X155.595 Y105.363 E3.80591
G1 X155.796 Y106.019 E3.83786
G1 X156.107 Y107.158 E3.89283
G1 X156.165 Y107.38 E3.90352
G1 X156.482 Y108.651 E3.96451
G1 X156.593 Y109.12 E3.98696
G1 X156.735 Y109.82 E4.02021
G1 X156.943 Y111.051 E4.07835
G1 X156.977 Y111.266 E4.08848
G1 X157.15 Y112.433 E4.14342
G1 X157.229 Y113.023 E4.17114
G1 X157.299 Y113.711 E4.20334
G1 X157.385 Y114.934 E4.26043
G1 X157.399 Y115.166 E4.27125
G1 X157.458 Y116.386 E4.32812
G1 X157.477 Y116.939 E4.35389
G1 X157.479 Y117.623 E4.38574
G1 X157.445 Y118.843 E4.44257
G1 X157.436 Y119.079 E4.45357
G1 X157.376 Y120.278 E4.50947
G1 X157.34 Y120.854 E4.53634
G1 X157.273 Y121.554 E4.56908
G1 X157.092 Y122.966 E4.63537
G1 X156.917 Y124.139 E4.69059
G1 X156.826 Y124.709 E4.71747
G1 X156.685 Y125.436 E4.75195
G1 X156.415 Y126.612 E4.80814
G1 X156.365 Y126.821 E4.81815
G1 X156.063 Y128.022 E4.87581
G1 X155.92 Y128.562 E4.90182
G1 X155.719 Y129.236 E4.93457
G1 X155.345 Y130.354 E4.98947
G1 X155.27 Y130.569 E5.00007
G1 X154.826 Y131.807 E5.06131
G1 X154.666 Y132.237 E5.08267
G1 X154.396 Y132.896 E5.11584
G1 X153.873 Y134.064 E5.17543
G1 X153.776 Y134.276 E5.18628
G1 X153.253 Y135.379 E5.24312
G1 X153.032 Y135.831 E5.26655
G1 X152.7 Y136.458 E5.29959
G1 X152.097 Y137.513 E5.35617
G1 X151.984 Y137.706 E5.36658
G1 X151.324 Y138.805 E5.42628
G1 X151.054 Y139.24 E5.45012
G1 X150.678 Y139.806 E5.48176
G1 X149.944 Y140.84 E5.5408
G1 X149.808 Y141.028 E5.55161
G1 X149.09 Y141.993 E5.60762
G1 X148.753 Y142.434 E5.63346
G1 X148.314 Y142.972 E5.66579
G1 X147.542 Y143.86 E5.72058
G1 X147.391 Y144.031 E5.73121
G1 X146.503 Y145.009 E5.79272
G1 X146.16 Y145.376 E5.81611
G1 X145.683 Y145.856 E5.84762
G1 X144.812 Y146.68 E5.90345
G1 X144.639 Y146.84 E5.91442
G1 X143.785 Y147.614 E5.96809
G1 X143.286 Y148.053 E5.99904
G1 X142.776 Y148.475 E6.02986
G1 X141.81 Y149.225 E6.08681
G1 X141.617 Y149.371 E6.09808
G1 X140.634 Y150.099 E6.15503
G1 X140.157 Y150.441 E6.18236
G1 X139.605 Y150.812 E6.21333
G1 X138.575 Y151.46 E6.27
G1 X137.456 Y152.133 E6.3308
G1 X137.303 Y152.224 E6.33909
G1 X136.836 Y152.494 E6.36421
G1 X136.246 Y152.811 E6.39539
G1 X135.133 Y153.367 E6.45333
G1 X134.922 Y153.47 E6.46426
G1 X133.844 Y153.979 E6.51977
G1 X133.306 Y154.224 E6.5473
G1 X132.671 Y154.489 E6.57934
G1 X131.566 Y154.911 E6.63442
G1 X131.341 Y154.994 E6.64558
G1 X130.1 Y155.437 E6.70694
G1 X129.637 Y155.595 E6.72972
G1 X128.981 Y155.796 E6.76167
G1 X127.842 Y156.107 E6.81665
G1 X127.62 Y156.165 E6.82733
G1 X126.349 Y156.482 E6.88833
G1 X125.88 Y156.593 E6.91077
G1 X125.18 Y156.735 E6.94403
G1 X123.949 Y156.943 E7.00216
G1 X123.735 Y156.977 E7.01225
G1 X122.534 Y157.155 E7.06878
G1 X121.961 Y157.231 E7.0957
G1 X121.288 Y157.299 E7.1272
G1 X120.067 Y157.385 E7.18419
G1 X119.827 Y157.399 E7.19539
G1 X118.609 Y157.457 E7.25217
G1 X118.068 Y157.476 E7.27737
G1 X117.375 Y157.479 E7.30964
G1 X116.156 Y157.445 E7.36643
G1 X115.919 Y157.436 E7.37747
G1 X114.706 Y157.375 E7.43402
G1 X114.146 Y157.34 E7.46015
G1 X113.446 Y157.273 E7.49289
G1 X112.034 Y157.092 E7.55918
G1 X110.784 Y156.906 E7.61803
G1 X110.275 Y156.824 E7.64203
G1 X109.564 Y156.685 E7.67577
G1 X108.388 Y156.415 E7.73195
G1 X108.172 Y156.363 E7.7423
G1 X106.914 Y156.047 E7.80269
G1 X106.435 Y155.92 E7.82577
G1 X105.764 Y155.719 E7.85839
G1 X104.646 Y155.345 E7.91328
G1 X104.431 Y155.27 E7.92388
G1 X103.188 Y154.824 E7.98538
G1 X102.756 Y154.663 E8.00684
G1 X102.102 Y154.396 E8.03974
G1 X100.936 Y153.874 E8.09922
G1 X100.723 Y153.776 E8.11014
G1 X99.618 Y153.251 E8.16711
G1 X99.168 Y153.031 E8.19043
G1 X98.54 Y152.699 E8.22351
G1 X97.487 Y152.097 E8.27999
G1 X97.294 Y151.984 E8.2904
G1 X96.195 Y151.324 E8.35009
G1 X95.76 Y151.054 E8.37393
G1 X95.194 Y150.678 E8.40557
G1 X94.16 Y149.944 E8.46462
G1 X93.972 Y149.808 E8.47542
G1 X93.004 Y149.088 E8.5316
G1 X92.562 Y148.75 E8.55751
G1 X92.028 Y148.314 E8.58961
G1 X91.141 Y147.543 E8.64433
G1 X90.969 Y147.391 E8.65502
G1 X89.991 Y146.503 E8.71653
G1 X89.624 Y146.16 E8.73992
G1 X89.144 Y145.683 E8.77143
G1 X88.32 Y144.812 E8.82726
G1 X88.16 Y144.639 E8.83824
G1 X87.386 Y143.785 E8.8919
G1 X86.947 Y143.286 E8.92285
G1 X86.525 Y142.776 E8.95368
G1 X85.775 Y141.81 E9.01062
G1 X85.629 Y141.617 E9.02189
G1 X84.904 Y140.637 E9.07865
G1 X84.561 Y140.159 E9.10605
G1 X84.186 Y139.601 E9.13735
G1 X83.539 Y138.572 E9.19395
G1 X83.419 Y138.376 E9.20465
G1 X82.775 Y137.3 E9.26305
G1 X82.504 Y136.831 E9.28827
G1 X82.188 Y136.244 E9.31931
G1 X81.631 Y135.129 E9.37735
G1 X81.527 Y134.917 E9.38834
G1 X81.088 Y133.989 E9.43615
G1 X80.776 Y133.305 E9.47115
G1 X80.509 Y132.668 E9.50331
G1 X80.088 Y131.565 E9.55829
G1 X80.006 Y131.341 E9.5694
G1 X79.563 Y130.1 E9.63075
G1 X79.405 Y129.637 E9.65353
G1 X79.204 Y128.981 E9.68548
G1 X78.893 Y127.842 E9.74046
G1 X78.835 Y127.62 E9.75114
G1 X78.514 Y126.334 E9.81286
G1 X78.403 Y125.862 E9.83544
G1 X78.267 Y125.189 E9.86741
G1 X78.061 Y123.978 E9.92461
G1 X78.024 Y123.744 E9.93564
G1 X77.835 Y122.46 E9.99607
G1 X77.769 Y121.963 E10.01942
G1 X77.7 Y121.287 E10.05106
G1 X77.617 Y120.108 E10.1061
G1 X77.603 Y119.872 E10.1171
G1 X77.543 Y118.61 E10.17593
G1 X77.524 Y118.062 E10.20147
G1 X77.521 Y117.373 E10.23355
G1 X77.555 Y116.159 E10.2901
G1 X77.564 Y115.929 E10.30082
G1 X77.627 Y114.676 E10.35924
G1 X77.663 Y114.119 E10.38523
G1 X77.728 Y113.443 E10.41685
G1 X77.877 Y112.269 E10.47196
G1 X77.908 Y112.043 E10.48258
G1 X78.087 Y110.838 E10.5393
G1 X78.177 Y110.277 E10.56576
G1 X78.316 Y109.56 E10.59977
G1 X78.588 Y108.374 E10.65643
G1 X78.917 Y107.056 E10.71968
G1 X79.08 Y106.435 E10.74958
G1 X79.281 Y105.764 E10.78219
G1 X79.655 Y104.646 E10.83709
G1 X79.73 Y104.431 E10.84769
G1 X80.174 Y103.193 E10.90893
G1 X80.334 Y102.763 E10.9303
G1 X80.604 Y102.104 E10.96346
G1 X81.224 Y100.723 E11.03395
G1 X81.749 Y99.618 E11.09091
G1 X81.968 Y99.17 E11.11413
G1 X82.3 Y98.542 E11.14721
G1 X82.903 Y97.487 E11.20379
G1 X83.016 Y97.294 E11.21421
G1 X83.676 Y96.195 E11.2739
G1 X83.946 Y95.76 E11.29774
G1 X84.322 Y95.194 E11.32938
G1 X85.056 Y94.16 E11.38843
G1 X85.192 Y93.972 E11.39923
G1 X85.91 Y93.007 E11.45524
G1 X86.247 Y92.566 E11.48108
G1 X86.686 Y92.028 E11.51341
G1 X87.458 Y91.14 E11.56821
G1 X87.607 Y90.972 E11.57866
G1 X88.509 Y89.978 E11.64116
G1 X88.847 Y89.617 E11.66419
G1 X89.317 Y89.144 E11.69524
G0 F6000 X89.592 Y89.435
G1 F1200 X90.463 Y88.611 E11.75107
G1 X90.63 Y88.457 E11.76165
G1 X91.61 Y87.57 E11.8232
G1 X91.978 Y87.247 E11.846
G1 X92.469 Y86.841 E11.87566
G1 X93.435 Y86.091 E11.93261
G1 X93.621 Y85.95 E11.94348
G1 X94.605 Y85.222 E12.00047
G1 X95.078 Y84.883 E12.02757
G1 X95.608 Y84.527 E12.0573
G1 X96.638 Y83.879 E12.11396
G1 X96.829 Y83.762 E12.12439
G1 X97.904 Y83.118 E12.18275
G1 X98.366 Y82.851 E12.20759
G1 X98.933 Y82.546 E12.23757
G1 X100.05 Y81.988 E12.29571
G1 X100.254 Y81.889 E12.30627
G1 X101.322 Y81.385 E12.36126
G1 X101.86 Y81.14 E12.38879
G1 X102.471 Y80.885 E12.41962
G1 X103.576 Y80.463 E12.47469
G1 X103.793 Y80.382 E12.48548
G1 X104.888 Y79.991 E12.53962
G1 X105.493 Y79.784 E12.5694
G1 X106.124 Y79.59 E12.60014
G1 X107.263 Y79.279 E12.65511
G1 X107.478 Y79.223 E12.66546
G1 X108.757 Y78.903 E12.72685
G1 X109.229 Y78.792 E12.74943
G1 X109.878 Y78.661 E12.78026
G1 X111.089 Y78.455 E12.83746
G1 X111.314 Y78.419 E12.84807
G1 X112.593 Y78.231 E12.90826
G1 X113.09 Y78.165 E12.93161
G1 X113.741 Y78.099 E12.96208
G1 X114.92 Y78.016 E13.01711
G1 X115.148 Y78.003 E13.02775
G1 X116.404 Y77.942 E13.0863
G1 X116.953 Y77.923 E13.11188
G1 X117.617 Y77.921 E13.1428
G1 X118.83 Y77.955 E13.1993
G1 X119.052 Y77.964 E13.20965
G1 X120.299 Y78.026 E13.26778
G1 X120.856 Y78.062 E13.29377
G1 X121.507 Y78.124 E13.32423
G1 X122.681 Y78.273 E13.37933
G1 X122.899 Y78.303 E13.38958
G1 X124.09 Y78.48 E13.44564
G1 X124.658 Y78.571 E13.47243
G1 X125.351 Y78.706 E13.50531
G1 X126.537 Y78.978 E13.56196
G1 X127.847 Y79.305 E13.62483
G1 X128.463 Y79.467 E13.65449
G1 X129.109 Y79.661 E13.6859
G1 X130.434 Y80.106 E13.75099
G1 X131.673 Y80.55 E13.81227
G1 X132.105 Y80.711 E13.83374
G1 X132.734 Y80.969 E13.8654
G1 X133.9 Y81.491 E13.92488
G1 X134.102 Y81.584 E13.93524
G1 X135.195 Y82.102 E13.99156
G1 X135.657 Y82.328 E14.01551
G1 X136.259 Y82.647 E14.04723
G1 X137.314 Y83.25 E14.10381
G1 X137.501 Y83.359 E14.11389
G1 X138.451 Y83.928 E14.16546
G1 X139.029 Y84.286 E14.19711
G1 X139.575 Y84.648 E14.22762
G1 X140.609 Y85.382 E14.28666
G1 X140.789 Y85.513 E14.29703
G1 X141.75 Y86.228 E14.35281
G1 X142.191 Y86.565 E14.37865
G1 X142.71 Y86.987 E14.4098
G1 X143.598 Y87.759 E14.46459
G1 X143.762 Y87.905 E14.47481
G1 X144.736 Y88.79 E14.53609
G1 X145.103 Y89.133 E14.55948
G1 X145.565 Y89.592 E14.58981
G1 X146.389 Y90.463 E14.64564
G1 X146.543 Y90.63 E14.65621
G1 X147.43 Y91.61 E14.71776
G1 X147.753 Y91.978 E14.74056
G1 X148.159 Y92.469 E14.77023
G1 X148.909 Y93.435 E14.82718
G1 X149.05 Y93.622 E14.83808
G1 X149.744 Y94.56 E14.89241
G1 X150.109 Y95.068 E14.92154
G1 X150.473 Y95.608 E14.95187
G1 X151.121 Y96.638 E15.00853
G1 X151.238 Y96.828 E15.01892
G1 X151.851 Y97.852 E15.07449
G1 X152.143 Y98.356 E15.10161
G1 X152.454 Y98.933 E15.13214
G1 X153.012 Y100.05 E15.19028
G1 X153.112 Y100.256 E15.20094
G1 X153.547 Y101.176 E15.24833
G1 X153.857 Y101.855 E15.28308
G1 X154.115 Y102.471 E15.31418
G1 X154.537 Y103.576 E15.36926
G1 X154.618 Y103.793 E15.38004
G1 X155.009 Y104.888 E15.43418
G1 X155.216 Y105.493 E15.46396
G1 X155.41 Y106.124 E15.4947
G1 X155.721 Y107.263 E15.54968
G1 X155.777 Y107.478 E15.56002
G1 X156.093 Y108.743 E15.62074
G1 X156.204 Y109.212 E15.64318
G1 X156.341 Y109.887 E15.67525
G1 X156.549 Y111.118 E15.73338
G1 X156.582 Y111.325 E15.74314
G1 X156.753 Y112.486 E15.79779
G1 X156.832 Y113.076 E15.8255
G1 X156.9 Y113.739 E15.85654
G1 X156.986 Y114.962 E15.91363
G1 X156.999 Y115.186 E15.92408
G1 X157.058 Y116.4 E15.98067
G1 X157.077 Y116.953 E16.00644
G1 X157.079 Y117.612 E16.03712
G1 X157.045 Y118.832 E16.09395
G1 X157.036 Y119.059 E16.10453
G1 X156.976 Y120.253 E16.1602
G1 X156.94 Y120.829 E16.18707
G1 X156.877 Y121.503 E16.21859
G1 X156.726 Y122.692 E16.2744
G1 X156.696 Y122.908 E16.28456
G1 X156.522 Y124.076 E16.33954
G1 X156.431 Y124.646 E16.36642
G1 X156.295 Y125.347 E16.39967
G1 X156.025 Y126.523 E16.45586
G1 X155.977 Y126.724 E16.46548
G1 X155.677 Y127.92 E16.52289
G1 X155.534 Y128.46 E16.54891
G1 X155.339 Y129.109 E16.58046
G1 X154.894 Y130.434 E16.64554
G1 X154.452 Y131.668 E16.70658
G1 X154.292 Y132.098 E16.72794
G1 X154.031 Y132.733 E16.75991
G1 X153.415 Y134.105 E16.82994
G1 X152.894 Y135.203 E16.88653
G1 X152.673 Y135.655 E16.90996
G1 X152.353 Y136.259 E16.94179
G1 X151.75 Y137.314 E16.99837
G1 X151.641 Y137.501 E17.00845
G1 X151.072 Y138.451 E17.06002
G1 X150.714 Y139.029 E17.09167
G1 X150.352 Y139.575 E17.12218
G1 X149.618 Y140.609 E17.18122
G1 X149.487 Y140.789 E17.19159
G1 X148.772 Y141.75 E17.24736
G1 X148.435 Y142.191 E17.27321
G1 X148.013 Y142.71 E17.30436
G1 X147.241 Y143.598 E17.35915
G1 X147.095 Y143.762 E17.36937
G1 X146.21 Y144.736 E17.43065
G1 X145.867 Y145.103 E17.45404
G1 X145.408 Y145.565 E17.48436
G1 X144.537 Y146.389 E17.5402
G1 X144.37 Y146.543 E17.55077
G1 X143.39 Y147.43 E17.61232
G1 X143.022 Y147.753 E17.63512
G1 X142.531 Y148.159 E17.66479
G1 X141.565 Y148.909 E17.72174
G1 X141.379 Y149.05 E17.7326
G1 X140.539 Y149.673 E17.7813
G1 X139.923 Y150.116 E17.81663
G1 X139.392 Y150.473 E17.84643
G1 X138.362 Y151.121 E17.90309
G1 X138.171 Y151.238 E17.91352
G1 X137.103 Y151.878 E17.9715
G1 X136.636 Y152.148 E17.99661
G1 X136.067 Y152.454 E18.0267
G1 X134.954 Y153.01 E18.08463
G1 X134.751 Y153.109 E18.09515
G1 X133.678 Y153.615 E18.15039
G1 X133.14 Y153.86 E18.17791
G1 X132.529 Y154.115 E18.20874
G1 X131.424 Y154.537 E18.26382
G1 X131.207 Y154.618 E18.27461
G1 X130.112 Y155.009 E18.32875
G1 X129.507 Y155.216 E18.35852
G1 X128.876 Y155.41 E18.38926
G1 X127.737 Y155.721 E18.44424
G1 X127.522 Y155.777 E18.45458
G1 X126.257 Y156.093 E18.5153
G1 X125.788 Y156.204 E18.53774
G1 X125.113 Y156.341 E18.56981
G1 X123.882 Y156.549 E18.62794
G1 X123.676 Y156.582 E18.63766
G1 X122.648 Y156.735 E18.68605
G1 X121.909 Y156.834 E18.72077
G1 X121.26 Y156.9 E18.75115
G1 X120.039 Y156.986 E18.80814
G1 X119.808 Y157 E18.81892
G1 X118.737 Y157.052 E18.86885
G1 X118.054 Y157.076 E18.90067
G1 X117.386 Y157.079 E18.93178
G1 X116.167 Y157.045 E18.98856
