;FLAVOR:Marlin
;TIME:5743
;Filament used: 5.08201m
;Layer height: 0.28
;MINX:77.521
;MINY:77.521
;MINZ:0.28
;MAXX:157.479
;MAXY:157.479
;MAXZ:29.12
;Generated with Cura_SteamEngine 4.12.1
M140 S50
M105
M190 S50
M104 S200
M105
M109 S200
M82 ;absolute extrusion mode
; Ender 3 Custom Start G-code
G92 E0 ; Reset Extruder
G28 ; Home all axes
G1 Z2.0 F3000 ; Move Z Axis up little to prevent scratching of Heat Bed
G1 X0.1 Y20 Z0.3 F5000.0 ; Move to start position
G1 X0.1 Y200.0 Z0.3 F1500.0 E15 ; Draw the first line
G1 X0.4 Y200.0 Z0.3 F5000.0 ; Move to side a little
G1 X0.4 Y20 Z0.3 F1500.0 E30 ; Draw the second line
G92 E0 ; Reset Extruder
G1 Z2.0 F3000 ; Move Z Axis up little to prevent scratching of Heat Bed
G1 X5 Y20 Z0.3 F5000.0 ; Move over to prevent blob squish
G92 E0
G92 E0
G1 F2700 E-5
;LAYER_COUNT:104
;LAYER:0
M107
G0 F6000 X89.317 Y89.144 Z0.28
;TYPE:SKIRT
G1 F2700 E0
G1 F1200 X90.188 Y88.32 E0.05583
G1 X90.361 Y88.16 E0.0668
G1 X91.215 Y87.386 E0.12047
G1 X91.714 Y86.947 E0.15142
G1 X92.224 Y86.525 E0.18224
G1 X93.19 Y85.775 E0.23919
G1 X93.383 Y85.629 E0.25046
G1 X94.372 Y84.897 E0.30775
G1 X94.845 Y84.558 E0.33485
G1 X95.395 Y84.188 E0.36571
G1 X96.425 Y83.54 E0.42238
G1 X97.549 Y82.864 E0.48345
G1 X97.704 Y82.772 E0.49185
G1 X98.166 Y82.505 E0.51669
G1 X98.754 Y82.189 E0.54778
G1 X99.871 Y81.631 E0.60592
G1 X100.083 Y81.527 E0.61691
G1 X101.156 Y81.021 E0.67215
G1 X101.694 Y80.776 E0.69968
G1 X102.329 Y80.511 E0.73172
G1 X103.434 Y80.089 E0.7868
G1 X103.659 Y80.006 E0.79796
G1 X104.9 Y79.563 E0.85932
G1 X105.363 Y79.405 E0.8821
G1 X106.019 Y79.204 E0.91405
G1 X107.158 Y78.893 E0.96903
G1 X107.38 Y78.835 E0.97971
G1 X108.651 Y78.518 E1.04071
G1 X109.12 Y78.407 E1.06315
G1 X109.82 Y78.265 E1.09641
G1 X111.051 Y78.057 E1.15454
G1 X111.265 Y78.023 E1.16463
G1 X112.466 Y77.845 E1.22117
G1 X113.039 Y77.769 E1.24808
G1 X113.712 Y77.701 E1.27958
G1 X114.933 Y77.615 E1.33657
G1 X115.173 Y77.601 E1.34777
G1 X116.391 Y77.543 E1.40455
G1 X116.932 Y77.524 E1.42975
G1 X117.625 Y77.521 E1.46202
G1 X118.844 Y77.555 E1.51881
G1 X119.081 Y77.564 E1.52985
G1 X120.294 Y77.625 E1.5864
G1 X120.854 Y77.66 E1.61253
G1 X121.554 Y77.727 E1.64528
G1 X122.966 Y77.908 E1.71156
G1 X124.216 Y78.094 E1.77041
G1 X124.725 Y78.176 E1.79441
G1 X125.436 Y78.315 E1.82815
G1 X126.612 Y78.585 E1.88433
G1 X126.828 Y78.637 E1.89468
G1 X128.086 Y78.953 E1.95508
G1 X128.565 Y79.08 E1.97815
G1 X129.236 Y79.281 E2.01077
G1 X130.354 Y79.655 E2.06566
G1 X130.569 Y79.73 E2.07626
G1 X131.812 Y80.176 E2.13776
G1 X132.244 Y80.337 E2.15922
G1 X132.898 Y80.604 E2.19212
G1 X134.064 Y81.126 E2.2516
G1 X134.274 Y81.223 E2.26237
G1 X135.371 Y81.743 E2.3189
G1 X135.833 Y81.969 E2.34285
G1 X136.458 Y82.3 E2.37578
G1 X137.513 Y82.903 E2.43237
G1 X137.706 Y83.016 E2.44278
G1 X138.805 Y83.676 E2.50247
G1 X139.24 Y83.946 E2.52631
G1 X139.806 Y84.322 E2.55796
G1 X140.84 Y85.056 E2.617
G1 X141.028 Y85.192 E2.62781
G1 X141.993 Y85.91 E2.68381
G1 X142.434 Y86.247 E2.70966
G1 X142.972 Y86.686 E2.74199
G1 X143.86 Y87.458 E2.79678
G1 X144.031 Y87.609 E2.8074
G1 X145.009 Y88.497 E2.86891
G1 X145.376 Y88.84 E2.8923
G1 X145.856 Y89.317 E2.92382
G1 X146.68 Y90.188 E2.97965
G1 X146.84 Y90.361 E2.99062
G1 X147.614 Y91.215 E3.04429
G1 X148.053 Y91.714 E3.07523
G1 X148.475 Y92.224 E3.10606
G1 X149.225 Y93.19 E3.163
G1 X149.371 Y93.383 E3.17427
G1 X150.069 Y94.326 E3.2289
G1 X150.434 Y94.834 E3.25803
G1 X150.812 Y95.395 E3.28953
G1 X151.46 Y96.425 E3.34619
G1 X152.11 Y97.505 E3.40489
G1 X152.489 Y98.156 E3.43996
G1 X152.811 Y98.754 E3.47159
G1 X153.369 Y99.871 E3.52973
G1 X153.473 Y100.085 E3.54081
G1 X153.972 Y101.143 E3.59528
G1 X154.221 Y101.689 E3.62322
G1 X154.489 Y102.329 E3.65553
G1 X154.911 Y103.434 E3.71061
G1 X154.994 Y103.659 E3.72178
G1 X155.437 Y104.9 E3.78313
G1 X155.595 Y105.363 E3.80591
G1 X155.796 Y106.019 E3.83786
G1 X156.107 Y107.158 E3.89284
G1 X156.165 Y107.38 E3.90352
G1 X156.482 Y108.651 E3.96452
G1 X156.593 Y109.12 E3.98696
G1 X156.735 Y109.82 E4.02022
G1 X156.943 Y111.051 E4.07835
G1 X156.977 Y111.266 E4.08849
G1 X157.15 Y112.433 E4.14342
G1 X157.229 Y113.023 E4.17114
G1 X157.299 Y113.711 E4.20334
G1 X157.385 Y114.934 E4.26043
G1 X157.399 Y115.167 E4.2713
G1 X157.458 Y116.387 E4.32817
G1 X157.477 Y116.94 E4.35394
G1 X157.479 Y117.626 E4.38588
G1 X157.445 Y118.84 E4.44243
G1 X157.436 Y119.07 E4.45315
G1 X157.373 Y120.324 E4.51162
G1 X157.337 Y120.881 E4.53761
G1 X157.272 Y121.557 E4.56923
G1 X157.123 Y122.731 E4.62433
G1 X157.092 Y122.957 E4.63496
G1 X156.914 Y124.153 E4.69126
G1 X156.823 Y124.721 E4.71805
G1 X156.684 Y125.44 E4.75215
G1 X156.412 Y126.626 E4.80881
G1 X156.083 Y127.944 E4.87206
G1 X155.92 Y128.565 E4.90196
G1 X155.719 Y129.236 E4.93457
G1 X155.345 Y130.354 E4.98947
G1 X155.27 Y130.569 E5.00007
G1 X154.826 Y131.807 E5.06131
G1 X154.666 Y132.237 E5.08268
G1 X154.396 Y132.896 E5.11584
G1 X153.873 Y134.064 E5.17543
G1 X153.776 Y134.276 E5.18628
G1 X153.253 Y135.379 E5.24312
G1 X153.032 Y135.831 E5.26655
G1 X152.7 Y136.458 E5.29959
G1 X152.097 Y137.513 E5.35617
G1 X151.984 Y137.706 E5.36659
G1 X151.324 Y138.805 E5.42628
G1 X151.054 Y139.24 E5.45012
G1 X150.678 Y139.806 E5.48176
G1 X149.944 Y140.84 E5.5408
G1 X149.808 Y141.028 E5.55161
G1 X149.09 Y141.993 E5.60762
G1 X148.753 Y142.434 E5.63346
G1 X148.314 Y142.972 E5.66579
G1 X147.542 Y143.86 E5.72058
G1 X147.391 Y144.031 E5.73121
G1 X146.503 Y145.009 E5.79272
G1 X146.16 Y145.376 E5.81611
G1 X145.683 Y145.856 E5.84762
G1 X144.812 Y146.68 E5.90345
G1 X144.639 Y146.84 E5.91442
G1 X143.785 Y147.614 E5.96809
G1 X143.286 Y148.053 E5.99904
G1 X142.776 Y148.475 E6.02986
G1 X141.81 Y149.225 E6.08681
G1 X141.617 Y149.371 E6.09808
G1 X140.634 Y150.099 E6.15504
G1 X140.157 Y150.441 E6.18237
G1 X139.605 Y150.812 E6.21333
G1 X138.575 Y151.46 E6.27
G1 X137.456 Y152.133 E6.3308
G1 X137.303 Y152.224 E6.33909
G1 X136.836 Y152.494 E6.36421
G1 X136.246 Y152.811 E6.3954
G1 X135.133 Y153.367 E6.45333
G1 X134.922 Y153.47 E6.46426
G1 X133.844 Y153.979 E6.51977
G1 X133.306 Y154.224 E6.5473
G1 X132.671 Y154.489 E6.57934
G1 X131.566 Y154.911 E6.63442
G1 X131.341 Y154.994 E6.64558
G1 X130.1 Y155.437 E6.70694
G1 X129.637 Y155.595 E6.72972
G1 X128.981 Y155.796 E6.76167
G1 X127.842 Y156.107 E6.81665
G1 X127.62 Y156.165 E6.82733
G1 X126.334 Y156.486 E6.88905
G1 X125.862 Y156.597 E6.91163
G1 X125.189 Y156.733 E6.9436
G1 X123.978 Y156.939 E7.0008
G1 X123.744 Y156.976 E7.01183
G1 X122.46 Y157.165 E7.07226
G1 X121.963 Y157.231 E7.09561
G1 X121.287 Y157.3 E7.12725
G1 X120.108 Y157.383 E7.18228
G1 X119.872 Y157.397 E7.19329
G1 X118.609 Y157.457 E7.25217
G1 X118.06 Y157.476 E7.27775
G1 X117.372 Y157.479 E7.30978
G1 X116.159 Y157.445 E7.36629
G1 X115.929 Y157.436 E7.37701
G1 X114.676 Y157.373 E7.43543
G1 X114.119 Y157.337 E7.46142
G1 X113.443 Y157.272 E7.49304
G1 X112.269 Y157.123 E7.54814
G1 X112.043 Y157.092 E7.55877
G1 X110.847 Y156.914 E7.61507
G1 X110.279 Y156.823 E7.64186
G1 X109.56 Y156.684 E7.67596
G1 X108.374 Y156.412 E7.73261
G1 X107.056 Y156.083 E7.79587
G1 X106.435 Y155.92 E7.82576
G1 X105.764 Y155.719 E7.85838
G1 X104.646 Y155.345 E7.91328
G1 X104.431 Y155.27 E7.92388
G1 X103.188 Y154.824 E7.98537
G1 X102.756 Y154.663 E8.00684
G1 X102.102 Y154.396 E8.03973
G1 X100.936 Y153.874 E8.09922
G1 X100.723 Y153.776 E8.11014
G1 X99.618 Y153.251 E8.1671
G1 X99.168 Y153.031 E8.19042
G1 X98.54 Y152.699 E8.2235
G1 X97.487 Y152.097 E8.27998
G1 X97.294 Y151.984 E8.2904
G1 X96.195 Y151.324 E8.35009
G1 X95.76 Y151.054 E8.37393
G1 X95.194 Y150.678 E8.40557
G1 X94.16 Y149.944 E8.46461
G1 X93.972 Y149.808 E8.47542
G1 X93.004 Y149.088 E8.53159
G1 X92.562 Y148.75 E8.5575
G1 X92.028 Y148.314 E8.5896
G1 X91.141 Y147.543 E8.64433
G1 X90.969 Y147.391 E8.65502
G1 X89.991 Y146.503 E8.71653
G1 X89.624 Y146.16 E8.73992
G1 X89.144 Y145.683 E8.77143
G1 X88.32 Y144.812 E8.82726
G1 X88.16 Y144.639 E8.83823
G1 X87.386 Y143.785 E8.8919
G1 X86.947 Y143.286 E8.92285
G1 X86.525 Y142.776 E8.95367
G1 X85.775 Y141.81 E9.01062
G1 X85.629 Y141.617 E9.02189
G1 X84.904 Y140.637 E9.07865
G1 X84.561 Y140.159 E9.10604
G1 X84.186 Y139.601 E9.13735
G1 X83.539 Y138.572 E9.19395
G1 X83.419 Y138.376 E9.20465
G1 X82.775 Y137.3 E9.26304
G1 X82.504 Y136.831 E9.28826
G1 X82.188 Y136.244 E9.31931
G1 X81.631 Y135.129 E9.37734
G1 X81.527 Y134.917 E9.38834
G1 X81.088 Y133.989 E9.43614
G1 X80.776 Y133.305 E9.47115
G1 X80.509 Y132.668 E9.50331
G1 X80.088 Y131.565 E9.55828
G1 X80.006 Y131.341 E9.56939
G1 X79.563 Y130.1 E9.63075
G1 X79.405 Y129.637 E9.65353
G1 X79.204 Y128.981 E9.68548
G1 X78.893 Y127.842 E9.74045
G1 X78.835 Y127.62 E9.75114
G1 X78.518 Y126.349 E9.81213
G1 X78.407 Y125.88 E9.83458
G1 X78.265 Y125.18 E9.86784
G1 X78.057 Y123.949 E9.92597
G1 X78.023 Y123.735 E9.93606
G1 X77.845 Y122.534 E9.99259
G1 X77.769 Y121.961 E10.01951
G1 X77.701 Y121.288 E10.051
G1 X77.615 Y120.067 E10.108
G1 X77.601 Y119.827 E10.11919
G1 X77.543 Y118.609 E10.17597
G1 X77.524 Y118.068 E10.20118
G1 X77.521 Y117.374 E10.2335
G1 X77.555 Y116.16 E10.29005
G1 X77.564 Y115.93 E10.30077
G1 X77.627 Y114.676 E10.35923
G1 X77.663 Y114.119 E10.38522
G1 X77.728 Y113.443 E10.41684
G1 X77.877 Y112.269 E10.47195
G1 X77.908 Y112.043 E10.48257
G1 X78.087 Y110.838 E10.5393
G1 X78.177 Y110.277 E10.56575
G1 X78.316 Y109.56 E10.59976
G1 X78.588 Y108.374 E10.65642
G1 X78.917 Y107.056 E10.71967
G1 X79.08 Y106.435 E10.74957
G1 X79.281 Y105.764 E10.78219
G1 X79.655 Y104.646 E10.83708
G1 X79.73 Y104.431 E10.84768
G1 X80.174 Y103.193 E10.90893
G1 X80.334 Y102.763 E10.93029
G1 X80.604 Y102.104 E10.96345
G1 X81.224 Y100.723 E11.03394
G1 X81.749 Y99.618 E11.09091
G1 X81.968 Y99.17 E11.11413
G1 X82.3 Y98.542 E11.1472
G1 X82.903 Y97.487 E11.20379
G1 X83.016 Y97.294 E11.2142
G1 X83.676 Y96.195 E11.27389
G1 X83.946 Y95.76 E11.29773
G1 X84.322 Y95.194 E11.32937
G1 X85.056 Y94.16 E11.38842
G1 X85.192 Y93.972 E11.39922
G1 X85.91 Y93.007 E11.45523
G1 X86.247 Y92.566 E11.48107
G1 X86.686 Y92.028 E11.51341
G1 X87.458 Y91.14 E11.5682
G1 X87.607 Y90.972 E11.57865
G1 X88.509 Y89.978 E11.64116
G1 X88.847 Y89.617 E11.66418
G1 X89.317 Y89.144 E11.69523
G0 F6000 X89.592 Y89.435
G1 F1200 X90.463 Y88.611 E11.75106
G1 X90.63 Y88.457 E11.76164
G1 X91.61 Y87.57 E11.82319
G1 X91.978 Y87.247 E11.84599
G1 X92.469 Y86.841 E11.87566
G1 X93.435 Y86.091 E11.9326
G1 X93.621 Y85.95 E11.94347
G1 X94.605 Y85.222 E12.00047
G1 X95.078 Y84.883 E12.02756
G1 X95.608 Y84.527 E12.05729
G1 X96.638 Y83.879 E12.11396
G1 X96.829 Y83.762 E12.12439
G1 X97.904 Y83.118 E12.18274
G1 X98.366 Y82.851 E12.20759
G1 X98.933 Y82.546 E12.23756
G1 X100.05 Y81.988 E12.29571
G1 X100.254 Y81.889 E12.30626
G1 X101.322 Y81.385 E12.36125
G1 X101.86 Y81.14 E12.38878
G1 X102.471 Y80.885 E12.41961
G1 X103.576 Y80.463 E12.47469
G1 X103.793 Y80.382 E12.48547
G1 X104.888 Y79.991 E12.53961
G1 X105.493 Y79.784 E12.56939
G1 X106.124 Y79.59 E12.60013
G1 X107.263 Y79.279 E12.65511
G1 X107.478 Y79.223 E12.66545
G1 X108.743 Y78.907 E12.72617
G1 X109.212 Y78.796 E12.74861
G1 X109.887 Y78.659 E12.78068
G1 X111.118 Y78.451 E12.83881
G1 X111.324 Y78.418 E12.84853
G1 X112.352 Y78.265 E12.89692
G1 X113.091 Y78.166 E12.93164
G1 X113.74 Y78.1 E12.96202
G1 X114.961 Y78.014 E13.01901
G1 X115.192 Y78 E13.02979
G1 X116.263 Y77.948 E13.07972
G1 X116.946 Y77.924 E13.11154
G1 X117.614 Y77.921 E13.14265
G1 X118.833 Y77.955 E13.19943
G1 X119.061 Y77.964 E13.21005
G1 X120.269 Y78.025 E13.26638
G1 X120.829 Y78.06 E13.2925
G1 X121.503 Y78.123 E13.32402
G1 X122.692 Y78.274 E13.37983
G1 X122.908 Y78.304 E13.38999
G1 X124.152 Y78.489 E13.44855
G1 X124.661 Y78.571 E13.47256
G1 X125.347 Y78.705 E13.5051
G1 X126.523 Y78.975 E13.56129
G1 X126.731 Y79.025 E13.57125
G1 X127.984 Y79.34 E13.63141
G1 X128.463 Y79.467 E13.65448
G1 X129.109 Y79.661 E13.68589
G1 X130.434 Y80.106 E13.75098
G1 X131.673 Y80.55 E13.81226
G1 X132.105 Y80.711 E13.83373
G1 X132.734 Y80.969 E13.86539
G1 X133.9 Y81.491 E13.92487
G1 X134.102 Y81.584 E13.93523
G1 X135.195 Y82.102 E13.99155
G1 X135.657 Y82.328 E14.0155
G1 X136.259 Y82.647 E14.04722
G1 X137.314 Y83.25 E14.1038
G1 X137.501 Y83.359 E14.11388
G1 X138.451 Y83.928 E14.16545
G1 X139.029 Y84.286 E14.1971
G1 X139.575 Y84.648 E14.22761
G1 X140.609 Y85.382 E14.28665
G1 X140.789 Y85.513 E14.29702
G1 X141.75 Y86.228 E14.3528
G1 X142.191 Y86.565 E14.37864
G1 X142.71 Y86.987 E14.40979
G1 X143.598 Y87.759 E14.46458
G1 X143.762 Y87.905 E14.4748
G1 X144.736 Y88.79 E14.53608
G1 X145.103 Y89.133 E14.55947
G1 X145.565 Y89.592 E14.5898
G1 X146.389 Y90.463 E14.64563
G1 X146.543 Y90.63 E14.6562
G1 X147.43 Y91.61 E14.71775
G1 X147.753 Y91.978 E14.74055
G1 X148.159 Y92.469 E14.77022
G1 X148.909 Y93.435 E14.82717
G1 X149.05 Y93.622 E14.83807
G1 X149.744 Y94.56 E14.8924
G1 X150.109 Y95.068 E14.92153
G1 X150.473 Y95.608 E14.95186
G1 X151.121 Y96.638 E15.00852
G1 X151.238 Y96.828 E15.01891
G1 X151.851 Y97.852 E15.07448
G1 X152.143 Y98.356 E15.1016
G1 X152.454 Y98.933 E15.13213
G1 X153.012 Y100.05 E15.19027
G1 X153.112 Y100.256 E15.20093
G1 X153.547 Y101.176 E15.24832
G1 X153.857 Y101.855 E15.28307
G1 X154.115 Y102.471 E15.31417
G1 X154.537 Y103.576 E15.36925
G1 X154.618 Y103.793 E15.38003
G1 X155.009 Y104.888 E15.43417
G1 X155.216 Y105.493 E15.46395
G1 X155.41 Y106.124 E15.49469
G1 X155.721 Y107.263 E15.54967
G1 X155.777 Y107.478 E15.56001
G1 X156.093 Y108.743 E15.62073
G1 X156.204 Y109.212 E15.64317
G1 X156.341 Y109.887 E15.67524
G1 X156.549 Y111.118 E15.73337
G1 X156.582 Y111.325 E15.74313
G1 X156.753 Y112.486 E15.79778
G1 X156.832 Y113.076 E15.82549
G1 X156.9 Y113.739 E15.85653
G1 X156.986 Y114.962 E15.91362
G1 X156.999 Y115.186 E15.92407
G1 X157.058 Y116.401 E15.98071
G1 X157.077 Y116.954 E16.00647
G1 X157.079 Y117.615 E16.03725
G1 X157.045 Y118.829 E16.0938
G1 X157.036 Y119.05 E16.1041
G1 X156.974 Y120.299 E16.16233
G1 X156.938 Y120.856 E16.18832
G1 X156.876 Y121.507 E16.21877
G1 X156.727 Y122.681 E16.27388
G1 X156.697 Y122.899 E16.28412
G1 X156.52 Y124.09 E16.34019
G1 X156.429 Y124.658 E16.36698
G1 X156.294 Y125.351 E16.39985
G1 X156.022 Y126.537 E16.45651
G1 X155.695 Y127.847 E16.51938
G1 X155.533 Y128.463 E16.54904
G1 X155.339 Y129.109 E16.58045
G1 X154.894 Y130.434 E16.64553
G1 X154.452 Y131.668 E16.70657
G1 X154.292 Y132.098 E16.72793
G1 X154.031 Y132.733 E16.7599
G1 X153.415 Y134.105 E16.82993
G1 X152.894 Y135.203 E16.88652
G1 X152.673 Y135.655 E16.90995
G1 X152.353 Y136.259 E16.94178
G1 X151.75 Y137.314 E16.99836
G1 X151.641 Y137.501 E17.00844
G1 X151.072 Y138.451 E17.06
G1 X150.714 Y139.029 E17.09166
G1 X150.352 Y139.575 E17.12217
G1 X149.618 Y140.609 E17.18121
G1 X149.487 Y140.789 E17.19158
G1 X148.772 Y141.75 E17.24735
G1 X148.435 Y142.191 E17.2732
G1 X148.013 Y142.71 E17.30434
G1 X147.241 Y143.598 E17.35913
G1 X147.095 Y143.762 E17.36936
G1 X146.21 Y144.736 E17.43064
G1 X145.867 Y145.103 E17.45403
G1 X145.408 Y145.565 E17.48435
G1 X144.537 Y146.389 E17.54018
G1 X144.37 Y146.543 E17.55076
G1 X143.39 Y147.43 E17.61231
G1 X143.022 Y147.753 E17.63511
G1 X142.531 Y148.159 E17.66478
G1 X141.565 Y148.909 E17.72172
G1 X141.379 Y149.05 E17.73259
G1 X140.539 Y149.673 E17.78129
G1 X139.923 Y150.116 E17.81662
G1 X139.392 Y150.473 E17.84641
G1 X138.362 Y151.121 E17.90308
G1 X138.171 Y151.238 E17.91351
G1 X137.103 Y151.878 E17.97148
G1 X136.636 Y152.148 E17.9966
G1 X136.067 Y152.454 E18.02669
G1 X134.954 Y153.01 E18.08462
G1 X134.751 Y153.109 E18.09514
G1 X133.678 Y153.615 E18.15038
G1 X133.14 Y153.86 E18.1779
G1 X132.529 Y154.115 E18.20873
G1 X131.424 Y154.537 E18.26381
G1 X131.207 Y154.618 E18.27459
G1 X130.112 Y155.009 E18.32874
G1 X129.507 Y155.216 E18.35851
G1 X128.876 Y155.41 E18.38925
G1 X127.737 Y155.721 E18.44423
G1 X127.522 Y155.777 E18.45457
G1 X126.243 Y156.097 E18.51596
G1 X125.771 Y156.208 E18.53854
G1 X125.122 Y156.339 E18.56937
G1 X123.911 Y156.545 E18.62657
G1 X123.686 Y156.581 E18.63718
G1 X122.407 Y156.769 E18.69738
G1 X121.91 Y156.835 E18.72072
G1 X121.259 Y156.901 E18.75119
G1 X120.08 Y156.984 E18.80623
G1 X119.852 Y156.997 E18.81686
G1 X118.596 Y157.058 E18.87541
G1 X118.047 Y157.077 E18.90099
G1 X117.383 Y157.079 E18.93191
G1 X116.17 Y157.045 E18.98842
G1 X115.948 Y157.036 E18.99876
