;FLAVOR:Marlin
;TIME:618
;Filament used: 0.622295m
;Layer height: 0.28
;MINX:94.021
;MINY:94.021
;MINZ:0.28
;MAXX:140.979
;MAXY:140.978
;MAXZ:10.08
;Generated with Cura_SteamEngine 4.12.1
M140 S50
M105
M190 S50
M104 S200
M105
M109 S200
M82 ;absolute extrusion mode
; Ender 3 Custom Start G-code
G92 E0 ; Reset Extruder
G28 ; Home all axes
G1 Z2.0 F3000 ; Move Z Axis up little to prevent scratching of Heat Bed
G1 X0.1 Y20 Z0.3 F5000.0 ; Move to start position
G1 X0.1 Y200.0 Z0.3 F1500.0 E15 ; Draw the first line
G1 X0.4 Y200.0 Z0.3 F5000.0 ; Move to side a little
G1 X0.4 Y20 Z0.3 F1500.0 E30 ; Draw the second line
G92 E0 ; Reset Extruder
G1 Z2.0 F3000 ; Move Z Axis up little to prevent scratching of Heat Bed
G1 X5 Y20 Z0.3 F5000.0 ; Move over to prevent blob squish
G92 E0
G92 E0
G1 F2700 E-5
;LAYER_COUNT:36
;LAYER:0
M107
G0 F6000 X100.982 Y100.813 Z0.28
;TYPE:SKIRT
G1 F2700 E0
G1 F1200 X101.719 Y100.115 E0.04727
G1 X102.035 Y99.827 E0.06717
G1 X102.172 Y99.707 E0.07566
G1 X102.683 Y99.286 E0.10648
G1 X103.522 Y98.636 E0.1559
G1 X103.871 Y98.377 E0.17614
G1 X104.028 Y98.265 E0.18512
G1 X104.561 Y97.908 E0.21499
G1 X105.404 Y97.378 E0.26136
G1 X105.765 Y97.16 E0.281
G1 X105.961 Y97.047 E0.29153
G1 X106.544 Y96.734 E0.32234
G1 X107.442 Y96.286 E0.36907
G1 X107.819 Y96.107 E0.38851
G1 X108.029 Y96.012 E0.39924
G1 X108.636 Y95.759 E0.42986
G1 X109.557 Y95.407 E0.47577
G1 X109.905 Y95.28 E0.49302
G1 X110.123 Y95.205 E0.50376
G1 X110.806 Y94.995 E0.53703
G1 X111.788 Y94.727 E0.58443
G1 X112.129 Y94.64 E0.60081
G1 X112.33 Y94.592 E0.61044
G1 X113.055 Y94.444 E0.64489
G1 X114.039 Y94.278 E0.69136
G1 X114.402 Y94.223 E0.70845
G1 X114.625 Y94.193 E0.71893
G1 X115.325 Y94.122 E0.75169
G1 X116.341 Y94.051 E0.79912
G1 X116.745 Y94.03 E0.81796
G1 X116.957 Y94.023 E0.82783
G1 X117.627 Y94.021 E0.85903
G1 X118.629 Y94.049 E0.90571
G1 X119.002 Y94.066 E0.92309
G1 X119.228 Y94.08 E0.93364
G1 X119.941 Y94.148 E0.96699
G1 X120.936 Y94.275 E1.01369
G1 X121.204 Y94.312 E1.02629
G1 X121.407 Y94.343 E1.03585
G1 X122.212 Y94.497 E1.07402
G1 X123.238 Y94.733 E1.12304
G1 X123.585 Y94.819 E1.13969
G1 X123.74 Y94.86 E1.14715
G1 X124.421 Y95.064 E1.18026
G1 X125.424 Y95.4 E1.22951
G1 X125.761 Y95.519 E1.24615
G1 X125.944 Y95.587 E1.25524
G1 X126.619 Y95.863 E1.2892
G1 X127.512 Y96.264 E1.33478
G1 X127.802 Y96.399 E1.34968
G1 X128.027 Y96.508 E1.36132
G1 X128.694 Y96.861 E1.39646
G1 X129.566 Y97.36 E1.44324
G1 X129.865 Y97.537 E1.45942
G1 X130.039 Y97.644 E1.46893
G1 X130.648 Y98.047 E1.50293
G1 X131.477 Y98.636 E1.55029
G1 X131.764 Y98.847 E1.56687
G1 X132.077 Y99.085 E1.58518
G1 X132.578 Y99.489 E1.61515
G1 X132.858 Y99.729 E1.63232
G1 X133.12 Y99.962 E1.64865
G1 X133.348 Y100.171 E1.66305
G1 X133.745 Y100.543 E1.68839
G1 X134.218 Y101.014 E1.71947
G1 X134.874 Y101.708 E1.76394
G1 X135.135 Y101.994 E1.78196
G1 X135.408 Y102.304 E1.8012
G1 X135.804 Y102.779 E1.83
G1 X136.031 Y103.068 E1.84711
G1 X136.219 Y103.315 E1.86156
G1 X136.417 Y103.585 E1.87715
G1 X136.727 Y104.017 E1.90191
G1 X137.111 Y104.588 E1.93395
G1 X137.645 Y105.44 E1.98077
G1 X137.85 Y105.782 E1.99934
G1 X137.947 Y105.95 E2.00837
G1 X138.264 Y106.539 E2.03952
G1 X138.713 Y107.439 E2.08635
G1 X138.889 Y107.809 E2.10543
G1 X138.981 Y108.012 E2.11581
G1 X139.241 Y108.636 E2.14729
G1 X139.603 Y109.586 E2.19463
G1 X139.741 Y109.971 E2.21367
G1 X139.82 Y110.204 E2.22513
G1 X140.014 Y110.837 E2.25595
G1 X140.267 Y111.763 E2.30065
G1 X140.361 Y112.134 E2.31847
G1 X140.455 Y112.532 E2.33752
G1 X140.591 Y113.198 E2.36917
G1 X140.658 Y113.588 E2.38759
G1 X140.716 Y113.964 E2.40531
G1 X140.808 Y114.639 E2.43703
G1 X140.882 Y115.36 E2.47078
G1 X140.949 Y116.321 E2.51564
G1 X140.97 Y116.723 E2.53438
G1 X140.977 Y116.935 E2.54426
G1 X140.979 Y117.605 E2.57546
G1 X140.95 Y118.643 E2.62381
G1 X140.932 Y119.031 E2.6419
G1 X140.918 Y119.252 E2.65221
G1 X140.851 Y119.954 E2.68504
G1 X140.724 Y120.946 E2.73161
G1 X140.682 Y121.24 E2.74544
G1 X140.647 Y121.465 E2.75604
G1 X140.498 Y122.24 E2.79279
G1 X140.276 Y123.205 E2.8389
G1 X140.183 Y123.58 E2.85689
G1 X140.079 Y123.969 E2.87564
G1 X139.909 Y124.542 E2.90347
G1 X139.814 Y124.833 E2.91772
G1 X139.714 Y125.124 E2.93205
G1 X139.573 Y125.516 E2.95145
G1 X139.394 Y125.995 E2.97526
G1 X139.12 Y126.661 E3.0088
G1 X138.739 Y127.507 E3.052
G1 X138.606 Y127.791 E3.0666
G1 X138.492 Y128.026 E3.07876
G1 X138.143 Y128.687 E3.11357
G1 X137.635 Y129.575 E3.16121
G1 X137.453 Y129.881 E3.17778
G1 X137.352 Y130.045 E3.18675
G1 X136.953 Y130.648 E3.22042
G1 X136.364 Y131.477 E3.26777
G1 X136.149 Y131.769 E3.28466
G1 X136.015 Y131.945 E3.29496
G1 X135.567 Y132.496 E3.32803
G1 X134.912 Y133.25 E3.37453
G1 X134.627 Y133.566 E3.39435
G1 X134.473 Y133.73 E3.40482
G1 X134.018 Y134.187 E3.43485
G1 X133.281 Y134.885 E3.48212
G1 X132.977 Y135.162 E3.50127
G1 X132.697 Y135.408 E3.51862
G1 X132.251 Y135.779 E3.54564
G1 X131.995 Y135.981 E3.56082
G1 X131.764 Y136.159 E3.5744
G1 X131.433 Y136.403 E3.59355
G1 X130.989 Y136.722 E3.61901
G1 X130.416 Y137.108 E3.65118
G1 X129.571 Y137.638 E3.69762
G1 X129.235 Y137.84 E3.71588
G1 X129.076 Y137.932 E3.72443
G1 X128.47 Y138.258 E3.75647
G1 X127.526 Y138.728 E3.80558
G1 X127.158 Y138.903 E3.82455
G1 X126.937 Y139.003 E3.83585
G1 X126.328 Y139.257 E3.86657
G1 X125.459 Y139.589 E3.90989
G1 X125.078 Y139.726 E3.92874
G1 X124.843 Y139.806 E3.9403
G1 X124.195 Y140.005 E3.97187
G1 X123.217 Y140.272 E4.01907
G1 X122.832 Y140.369 E4.03756
G1 X122.444 Y140.46 E4.05612
G1 X121.81 Y140.59 E4.08625
G1 X121.429 Y140.656 E4.10426
G1 X121.028 Y140.717 E4.12315
G1 X120.349 Y140.809 E4.15505
G1 X119.639 Y140.882 E4.18829
G1 X118.681 Y140.949 E4.233
G1 X118.262 Y140.97 E4.25254
G1 X118.041 Y140.977 E4.26283
G1 X117.378 Y140.978 E4.29371
G1 X116.332 Y140.948 E4.34243
G1 X115.951 Y140.931 E4.36019
G1 X115.746 Y140.918 E4.36976
G1 X115.044 Y140.851 E4.40259
G1 X114.053 Y140.724 E4.44912
G1 X113.76 Y140.682 E4.4629
G1 X113.535 Y140.647 E4.4735
G1 X112.76 Y140.498 E4.51025
G1 X111.795 Y140.276 E4.55636
G1 X111.42 Y140.183 E4.57435
G1 X111.031 Y140.079 E4.5931
G1 X110.411 Y139.893 E4.62324
G1 X110.043 Y139.771 E4.64129
G1 X109.769 Y139.677 E4.65478
G1 X109.48 Y139.571 E4.66911
G1 X108.999 Y139.391 E4.69303
G1 X108.338 Y139.119 E4.72631
G1 X107.494 Y138.739 E4.76941
G1 X107.208 Y138.605 E4.78412
G1 X106.971 Y138.49 E4.79638
G1 X106.31 Y138.141 E4.83119
G1 X105.424 Y137.634 E4.87872
G1 X105.119 Y137.453 E4.89524
G1 X104.955 Y137.352 E4.9042
G1 X104.352 Y136.953 E4.93787
G1 X103.523 Y136.364 E4.98523
G1 X103.223 Y136.143 E5.00258
G1 X103.046 Y136.008 E5.01294
G1 X102.504 Y135.567 E5.04548
G1 X101.751 Y134.913 E5.09192
G1 X101.434 Y134.627 E5.1118
G1 X101.27 Y134.473 E5.12228
G1 X100.813 Y134.018 E5.1523
G1 X100.115 Y133.281 E5.19957
G1 X99.838 Y132.977 E5.21872
G1 X99.585 Y132.689 E5.23657
G1 X99.202 Y132.228 E5.26448
G1 X99.007 Y131.98 E5.27917
G1 X98.842 Y131.765 E5.29179
G1 X98.587 Y131.42 E5.31177
G1 X98.276 Y130.987 E5.33659
G1 X97.889 Y130.412 E5.36886
G1 X97.355 Y129.56 E5.41568
G1 X97.141 Y129.202 E5.43511
G1 X97.053 Y129.049 E5.44332
G1 X96.741 Y128.468 E5.47403
G1 X96.272 Y127.526 E5.52303
G1 X96.099 Y127.161 E5.54184
G1 X95.998 Y126.938 E5.55324
G1 X95.741 Y126.323 E5.58428
G1 X95.41 Y125.456 E5.62749
G1 X95.274 Y125.078 E5.64619
G1 X95.194 Y124.843 E5.65775
G1 X94.995 Y124.195 E5.68932
G1 X94.728 Y123.217 E5.73652
G1 X94.638 Y122.861 E5.75362
G1 X94.548 Y122.482 E5.77176
G1 X94.41 Y121.811 E5.80366
G1 X94.341 Y121.411 E5.82256
G1 X94.279 Y121.008 E5.84155
G1 X94.189 Y120.339 E5.87298
G1 X94.118 Y119.639 E5.90574
G1 X94.051 Y118.681 E5.95046
G1 X94.031 Y118.298 E5.96832
G1 X94.023 Y118.069 E5.97899
G1 X94.021 Y117.37 E6.01154
G1 X94.05 Y116.358 E6.05868
G1 X94.067 Y115.978 E6.07639
G1 X94.081 Y115.757 E6.0867
G1 X94.148 Y115.059 E6.11935
G1 X94.275 Y114.064 E6.16606
G1 X94.318 Y113.757 E6.18049
G1 X94.351 Y113.546 E6.19044
G1 X94.499 Y112.782 E6.22668
G1 X94.733 Y111.764 E6.27531
G1 X94.825 Y111.392 E6.29316
G1 X94.92 Y111.036 E6.31031
G1 X95.091 Y110.458 E6.33838
G1 X95.186 Y110.167 E6.35264
G1 X95.286 Y109.876 E6.36696
G1 X95.427 Y109.484 E6.38636
G1 X95.606 Y109.005 E6.41017
G1 X95.88 Y108.339 E6.44371
G1 X96.261 Y107.493 E6.48691
G1 X96.408 Y107.18 E6.50301
G1 X96.604 Y106.779 E6.5238
G1 X96.909 Y106.2 E6.55427
G1 X97.088 Y105.883 E6.57122
G1 X97.239 Y105.624 E6.58518
G1 X97.404 Y105.351 E6.60003
G1 X97.671 Y104.919 E6.62368
G1 X98.065 Y104.325 E6.65687
G1 X98.642 Y103.514 E6.70322
G1 X98.853 Y103.228 E6.71977
G1 X98.987 Y103.052 E6.73007
G1 X99.439 Y102.496 E6.76343
G1 X100.093 Y101.744 E6.80984
G1 X100.373 Y101.435 E6.82926
G1 X100.526 Y101.272 E6.83966
G1 X100.982 Y100.813 E6.86979
G0 F6000 X101.257 Y101.104
G1 F1200 X101.994 Y100.406 E6.91706
G1 X102.299 Y100.128 E6.93627
G1 X102.436 Y100.008 E6.94476
G1 X102.928 Y99.603 E6.97443
G1 X103.767 Y98.953 E7.02385
G1 X104.103 Y98.703 E7.04335
G1 X104.26 Y98.591 E7.05233
G1 X104.774 Y98.246 E7.08116
G1 X105.617 Y97.716 E7.12752
G1 X105.965 Y97.507 E7.14642
G1 X106.161 Y97.394 E7.15696
G1 X106.723 Y97.092 E7.18667
G1 X107.621 Y96.644 E7.2334
G1 X107.984 Y96.471 E7.25212
G1 X108.194 Y96.376 E7.26285
G1 X108.779 Y96.133 E7.29235
G1 X109.7 Y95.781 E7.33826
G1 X110.036 Y95.659 E7.35491
G1 X110.254 Y95.584 E7.36564
G1 X110.911 Y95.381 E7.39766
G1 X111.893 Y95.113 E7.44506
G1 X112.222 Y95.029 E7.46087
G1 X112.423 Y94.981 E7.47049
G1 X113.122 Y94.839 E7.50371
G1 X114.106 Y94.673 E7.55017
G1 X114.456 Y94.62 E7.56666
G1 X114.679 Y94.59 E7.57713
G1 X115.353 Y94.521 E7.60868
G1 X116.369 Y94.45 E7.65611
G1 X116.758 Y94.43 E7.67424
G1 X116.97 Y94.423 E7.68412
G1 X117.616 Y94.421 E7.7142
G1 X118.618 Y94.449 E7.76088
G1 X118.977 Y94.465 E7.77761
G1 X119.203 Y94.479 E7.78815
G1 X119.89 Y94.544 E7.82029
G1 X120.885 Y94.671 E7.86699
G1 X121.143 Y94.707 E7.87912
G1 X121.346 Y94.738 E7.88868
G1 X122.122 Y94.887 E7.92548
G1 X123.148 Y95.123 E7.9745
G1 X123.483 Y95.205 E7.99056
G1 X123.638 Y95.246 E7.99803
G1 X124.294 Y95.443 E8.02992
G1 X125.297 Y95.779 E8.07917
G1 X125.622 Y95.894 E8.09523
G1 X125.805 Y95.962 E8.10432
G1 X126.455 Y96.228 E8.13702
G1 X127.348 Y96.629 E8.1826
G1 X127.627 Y96.759 E8.19694
G1 X127.852 Y96.868 E8.20858
G1 X128.496 Y97.208 E8.24249
G1 X129.368 Y97.707 E8.28927
G1 X129.656 Y97.878 E8.30487
G1 X129.83 Y97.985 E8.31438
G1 X130.416 Y98.373 E8.3471
G1 X131.245 Y98.962 E8.39446
G1 X131.522 Y99.165 E8.41045
G1 X131.835 Y99.403 E8.42876
G1 X132.317 Y99.793 E8.45763
G1 X132.597 Y100.033 E8.4748
G1 X132.851 Y100.257 E8.49057
G1 X133.075 Y100.463 E8.50474
G1 X133.472 Y100.835 E8.53007
G1 X133.927 Y101.289 E8.56
G1 X134.583 Y101.983 E8.60447
G1 X134.835 Y102.258 E8.62184
G1 X135.108 Y102.568 E8.64107
G1 X135.489 Y103.026 E8.66881
G1 X135.716 Y103.315 E8.68593
G1 X135.898 Y103.554 E8.69991
G1 X136.092 Y103.818 E8.71517
G1 X136.402 Y104.25 E8.73993
G1 X136.772 Y104.801 E8.77083
G1 X137.306 Y105.653 E8.81765
G1 X137.504 Y105.982 E8.83553
G1 X137.601 Y106.15 E8.84457
G1 X137.906 Y106.718 E8.87459
G1 X138.355 Y107.618 E8.92142
G1 X138.525 Y107.974 E8.93979
G1 X138.617 Y108.177 E8.95017
G1 X138.867 Y108.779 E8.98052
G1 X139.229 Y109.729 E9.02786
G1 X139.363 Y110.099 E9.04618
G1 X139.442 Y110.332 E9.05764
G1 X139.628 Y110.942 E9.08733
G1 X139.881 Y111.868 E9.13203
G1 X139.972 Y112.226 E9.14923
G1 X140.066 Y112.624 E9.16828
G1 X140.197 Y113.265 E9.19874
G1 X140.264 Y113.655 E9.21717
G1 X140.32 Y114.018 E9.23427
G1 X140.412 Y114.693 E9.26599
G1 X140.483 Y115.388 E9.29852
G1 X140.55 Y116.349 E9.34338
G1 X140.57 Y116.736 E9.36142
G1 X140.577 Y116.948 E9.3713
G1 X140.579 Y117.594 E9.40138
G1 X140.55 Y118.632 E9.44973
G1 X140.533 Y119.006 E9.46717
G1 X140.519 Y119.227 E9.47748
G1 X140.454 Y119.903 E9.5091
G1 X140.327 Y120.895 E9.55567
G1 X140.287 Y121.178 E9.56898
G1 X140.252 Y121.403 E9.57958
G1 X140.108 Y122.15 E9.615
G1 X139.886 Y123.115 E9.66111
G1 X139.796 Y123.477 E9.67848
G1 X139.692 Y123.866 E9.69723
G1 X139.529 Y124.418 E9.72403
G1 X139.434 Y124.709 E9.73829
G1 X139.338 Y124.989 E9.75207
G1 X139.198 Y125.376 E9.77123
G1 X139.019 Y125.855 E9.79504
G1 X138.755 Y126.497 E9.82737
G1 X138.374 Y127.343 E9.87057
G1 X138.246 Y127.616 E9.88461
G1 X138.132 Y127.851 E9.89677
G1 X137.796 Y128.489 E9.93035
G1 X137.288 Y129.377 E9.97798
G1 X137.113 Y129.672 E9.99396
G1 X137.012 Y129.836 E10.00292
G1 X136.627 Y130.416 E10.03534
G1 X136.038 Y131.245 E10.08269
G1 X135.831 Y131.527 E10.09898
G1 X135.697 Y131.703 E10.10928
G1 X135.265 Y132.234 E10.14116
G1 X134.61 Y132.988 E10.18766
G1 X134.335 Y133.292 E10.20675
G1 X134.181 Y133.456 E10.21723
G1 X133.743 Y133.896 E10.24614
G1 X133.006 Y134.594 E10.2934
G1 X132.713 Y134.861 E10.31186
G1 X132.433 Y135.107 E10.32922
G1 X132.003 Y135.465 E10.35527
G1 X131.747 Y135.667 E10.37045
G1 X131.525 Y135.838 E10.3835
G1 X131.2 Y136.079 E10.40234
G1 X130.756 Y136.398 E10.4278
G1 X130.203 Y136.769 E10.45881
G1 X129.358 Y137.299 E10.50525
G1 X129.035 Y137.494 E10.52282
G1 X128.876 Y137.586 E10.53138
G1 X128.291 Y137.9 E10.56229
G1 X127.347 Y138.37 E10.6114
G1 X126.993 Y138.538 E10.62964
G1 X126.772 Y138.638 E10.64094
G1 X126.185 Y138.883 E10.67056
G1 X125.316 Y139.215 E10.71387
G1 X124.949 Y139.347 E10.73203
G1 X124.714 Y139.427 E10.74359
G1 X124.09 Y139.619 E10.77399
G1 X123.112 Y139.886 E10.8212
G1 X122.74 Y139.98 E10.83907
G1 X122.352 Y140.071 E10.85762
G1 X121.741 Y140.195 E10.88665
G1 X121.36 Y140.261 E10.90466
G1 X120.974 Y140.321 E10.92285
G1 X120.295 Y140.413 E10.95475
G1 X119.612 Y140.483 E10.98672
G1 X118.654 Y140.55 E11.03144
G1 X118.25 Y140.571 E11.05028
G1 X118.029 Y140.578 E11.06057
G1 X117.389 Y140.579 E11.09038
G1 X116.343 Y140.549 E11.1391
G1 X115.976 Y140.532 E11.15621
G1 X115.771 Y140.519 E11.16577
G1 X115.095 Y140.454 E11.1974
G1 X114.104 Y140.327 E11.24392
G1 X113.822 Y140.287 E11.25718
G1 X113.597 Y140.252 E11.26778
G1 X112.85 Y140.108 E11.30321
G1 X111.885 Y139.886 E11.34932
G1 X111.523 Y139.796 E11.36669
G1 X111.134 Y139.692 E11.38544
G1 X110.536 Y139.513 E11.4145
G1 X110.168 Y139.391 E11.43255
G1 X109.905 Y139.3 E11.44551
G1 X109.62 Y139.197 E11.45962
G1 X109.139 Y139.017 E11.48354
G1 X108.502 Y138.755 E11.51561
G1 X107.658 Y138.375 E11.55871
G1 X107.383 Y138.246 E11.57285
G1 X107.146 Y138.131 E11.58512
G1 X106.508 Y137.794 E11.61872
G1 X105.622 Y137.287 E11.66625
G1 X105.328 Y137.113 E11.68216
G1 X105.164 Y137.012 E11.69113
G1 X104.584 Y136.627 E11.72354
G1 X103.755 Y136.038 E11.7709
G1 X103.466 Y135.825 E11.78761
G1 X103.289 Y135.69 E11.79798
G1 X102.766 Y135.265 E11.82936
G1 X102.013 Y134.611 E11.8758
G1 X101.708 Y134.335 E11.89495
G1 X101.544 Y134.181 E11.90543
G1 X101.104 Y133.743 E11.93434
G1 X100.406 Y133.006 E11.9816
G1 X100.138 Y132.713 E12.00009
G1 X99.885 Y132.425 E12.01794
G1 X99.516 Y131.981 E12.04483
G1 X99.321 Y131.733 E12.05952
G1 X99.03 Y131.348 E12.08199
G1 X98.601 Y130.754 E12.11611
G1 X98.228 Y130.199 E12.14724
G1 X97.694 Y129.347 E12.19407
G1 X97.487 Y129.003 E12.21276
G1 X97.399 Y128.85 E12.22098
G1 X97.099 Y128.289 E12.2506
G1 X96.63 Y127.347 E12.2996
G1 X96.463 Y126.996 E12.3177
G1 X96.362 Y126.773 E12.3291
G1 X96.115 Y126.181 E12.35897
G1 X95.784 Y125.314 E12.40218
G1 X95.653 Y124.949 E12.42024
G1 X95.573 Y124.714 E12.4318
G1 X95.381 Y124.09 E12.4622
G1 X95.114 Y123.112 E12.50941
G1 X95.027 Y122.769 E12.52588
G1 X94.937 Y122.39 E12.54402
G1 X94.804 Y121.743 E12.57478
G1 X94.735 Y121.343 E12.59368
G1 X94.676 Y120.954 E12.612
G1 X94.586 Y120.285 E12.64343
G1 X94.517 Y119.612 E12.67493
G1 X94.45 Y118.654 E12.71965
G1 X94.43 Y118.284 E12.73691
G1 X94.422 Y118.055 E12.74758
G1 X94.42 Y117.381 E12.77896
G1 X94.449 Y116.369 E12.8261
G1 X94.466 Y116.003 E12.84316
G1 X94.48 Y115.782 E12.85347
G1 X94.544 Y115.11 E12.88491
G1 X94.671 Y114.115 E12.93161
G1 X94.713 Y113.819 E12.94554
G1 X94.746 Y113.608 E12.95548
G1 X94.888 Y112.871 E12.99043
G1 X95.122 Y111.853 E13.03907
G1 X95.211 Y111.495 E13.05624
G1 X95.306 Y111.139 E13.0734
G1 X95.471 Y110.582 E13.10045
G1 X95.566 Y110.291 E13.11471
G1 X95.662 Y110.011 E13.12849
G1 X95.802 Y109.624 E13.14765
G1 X95.981 Y109.145 E13.17146
G1 X96.245 Y108.503 E13.20379
G1 X96.626 Y107.657 E13.24699
